P3
400 225
255
174 197 0
174 197 0
173 197 0
175 198 0
174 197 0
174 198 0
173 197 0
175 198 0
173 197 0
172 195 0
174 197 0
174 197 0
174 198 0
174 197 0
172 196 0
174 198 0
175 198 0
175 198 0
175 197 0
173 196 0
175 198 0
173 196 0
173 196 0
174 197 0
174 197 0
174 198 0
174 198 0
174 198 0
172 195 0
173 197 0
174 197 0
174 197 0
174 197 0
174 197 0
174 197 0
174 198 0
175 198 0
171 195 0
173 196 0
174 198 0
176 198 0
173 196 0
172 197 0
174 198 0
174 197 0
173 197 0
172 196 0
174 198 0
174 197 0
175 198 0
174 198 0
173 197 0
174 198 0
174 196 0
174 197 0
173 196 0
172 196 0
171 196 0
175 197 0
173 197 0
173 197 0
173 197 0
174 197 0
174 197 0
174 197 0
174 198 0
174 197 0
173 196 0
174 197 0
174 197 0
175 198 0
176 198 0
174 198 0
173 197 0
173 196 0
173 197 0
173 196 0
173 197 0
171 195 0
174 197 0
172 196 0
174 197 0
175 198 0
174 198 0
174 196 0
174 197 0
173 197 0
174 197 0
173 197 0
173 197 0
172 196 0
173 196 0
173 197 0
174 198 0
170 194 0
174 197 0
172 196 0
175 198 0
175 198 0
176 199 0
174 197 0
175 198 0
172 195 0
173 196 0
173 196 0
173 195 0
173 196 0
174 198 0
173 195 0
170 194 0
174 197 0
173 196 0
173 197 0
172 195 0
173 196 0
172 196 0
173 196 0
173 197 0
173 196 0
174 197 0
173 196 0
175 198 0
174 197 0
173 196 0
173 196 0
173 196 0
172 195 0
174 197 0
174 197 0
174 197 0
173 196 0
169 193 0
174 197 0
172 196 0
172 196 0
175 197 0
173 197 0
172 195 0
175 198 0
174 197 0
173 196 0
171 195 0
175 198 0
172 195 0
172 196 0
175 198 0
175 198 0
173 196 0
172 195 0
176 199 0
171 195 0
174 197 0
173 197 0
171 195 0
174 198 0
174 196 0
174 197 0
175 198 0
172 195 0
173 196 0
174 197 0
174 197 0
174 197 0
174 197 0
173 197 0
171 195 0
174 197 0
172 195 0
172 196 0
172 195 0
172 196 0
174 196 0
172 196 0
174 197 0
172 195 0
173 196 0
175 197 0
173 196 0
173 196 0
173 196 0
173 196 0
172 196 0
172 196 0
172 195 0
171 195 0
173 196 0
175 198 0
173 197 0
174 197 0
173 196 0
174 197 0
172 194 0
171 194 0
172 195 0
173 196 0
172 195 0
171 195 0
173 196 0
173 197 0
172 196 0
174 196 0
173 196 0
172 195 0
171 195 0
170 193 0
173 196 0
174 196 0
173 196 0
171 194 0
172 196 0
170 194 0
175 198 0
172 196 0
172 196 0
173 197 0
172 194 0
173 196 0
173 196 0
172 196 0
173 196 0
171 195 0
174 197 0
176 198 0
171 195 0
173 196 0
174 197 0
173 196 0
173 196 0
174 197 0
172 195 0
172 195 0
173 195 0
175 197 0
173 196 0
175 198 0
174 197 0
171 195 0
173 196 0
172 196 0
171 194 0
174 196 11
172 192 22
167 187 25
167 185 34
166 183 39
166 183 37
169 183 52
161 173 51
159 167 63
152 161 49
150 157 61
148 151 70
154 156 74
159 159 75
142 140 71
146 143 78
157 152 89
141 136 82
147 142 88
150 145 89
142 137 86
143 139 84
147 142 88
155 149 93
152 147 94
153 149 95
154 150 94
157 152 97
162 157 101
164 159 103
157 153 98
154 150 95
160 155 99
152 147 94
156 152 98
155 152 98
152 147 96
161 157 101
164 159 104
158 153 102
160 157 103
153 150 99
159 155 101
159 155 101
161 157 103
157 154 101
160 157 104
164 161 106
166 163 109
159 155 103
161 157 103
161 158 104
162 160 107
167 162 108
165 162 107
159 156 105
163 161 108
165 162 107
162 160 107
167 164 108
166 163 109
166 163 108
164 160 107
167 165 111
161 158 106
169 166 110
163 160 107
164 161 108
161 159 107
167 165 110
165 163 109
158 156 104
167 164 110
166 164 109
158 156 104
159 157 105
159 157 104
162 159 106
162 160 107
160 157 105
162 160 107
166 164 110
168 165 110
161 159 107
161 158 105
160 158 106
168 166 110
158 156 104
162 159 106
161 159 106
156 154 103
169 166 110
162 160 107
168 164 109
166 164 109
168 165 109
162 159 106
165 162 108
167 164 109
162 160 107
167 163 109
158 155 102
164 161 106
163 159 105
159 156 103
157 153 101
163 159 104
165 161 107
157 154 101
163 158 104
160 157 103
159 155 101
163 158 103
161 159 106
163 158 104
156 152 99
152 148 93
160 155 101
154 149 97
154 149 96
158 153 100
161 156 101
162 157 102
156 152 99
156 151 95
151 147 93
154 150 96
150 145 90
157 150 90
154 148 92
147 142 86
147 142 86
146 139 84
150 145 86
141 137 79
132 130 70
147 147 71
146 153 58
150 159 59
152 161 56
158 171 42
168 180 56
170 189 37
172 191 30
172 194 11
170 189 22
173 197 0
172 196 0
174 196 0
173 197 0
175 198 0
173 196 0
174 198 0
175 198 0
174 197 0
174 198 0
173 197 0
173 197 0
174 197 0
175 198 0
174 197 0
173 197 0
173 197 0
173 196 0
174 198 0
173 197 0
173 196 0
175 198 0
172 195 0
173 197 0
175 198 0
174 198 0
174 197 0
174 198 0
172 196 0
174 197 0
174 197 0
173 196 0
174 197 0
172 196 0
172 196 0
174 197 0
173 196 0
172 196 0
176 199 0
173 197 0
174 198 0
173 197 0
174 197 0
173 196 0
172 196 0
173 197 0
175 198 0
174 198 0
173 197 0
171 195 0
175 198 0
170 194 0
174 198 0
172 196 0
175 197 0
174 197 0
173 197 0
175 198 0
175 198 0
171 195 0
175 198 0
174 197 0
173 197 0
174 198 0
174 197 0
173 196 0
172 196 0
174 197 0
174 197 0
175 198 0
171 195 0
174 198 0
173 197 0
174 197 0
173 196 0
173 196 0
175 198 0
174 197 0
175 197 0
172 195 0
173 197 0
173 197 0
173 197 0
173 196 0
174 197 0
173 196 0
173 197 0
172 196 0
175 198 0
172 196 0
173 197 0
174 197 0
174 197 0
175 198 0
175 198 0
174 198 0
173 196 0
173 197 0
173 197 0
174 197 0
173 197 0
174 198 0
174 197 0
173 197 0
175 198 0
173 196 0
170 193 0
176 198 0
173 197 0
174 197 0
173 196 0
170 195 0
173 197 0
173 196 0
172 196 0
174 197 0
174 197 0
172 196 0
175 198 0
172 196 0
175 198 0
173 196 0
173 197 0
174 198 0
176 199 0
175 198 0
174 197 0
175 198 0
174 196 0
173 197 0
175 198 0
172 195 0
175 197 0
173 197 0
173 196 0
171 194 0
172 195 0
171 195 0
173 196 0
175 198 0
173 197 0
172 195 0
172 195 0
174 197 0
172 195 0
173 197 0
174 197 0
173 195 0
172 196 0
171 195 0
174 198 0
171 195 0
172 195 0
173 197 0
173 196 0
173 197 0
171 195 0
174 197 0
174 197 0
172 195 0
172 195 0
171 194 0
171 195 0
174 197 0
175 197 0
171 194 0
171 193 0
174 197 0
173 197 0
172 195 0
169 193 0
176 198 0
174 196 0
173 196 0
174 197 0
172 196 0
175 198 0
172 195 0
174 197 0
176 198 0
173 197 0
171 195 0
175 197 0
172 196 0
173 197 0
171 195 0
171 195 0
173 196 0
175 198 0
173 196 0
175 198 0
172 195 0
171 196 0
171 195 0
174 196 0
174 197 0
171 195 0
173 195 0
172 196 0
173 197 0
173 195 0
173 196 0
172 196 0
175 197 0
172 196 0
172 195 0
175 198 0
170 194 0
173 195 0
167 191 0
172 194 0
173 197 0
174 196 0
173 196 0
173 197 0
173 196 0
171 195 0
175 197 0
173 197 0
174 197 0
172 195 0
175 198 0
172 195 0
174 197 0
172 196 0
173 197 0
175 197 0
173 197 0
172 194 0
174 197 0
173 195 0
174 197 0
174 197 0
173 195 0
172 195 0
173 197 0
174 197 0
175 197 0
172 196 0
173 197 0
171 195 0
174 198 0
174 198 0
174 197 0
173 196 0
171 193 0
170 193 0
173 196 0
173 197 0
174 196 0
172 195 0
173 197 0
173 196 0
173 196 0
167 188 16
173 194 22
171 189 36
167 184 37
159 176 32
161 176 41
154 168 47
162 172 63
162 172 56
155 161 62
152 156 65
155 158 72
152 154 70
149 145 79
152 149 81
144 139 81
144 140 81
144 139 80
160 153 93
151 146 88
148 142 90
146 142 88
155 150 95
153 149 93
148 143 91
156 151 94
151 146 93
151 147 92
162 158 100
153 149 95
158 153 99
158 154 100
161 157 101
159 155 101
162 158 102
163 159 104
162 157 103
168 163 107
160 156 103
151 147 97
153 150 100
155 152 100
158 155 103
168 164 108
165 162 107
155 152 101
155 152 101
163 160 106
158 155 102
167 163 109
159 156 103
157 154 103
168 165 110
166 163 109
164 161 108
169 164 109
165 162 108
166 163 109
165 163 108
162 158 105
166 163 109
163 161 108
167 165 110
168 165 110
163 160 108
166 163 109
164 161 108
164 162 108
167 164 110
167 165 110
156 154 103
168 166 111
164 161 108
170 166 110
164 161 108
167 164 109
167 165 110
165 163 109
170 167 112
166 163 109
163 161 108
163 161 108
158 156 104
159 157 105
162 160 108
165 163 109
160 158 105
165 163 109
169 167 111
162 159 106
167 165 110
164 161 108
162 159 106
158 155 103
164 162 108
166 163 108
159 156 104
165 162 107
163 160 106
161 158 104
165 162 108
153 150 100
162 159 106
156 152 101
149 146 97
164 161 107
160 156 103
162 158 103
165 161 106
165 161 106
160 156 101
157 153 99
154 151 99
153 150 98
164 160 103
161 156 102
157 153 99
155 151 97
156 152 97
155 149 94
155 150 97
161 155 100
157 153 98
147 142 91
154 149 93
150 145 94
157 151 95
149 144 90
151 145 90
153 148 93
144 140 87
149 142 88
153 147 88
140 135 84
138 134 76
144 142 80
158 156 83
149 151 68
151 157 66
156 166 57
159 169 56
160 174 49
164 178 45
166 184 36
168 188 25
167 189 11
171 193 11
175 197 11
172 196 0
174 197 0
174 197 0
174 197 0
173 197 0
174 197 0
173 195 0
173 197 0
174 197 0
175 198 0
174 197 0
173 196 0
174 197 0
174 197 0
172 196 0
175 198 0
176 198 0
175 198 0
175 198 0
172 195 0
174 198 0
175 198 0
172 196 0
172 196 0
174 197 0
172 196 0
176 199 0
173 197 0
172 196 0
172 196 0
173 197 0
174 198 0
174 198 0
174 198 0
172 196 0
175 198 0
173 196 0
172 196 0
174 197 0
176 198 0
174 198 0
175 198 0
173 197 0
172 196 0
174 198 0
175 198 0
174 198 0
174 197 0
175 198 0
173 197 0
174 197 0
175 198 0
174 196 0
174 197 0
174 197 0
173 197 0
170 194 0
174 197 0
173 197 0
174 197 0
172 196 0
172 196 0
174 198 0
173 196 0
174 198 0
171 195 0
174 198 0
174 197 0
175 198 0
173 197 0
173 197 0
173 197 0
173 196 0
171 195 0
176 198 0
174 197 0
176 198 0
174 197 0
174 197 0
175 198 0
173 196 0
174 197 0
172 196 0
172 195 0
176 198 0
175 197 0
174 198 0
173 197 0
172 197 0
173 196 0
173 197 0
171 195 0
174 198 0
174 198 0
173 197 0
173 196 0
174 198 0
174 197 0
171 195 0
173 196 0
174 198 0
174 197 0
172 195 0
173 197 0
175 198 0
175 198 0
173 196 0
173 197 0
174 196 0
173 197 0
173 197 0
174 198 0
174 197 0
174 197 0
174 197 0
174 197 0
173 197 0
175 198 0
174 197 0
174 198 0
172 196 0
173 197 0
174 197 0
172 196 0
175 198 0
173 196 0
172 196 0
174 197 0
173 197 0
171 194 0
173 197 0
173 196 0
172 196 0
173 196 0
174 197 0
172 196 0
172 195 0
174 197 0
174 197 0
176 198 0
172 196 0
171 195 0
174 197 0
173 197 0
173 196 0
173 196 0
173 196 0
174 197 0
172 196 0
172 196 0
174 197 0
173 197 0
173 197 0
173 196 0
173 195 0
173 196 0
174 198 0
172 195 0
171 195 0
173 196 0
174 197 0
174 197 0
173 197 0
174 197 0
173 197 0
173 197 0
175 198 0
172 195 0
174 198 0
173 196 0
171 194 0
174 197 0
172 195 0
175 198 0
173 196 0
171 195 0
172 196 0
174 197 0
173 196 0
172 195 0
173 197 0
173 197 0
171 194 0
172 195 0
173 197 0
175 198 0
174 197 0
170 194 0
172 195 0
174 197 0
174 197 0
172 196 0
172 196 0
174 197 0
171 195 0
172 196 0
173 195 0
173 196 0
175 198 0
172 194 0
173 197 0
170 194 0
171 194 0
171 194 0
171 193 0
174 196 0
174 197 0
172 195 0
174 197 0
173 197 0
173 196 0
171 194 0
173 196 0
174 197 0
172 195 0
174 197 0
175 198 0
173 195 0
173 197 0
173 197 0
174 196 0
173 196 0
173 195 0
171 196 0
174 197 0
174 198 0
175 197 0
172 195 0
174 197 0
175 198 0
173 197 0
171 195 0
174 198 0
171 194 0
173 195 0
171 194 0
174 197 0
171 195 0
173 196 0
171 195 0
172 195 0
175 198 0
173 195 0
171 194 0
173 195 0
173 195 0
174 197 0
171 193 0
173 197 0
174 197 0
172 194 0
171 192 22
169 191 0
169 191 25
166 186 32
163 180 37
165 181 39
158 173 41
160 170 52
159 169 56
159 164 67
159 166 62
149 151 68
145 149 59
144 142 75
153 150 80
148 144 78
145 141 84
148 143 89
145 140 83
154 147 88
148 143 89
151 146 88
155 151 93
151 145 92
154 150 95
150 146 92
152 147 93
161 154 97
152 149 97
159 154 98
157 152 97
152 148 96
150 147 96
154 151 98
152 148 97
160 156 101
154 151 98
162 157 102
162 158 104
166 162 106
156 152 100
156 152 99
156 152 101
160 157 105
162 159 104
158 155 103
167 164 110
161 158 106
158 155 102
165 162 108
163 160 107
154 150 100
162 160 107
168 165 110
167 164 109
166 163 108
167 165 110
161 159 107
163 161 108
172 167 110
159 157 105
165 162 108
166 163 109
164 162 108
167 164 109
166 164 110
165 163 109
163 161 108
166 164 110
164 162 108
162 161 108
162 160 107
161 160 107
165 163 109
165 163 109
166 163 109
163 162 109
164 162 108
164 162 109
162 160 107
164 162 108
167 164 109
169 167 112
164 161 108
167 164 109
166 164 109
169 166 110
164 161 108
167 165 110
167 164 109
165 162 108
170 167 111
160 158 106
163 161 107
159 156 104
162 159 106
168 165 109
161 158 105
166 163 109
157 154 102
162 159 106
166 163 108
164 161 106
166 161 106
164 160 106
159 156 103
161 158 104
164 160 106
158 153 101
166 162 107
163 158 104
166 161 103
163 158 104
165 161 105
157 154 99
157 153 99
154 151 99
152 149 97
156 152 97
159 154 100
156 150 97
159 154 100
154 149 95
151 147 93
159 154 99
158 153 95
154 148 94
159 153 97
149 145 88
150 145 91
155 149 92
146 141 85
153 147 87
154 148 91
147 142 85
155 148 90
148 144 84
151 152 79
143 145 70
149 152 67
159 169 61
156 167 51
162 176 45
157 171 47
165 182 39
171 188 42
168 188 32
173 194 22
173 195 11
173 196 0
173 196 0
171 195 0
174 197 0
172 196 0
176 198 0
175 198 0
173 197 0
174 198 0
173 197 0
173 197 0
175 197 0
174 197 0
175 197 0
175 198 0
173 197 0
172 196 0
171 195 0
173 197 0
173 196 0
174 198 0
174 198 0
174 198 0
174 197 0
173 197 0
173 197 0
175 198 0
174 198 0
173 197 0
174 198 0
174 197 0
175 198 0
173 197 0
173 197 0
176 199 0
173 197 0
175 198 0
171 195 0
175 198 0
173 197 0
174 197 0
175 198 0
172 196 0
172 196 0
174 197 0
174 197 0
174 197 0
173 197 0
174 197 0
174 197 0
174 198 0
173 197 0
173 197 0
174 197 0
174 197 0
173 197 0
173 196 0
174 197 0
173 197 0
174 197 0
175 198 0
174 197 0
175 198 0
172 197 0
172 196 0
173 196 0
175 198 0
172 195 0
175 197 0
175 198 0
173 196 0
175 197 0
172 197 0
173 197 0
173 197 0
174 197 0
175 198 0
173 197 0
172 197 0
173 197 0
175 198 0
173 196 0
173 196 0
174 197 0
173 196 0
172 196 0
172 196 0
172 197 0
175 198 0
174 197 0
172 196 0
174 197 0
174 197 0
173 197 0
172 196 0
172 196 0
176 198 0
175 198 0
174 198 0
170 195 0
172 196 0
174 198 0
175 198 0
174 197 0
173 197 0
175 197 0
171 195 0
174 197 0
174 197 0
173 197 0
174 197 0
174 196 0
174 197 0
174 197 0
173 195 0
173 196 0
173 196 0
175 198 0
173 196 0
173 197 0
170 194 0
174 197 0
173 197 0
173 197 0
173 197 0
172 195 0
175 198 0
173 196 0
173 197 0
174 196 0
174 197 0
172 195 0
171 195 0
173 197 0
173 197 0
173 197 0
172 196 0
174 197 0
173 196 0
172 195 0
172 196 0
173 197 0
171 194 0
174 197 0
172 196 0
175 197 0
174 197 0
174 197 0
174 197 0
174 197 0
173 196 0
173 196 0
172 196 0
171 195 0
172 196 0
171 195 0
174 197 0
173 196 0
174 197 0
174 197 0
170 194 0
174 197 0
174 197 0
172 195 0
173 197 0
175 198 0
173 197 0
173 196 0
173 195 0
172 196 0
173 196 0
172 195 0
172 196 0
174 197 0
174 197 0
173 197 0
173 197 0
173 197 0
174 197 0
172 195 0
173 196 0
172 195 0
172 195 0
173 196 0
174 197 0
174 196 0
174 197 0
171 195 0
175 197 0
172 195 0
174 198 0
172 195 0
174 198 0
175 198 0
173 195 0
174 197 0
173 196 0
173 195 0
173 196 0
174 197 0
174 197 0
171 195 0
175 198 0
172 195 0
171 194 0
173 196 0
173 196 0
171 195 0
172 196 0
173 197 0
173 197 0
175 198 0
170 193 0
173 196 0
173 197 0
172 196 0
175 198 0
174 197 0
174 196 0
172 195 0
173 195 0
174 196 0
175 198 0
173 196 0
173 195 0
174 197 0
173 195 0
176 198 0
171 194 0
173 197 0
173 196 0
174 197 0
173 196 0
172 195 0
173 196 0
174 197 0
173 196 0
171 195 0
172 195 0
174 196 0
172 194 0
174 197 0
172 196 0
172 196 0
174 197 0
173 196 0
173 196 0
171 195 0
173 196 0
173 196 0
171 194 11
172 194 22
162 182 19
165 186 11
163 180 34
163 178 44
163 178 42
158 171 46
160 171 45
161 169 58
154 162 57
159 166 63
147 149 68
148 151 65
151 151 77
147 142 82
145 142 79
146 141 84
145 140 87
153 147 89
148 143 88
154 150 93
149 143 91
154 149 90
158 153 96
153 148 92
156 151 96
157 153 99
153 148 95
154 149 97
155 151 96
153 149 97
160 155 101
165 159 103
151 148 95
160 156 102
159 156 101
162 159 103
153 149 95
161 158 105
156 152 100
161 157 105
161 157 104
162 159 105
156 154 102
159 156 103
164 161 107
166 162 107
161 158 104
160 156 104
164 161 107
163 161 108
160 156 103
170 166 109
165 162 108
159 157 104
159 156 104
165 162 108
162 160 108
167 164 109
166 163 109
165 162 108
162 160 107
166 163 109
164 161 108
166 164 109
162 160 107
166 164 109
164 162 108
165 163 109
166 163 109
169 165 110
165 163 109
161 158 105
170 167 112
166 164 109
168 165 110
167 164 109
169 167 111
163 161 108
168 166 111
164 162 108
168 165 110
166 164 109
167 165 110
169 166 111
163 160 107
168 166 111
165 163 109
169 167 111
164 162 108
160 158 105
167 164 109
163 161 108
164 161 108
164 161 108
169 165 109
167 163 109
162 159 106
167 164 109
166 164 109
162 158 105
166 164 109
167 163 108
170 166 110
161 158 105
160 156 103
159 157 104
167 163 106
168 163 108
166 162 107
163 159 106
163 158 102
159 156 103
168 163 105
157 153 99
163 159 105
165 161 104
157 152 101
159 154 99
164 158 103
152 148 95
149 143 92
155 151 97
153 148 95
155 151 94
153 149 95
160 153 98
154 149 93
154 149 95
145 140 87
150 143 88
150 145 90
149 143 87
141 136 81
148 142 87
144 139 83
145 140 84
151 149 80
146 144 78
153 153 76
154 157 68
150 158 59
146 158 44
159 170 51
164 182 39
160 175 39
173 191 39
170 191 19
174 196 11
172 195 11
175 198 0
173 196 0
175 198 0
173 196 0
173 196 0
175 198 0
174 197 0
174 198 0
173 197 0
174 197 0
173 196 0
174 198 0
173 197 0
173 196 0
175 198 0
175 197 0
172 196 0
174 198 0
173 196 0
170 194 0
175 198 0
170 194 0
174 197 0
174 197 0
175 198 0
175 198 0
172 196 0
174 197 0
174 197 0
175 198 0
172 196 0
174 197 0
172 196 0
173 197 0
174 197 0
173 197 0
173 197 0
173 197 0
172 196 0
174 198 0
175 198 0
172 195 0
173 197 0
176 199 0
173 197 0
174 198 0
173 197 0
173 196 0
172 196 0
173 196 0
173 196 0
175 198 0
174 198 0
175 198 0
174 198 0
174 197 0
172 196 0
174 196 0
172 196 0
173 197 0
170 195 0
175 198 0
172 196 0
174 198 0
175 198 0
175 198 0
175 198 0
175 198 0
174 197 0
174 198 0
173 196 0
174 197 0
173 196 0
172 196 0
171 195 0
173 196 0
176 199 0
173 196 0
173 196 0
174 198 0
174 198 0
174 198 0
174 198 0
176 198 0
174 197 0
175 198 0
173 197 0
170 194 0
174 197 0
175 197 0
174 197 0
174 198 0
174 198 0
173 196 0
173 197 0
175 198 0
172 196 0
174 197 0
175 197 0
173 197 0
173 196 0
175 198 0
175 198 0
173 196 0
174 196 0
174 198 0
174 198 0
173 197 0
173 195 0
173 197 0
172 195 0
173 196 0
173 196 0
174 196 0
173 197 0
172 196 0
174 197 0
172 196 0
172 195 0
173 195 0
175 198 0
172 196 0
173 196 0
172 195 0
172 196 0
173 197 0
174 196 0
173 197 0
172 195 0
173 197 0
174 196 0
175 198 0
174 197 0
173 196 0
173 197 0
169 193 0
173 197 0
174 197 0
173 195 0
174 197 0
173 196 0
171 194 0
174 197 0
174 198 0
170 194 0
173 197 0
171 195 0
172 196 0
176 198 0
174 197 0
172 195 0
172 196 0
172 195 0
175 198 0
173 196 0
172 195 0
171 194 0
174 197 0
171 194 0
172 195 0
172 196 0
173 196 0
175 198 0
172 195 0
175 198 0
173 197 0
172 195 0
173 197 0
172 195 0
175 198 0
173 196 0
172 195 0
171 195 0
175 198 0
174 197 0
173 196 0
174 197 0
172 196 0
174 197 0
174 197 0
174 198 0
174 197 0
173 197 0
172 196 0
172 196 0
171 195 0
171 194 0
174 196 0
172 196 0
174 196 0
175 197 0
173 197 0
172 195 0
174 197 0
173 197 0
170 193 0
173 197 0
173 196 0
172 195 0
174 198 0
171 194 0
173 196 0
174 198 0
172 195 0
172 196 0
171 194 0
169 193 0
174 197 0
173 196 0
172 195 0
172 194 0
172 195 0
173 197 0
171 195 0
174 197 0
174 196 0
173 196 0
174 197 0
173 196 0
172 195 0
172 196 0
175 198 0
171 195 0
172 195 0
173 196 0
172 196 0
173 196 0
172 195 0
174 197 0
169 192 0
171 194 0
172 196 0
174 196 0
173 196 0
171 194 0
173 196 0
172 194 0
174 197 0
173 197 0
173 196 0
171 194 0
170 193 0
173 196 0
172 194 0
172 194 0
173 195 0
172 195 0
170 194 0
173 196 0
172 193 19
168 189 11
164 181 22
165 185 30
164 180 34
161 175 47
162 175 51
161 173 57
157 166 58
157 166 57
157 163 71
151 153 71
143 143 67
146 145 75
144 140 78
152 148 85
145 139 85
144 139 80
154 148 89
149 144 86
154 149 90
154 148 89
144 139 87
153 147 91
153 147 91
157 153 99
154 149 96
153 149 94
154 150 96
158 154 98
154 149 95
155 151 97
158 153 99
154 150 99
151 147 96
155 151 98
155 150 98
152 148 97
161 157 103
157 152 100
159 155 102
159 156 103
166 162 107
159 155 101
158 155 103
163 159 105
162 158 104
156 153 102
161 159 106
166 163 108
161 158 106
165 161 107
164 161 106
163 160 107
167 164 108
157 155 104
168 164 109
166 163 108
166 164 109
161 158 106
167 164 109
171 167 111
164 161 107
166 163 109
167 164 109
168 164 109
171 168 112
167 165 110
160 158 105
170 167 111
170 167 111
166 163 109
165 164 110
169 166 110
166 163 109
167 163 109
167 165 110
167 164 110
164 162 108
169 166 110
161 159 106
166 164 109
164 161 108
166 164 109
166 164 109
164 161 108
166 163 109
167 165 110
170 167 111
168 165 109
161 159 106
157 155 104
163 160 106
163 160 107
162 159 106
165 162 108
166 163 108
160 158 105
161 157 104
167 164 108
167 163 108
165 161 106
163 160 106
162 159 105
167 164 108
169 164 109
167 163 108
170 166 109
157 154 101
166 161 105
160 156 103
160 157 103
162 158 104
160 156 103
159 155 101
162 157 103
165 161 107
165 159 103
160 156 102
160 155 101
164 160 103
158 154 99
159 155 100
160 155 101
162 156 99
157 152 97
165 160 103
151 146 89
162 156 99
158 153 96
153 148 90
148 143 89
153 147 93
159 153 94
155 150 90
147 141 87
149 143 86
137 132 79
147 142 81
151 148 80
155 154 83
156 158 70
145 151 59
156 167 58
156 169 47
159 174 42
165 181 42
165 184 32
166 186 19
169 189 25
170 192 11
173 196 0
174 197 0
174 197 0
172 195 0
172 196 0
174 198 0
173 196 0
173 196 0
174 198 0
175 198 0
174 198 0
175 198 0
173 197 0
175 198 0
173 197 0
175 198 0
171 195 0
174 197 0
175 198 0
174 197 0
173 196 0
174 197 0
174 198 0
173 197 0
174 197 0
173 197 0
173 196 0
173 197 0
174 197 0
175 198 0
175 198 0
174 197 0
174 197 0
175 197 0
174 197 0
174 198 0
174 198 0
173 197 0
171 194 0
173 197 0
173 196 0
174 197 0
174 197 0
175 198 0
175 198 0
174 197 0
175 198 0
174 197 0
173 197 0
173 197 0
174 198 0
175 198 0
173 197 0
174 197 0
177 199 0
173 197 0
174 197 0
174 197 0
173 196 0
172 195 0
175 197 0
174 197 0
172 196 0
173 196 0
174 197 0
176 199 0
173 197 0
172 196 0
174 198 0
173 196 0
174 197 0
174 198 0
173 197 0
174 197 0
171 195 0
176 199 0
174 198 0
173 196 0
174 198 0
174 197 0
174 197 0
174 197 0
174 197 0
172 196 0
172 196 0
173 196 0
174 198 0
174 197 0
173 197 0
173 196 0
174 197 0
171 194 0
173 197 0
173 197 0
174 197 0
173 196 0
173 197 0
174 197 0
174 197 0
173 197 0
171 195 0
176 199 0
172 195 0
172 196 0
174 197 0
174 198 0
174 198 0
173 196 0
173 196 0
174 197 0
172 195 0
172 196 0
171 194 0
173 196 0
173 196 0
173 196 0
175 198 0
172 196 0
174 197 0
173 196 0
174 197 0
172 195 0
174 198 0
174 198 0
175 198 0
173 196 0
175 198 0
171 195 0
171 195 0
172 196 0
175 198 0
177 199 0
172 197 0
173 196 0
172 196 0
175 198 0
171 195 0
173 196 0
173 197 0
173 196 0
173 197 0
170 193 0
173 195 0
173 197 0
175 198 0
173 196 0
173 196 0
173 197 0
173 197 0
175 198 0
174 197 0
174 196 0
174 196 0
172 196 0
171 194 0
173 196 0
173 196 0
174 196 0
172 195 0
171 194 0
173 196 0
170 194 0
172 196 0
174 197 0
173 196 0
174 197 0
172 196 0
173 196 0
173 197 0
171 195 0
172 196 0
174 196 0
172 196 0
173 197 0
173 196 0
174 198 0
174 197 0
173 196 0
174 198 0
175 198 0
171 194 0
175 198 0
172 195 0
171 194 0
174 197 0
173 197 0
174 197 0
175 198 0
174 197 0
173 197 0
174 197 0
170 193 0
172 195 0
173 196 0
171 195 0
174 197 0
174 196 0
172 195 0
173 197 0
173 197 0
173 196 0
171 195 0
175 197 0
170 194 0
173 196 0
175 198 0
172 195 0
172 195 0
174 197 0
173 196 0
175 198 0
175 198 0
171 194 0
173 196 0
173 197 0
173 196 0
172 195 0
173 197 0
174 197 0
174 196 0
171 195 0
171 194 0
174 197 0
173 197 0
172 196 0
172 195 0
171 195 0
173 196 0
173 197 0
173 196 0
172 195 0
171 194 0
171 195 0
170 193 0
173 197 0
173 196 0
174 197 0
173 196 0
174 198 0
174 197 0
173 196 0
171 194 0
172 196 0
171 194 0
172 196 0
173 196 0
172 195 0
171 193 0
167 189 11
168 189 22
171 191 19
171 191 19
167 185 32
158 176 36
165 181 42
163 174 51
155 167 52
155 166 52
147 154 56
150 156 59
143 146 66
149 148 75
144 143 72
152 147 84
139 134 80
137 133 75
137 132 81
151 146 90
155 150 92
145 141 91
150 146 87
151 147 90
140 136 85
157 152 94
146 142 91
159 154 98
159 155 101
161 155 98
149 146 96
154 150 98
162 157 103
151 147 93
155 151 98
159 155 103
161 156 100
158 155 102
157 153 100
160 156 102
164 161 106
160 157 104
153 150 96
167 163 109
158 155 103
166 162 107
154 152 103
159 156 105
168 165 108
159 156 104
164 161 107
159 156 104
160 158 106
163 160 107
165 162 108
162 161 108
163 161 108
163 160 107
161 157 104
166 164 109
168 166 111
156 154 103
156 154 103
170 167 111
166 163 109
164 161 107
166 163 109
170 167 110
165 161 108
169 167 112
166 164 110
163 161 108
161 158 105
166 163 109
166 164 109
166 164 110
167 164 109
166 164 109
166 164 110
167 165 110
169 167 111
167 165 110
163 161 108
169 165 110
168 165 110
170 166 110
168 166 110
164 162 109
170 167 111
165 163 109
167 164 109
171 167 111
166 163 109
163 161 108
164 161 107
166 164 109
169 166 110
163 160 106
167 163 108
166 163 109
166 162 108
162 159 105
166 163 108
167 164 109
165 162 108
166 161 106
161 158 104
165 161 107
163 159 104
160 157 103
165 161 106
159 155 100
162 159 105
160 156 101
165 160 104
160 155 101
157 154 102
161 157 101
159 155 101
163 158 101
163 159 104
165 160 102
162 158 103
156 152 99
162 157 101
155 150 95
160 154 98
155 149 93
159 154 97
161 155 97
157 152 92
151 146 93
152 146 91
152 147 91
153 148 92
154 147 89
153 147 90
156 150 92
147 141 81
152 146 89
148 143 82
152 150 80
152 151 79
151 157 62
155 159 66
159 170 56
153 165 53
167 180 47
162 178 34
168 188 28
169 190 16
171 193 22
174 196 11
174 197 0
173 196 0
172 195 0
175 198 0
175 198 0
174 198 0
175 197 0
174 197 0
174 197 0
175 198 0
171 196 0
174 196 0
172 196 0
173 196 0
175 198 0
174 197 0
174 198 0
173 197 0
174 197 0
174 198 0
174 198 0
173 197 0
175 198 0
174 197 0
173 197 0
171 195 0
174 197 0
172 196 0
173 197 0
175 198 0
173 196 0
174 198 0
172 196 0
173 197 0
172 196 0
176 199 0
174 197 0
173 197 0
174 197 0
175 198 0
172 196 0
175 198 0
173 196 0
175 197 0
173 196 0
173 196 0
173 197 0
172 195 0
173 196 0
172 195 0
174 197 0
173 197 0
172 195 0
173 197 0
173 196 0
172 196 0
174 198 0
174 198 0
174 197 0
174 197 0
175 198 0
171 195 0
173 196 0
174 198 0
174 197 0
173 197 0
174 197 0
174 197 0
174 197 0
175 198 0
174 197 0
172 196 0
172 196 0
171 195 0
175 198 0
174 197 0
172 196 0
173 197 0
175 198 0
174 196 0
174 197 0
174 197 0
173 196 0
174 197 0
174 198 0
173 196 0
173 197 0
173 197 0
174 197 0
173 196 0
175 198 0
173 197 0
172 196 0
173 196 0
175 198 0
174 197 0
173 196 0
173 196 0
173 196 0
174 197 0
173 197 0
171 195 0
173 197 0
176 198 0
174 197 0
174 198 0
174 196 0
174 197 0
172 196 0
173 197 0
173 197 0
172 195 0
173 196 0
175 197 0
172 196 0
173 196 0
173 196 0
173 196 0
172 195 0
173 197 0
174 197 0
175 198 0
173 197 0
174 197 0
173 197 0
174 197 0
171 194 0
173 196 0
173 196 0
171 194 0
172 196 0
172 196 0
174 197 0
173 196 0
172 195 0
174 196 0
171 195 0
172 196 0
174 197 0
171 195 0
172 195 0
175 198 0
175 198 0
172 197 0
172 196 0
174 197 0
174 197 0
174 197 0
171 194 0
173 196 0
175 197 0
174 197 0
172 195 0
173 195 0
174 197 0
174 197 0
174 198 0
173 196 0
172 195 0
173 195 0
174 197 0
175 198 0
174 196 0
171 195 0
175 198 0
171 195 0
174 197 0
172 196 0
175 198 0
170 194 0
173 195 0
168 191 0
174 197 0
173 196 0
175 198 0
174 197 0
171 194 0
173 197 0
171 194 0
173 196 0
170 194 0
174 197 0
173 197 0
174 196 18
171 195 18
173 197 0
172 195 18
171 195 0
174 197 0
172 195 0
171 195 0
172 196 0
173 196 0
174 197 0
173 196 0
170 193 0
171 194 0
172 194 0
172 196 0
174 198 0
173 196 0
174 197 0
174 197 0
174 197 0
174 197 0
170 194 0
169 192 0
174 196 0
171 195 0
173 197 0
173 196 0
173 196 0
173 196 0
173 197 0
172 195 0
172 195 0
173 197 0
172 196 0
172 194 0
175 198 0
172 196 0
171 194 0
174 197 0
175 197 0
174 197 0
172 196 0
172 194 0
174 197 0
173 197 0
171 195 0
174 197 0
174 197 0
175 197 0
173 195 0
172 194 0
174 197 0
172 195 0
173 196 0
173 197 0
172 195 0
171 194 0
171 194 0
171 195 0
171 196 0
172 196 0
173 196 0
173 196 11
171 193 25
169 191 16
168 189 25
166 186 28
161 179 31
159 172 42
162 173 53
164 176 49
149 159 48
154 162 56
148 154 61
145 148 64
142 143 67
141 140 75
151 148 82
145 141 81
148 142 85
142 138 79
153 148 91
146 140 87
151 145 92
156 151 93
152 146 88
144 139 86
150 145 92
153 148 93
148 143 93
159 155 100
158 153 99
161 156 100
156 151 98
158 154 101
155 151 99
157 153 100
155 151 98
158 153 97
160 157 102
156 152 100
160 157 103
160 156 103
155 152 102
160 156 104
165 161 107
165 160 106
162 159 106
159 156 103
163 160 106
161 158 106
164 161 107
164 161 106
158 156 104
165 162 108
161 159 106
155 152 102
163 159 106
165 162 108
165 162 109
167 164 109
166 163 110
169 165 110
161 158 106
165 162 108
167 164 110
165 163 109
172 168 112
169 166 110
158 156 104
167 164 110
168 165 110
165 162 108
168 166 110
161 159 106
164 162 108
165 163 109
170 166 110
167 164 109
170 167 112
171 167 110
170 167 112
162 159 106
170 167 111
160 157 105
163 162 108
166 164 110
161 159 106
167 164 109
171 168 112
161 157 104
165 163 109
171 168 112
165 162 108
163 160 107
169 165 110
166 163 109
165 162 108
167 164 109
165 163 109
167 164 108
162 159 106
164 161 108
170 167 110
170 166 110
161 158 105
167 164 109
166 162 107
168 165 109
158 155 103
165 161 106
160 157 104
164 160 106
165 160 105
165 160 105
163 158 104
166 161 106
163 160 106
162 158 102
164 160 103
169 164 106
162 157 103
158 152 98
159 154 99
158 153 99
164 159 101
153 149 93
157 153 99
159 154 97
159 153 98
159 154 98
158 152 98
163 156 99
153 147 93
157 151 95
155 149 91
151 146 92
157 151 94
146 141 87
143 137 80
155 150 88
140 135 80
141 136 80
127 122 65
147 145 74
146 142 77
145 143 70
157 163 68
163 170 62
153 166 47
157 169 51
166 185 32
165 182 36
168 187 28
169 190 11
169 191 22
174 197 0
175 197 0
175 198 0
173 197 0
172 196 0
175 198 0
174 197 0
174 197 0
174 198 0
173 197 0
176 199 0
174 197 0
176 198 0
174 197 0
172 196 0
174 197 0
173 197 0
173 196 0
174 198 0
172 196 0
173 197 0
175 198 0
173 197 0
173 197 0
172 195 0
175 198 0
172 196 0
172 196 0
172 196 0
175 198 0
173 197 0
172 197 0
172 196 0
172 196 0
174 197 0
174 197 0
173 196 0
175 197 0
174 197 0
173 197 0
173 197 0
173 197 0
175 198 0
174 197 0
173 196 0
173 195 0
171 195 0
174 198 0
174 197 0
174 197 0
173 197 0
174 197 0
176 198 0
174 197 0
175 198 0
172 196 0
173 196 0
174 198 0
173 196 0
172 195 0
175 197 0
174 197 0
173 196 0
171 194 0
172 196 0
174 197 0
173 196 0
173 197 0
175 198 0
175 198 0
172 196 0
173 196 0
174 197 0
175 198 0
173 197 0
175 197 0
174 197 0
174 197 0
173 197 0
174 198 0
171 196 0
174 198 0
174 197 0
172 196 0
172 195 0
174 197 0
173 196 0
174 197 0
173 196 0
173 196 0
171 195 0
172 195 0
173 196 0
173 197 0
171 194 0
176 198 0
174 197 0
169 193 0
174 197 0
174 197 0
175 198 0
174 197 0
174 197 0
173 196 0
174 196 0
174 197 0
173 196 0
172 196 0
170 193 0
174 197 0
174 198 0
175 197 0
175 198 0
172 196 0
171 195 0
174 197 0
173 196 0
174 197 0
175 197 0
173 196 0
174 197 0
172 195 0
173 196 0
173 196 0
173 196 0
173 197 0
171 195 0
174 197 0
173 196 0
172 195 0
171 195 0
173 196 0
172 196 0
172 196 0
174 198 0
173 197 0
174 197 0
170 193 0
174 198 0
172 194 0
173 197 0
171 195 0
172 195 0
174 197 0
174 197 0
171 195 0
174 197 0
171 194 0
173 196 0
174 197 0
172 195 0
173 196 0
171 196 0
175 198 0
168 193 0
173 196 0
172 195 0
171 194 0
171 195 0
174 197 0
173 196 0
174 197 0
172 195 0
172 196 0
173 196 0
172 195 0
172 196 0
175 197 0
171 194 0
172 196 0
173 196 0
173 196 0
171 194 25
169 192 25
168 192 36
165 189 62
161 183 74
160 184 72
150 173 97
143 168 108
143 167 105
138 162 113
140 164 115
129 155 125
138 163 114
133 158 124
139 164 114
139 164 114
142 166 113
152 176 92
158 182 78
159 182 72
159 184 74
159 184 74
166 188 54
170 192 36
171 194 31
173 196 18
173 196 0
173 197 0
172 195 0
172 195 0
170 193 0
175 197 0
173 196 0
171 195 0
173 195 0
174 197 0
174 197 0
174 196 0
173 195 0
171 194 0
172 195 0
172 195 0
175 198 0
173 197 0
169 192 0
173 196 0
172 195 0
172 195 0
171 195 0
171 194 0
171 195 0
172 196 0
174 196 0
171 195 0
173 196 0
173 196 0
173 197 0
172 195 0
173 196 0
173 196 0
171 194 0
171 194 0
172 196 0
171 194 0
173 197 0
172 195 0
172 195 0
170 193 0
174 197 0
173 197 0
171 195 0
173 196 0
172 195 0
172 195 0
175 197 22
161 182 22
168 187 32
167 186 32
162 177 44
161 178 37
156 170 39
157 170 46
153 162 53
156 160 71
157 163 64
148 148 73
143 143 66
149 147 75
148 144 79
140 136 77
145 139 84
144 139 84
141 137 83
143 138 84
142 136 84
150 145 92
141 137 82
153 148 93
151 145 92
145 141 91
143 139 89
147 143 91
146 142 93
150 145 90
153 149 97
154 149 96
157 153 99
158 153 99
156 151 99
157 153 101
159 155 102
163 159 104
160 156 102
152 149 96
161 158 106
153 150 100
159 156 104
162 159 105
161 158 105
159 156 103
159 156 103
160 158 104
163 161 108
168 164 109
162 159 106
165 162 107
160 157 104
168 165 109
164 159 106
164 162 109
167 164 109
169 166 110
161 158 106
162 159 107
165 162 108
164 162 108
166 164 110
169 166 110
168 165 110
164 161 107
164 161 108
165 163 109
166 163 109
163 161 108
167 164 109
168 165 110
170 167 111
166 164 110
170 167 111
166 164 109
165 163 109
166 163 109
165 163 109
169 167 112
170 167 111
169 167 112
170 168 112
165 162 108
165 163 109
166 163 109
167 165 110
166 162 108
168 165 110
168 165 110
170 167 111
171 168 112
169 166 110
167 165 110
165 162 108
170 167 111
163 160 106
162 160 107
169 166 110
169 164 108
171 168 111
167 163 108
172 168 111
170 166 109
164 161 107
161 158 104
168 164 108
160 157 104
167 163 108
164 161 106
165 162 108
162 158 104
164 160 105
166 162 106
169 164 108
164 159 103
157 153 101
158 155 101
154 150 99
157 153 98
169 164 104
168 163 107
164 160 104
162 157 102
151 145 93
164 160 103
153 150 95
161 156 100
153 148 93
154 150 96
157 153 95
159 154 95
154 149 90
159 152 97
156 151 94
153 148 95
154 149 92
152 146 86
146 140 85
143 138 78
141 135 83
142 136 81
141 138 73
143 141 65
139 140 65
150 156 56
153 159 62
145 156 47
158 169 47
163 179 47
163 179 39
160 177 32
171 189 37
168 189 16
175 197 16
174 196 0
173 196 0
174 196 0
175 198 0
174 198 0
175 197 0
175 198 0
172 195 0
174 198 0
174 197 0
170 194 0
174 197 0
175 198 0
173 197 0
174 198 0
174 197 0
174 198 0
175 198 0
171 194 0
173 196 0
174 197 0
173 197 0
174 197 0
173 196 0
175 198 0
173 197 0
174 197 0
174 197 0
175 198 0
172 196 0
175 198 0
172 195 0
171 195 0
175 198 0
173 197 0
173 197 0
173 197 0
175 198 0
175 198 0
173 196 0
172 196 0
172 197 0
174 197 0
176 199 0
172 196 0
175 198 0
174 197 0
175 198 0
174 197 0
173 196 0
174 198 0
172 196 0
174 197 0
174 197 0
174 197 0
174 197 0
175 198 0
173 197 0
174 197 0
174 197 0
173 196 0
173 196 0
174 197 0
175 197 0
174 197 0
172 195 0
173 197 0
172 195 0
172 197 0
175 197 0
173 196 0
173 196 0
172 195 0
174 197 0
175 198 0
172 196 0
174 197 0
173 196 0
175 198 0
174 198 0
173 197 0
174 198 0
173 197 0
175 198 0
175 197 0
173 197 0
173 196 0
173 196 0
172 196 0
173 196 0
172 197 0
172 194 0
176 198 0
172 196 0
172 196 0
173 196 0
174 197 0
175 198 0
172 194 0
173 196 0
174 197 0
171 194 0
172 195 0
173 196 0
170 194 0
173 197 0
171 195 0
174 198 0
173 197 0
172 196 0
172 195 0
171 195 0
174 198 0
172 195 0
172 196 0
176 198 0
172 196 0
174 197 0
173 197 0
173 196 0
174 197 0
173 197 0
173 196 0
173 196 0
172 194 0
174 197 0
172 196 0
172 195 0
173 196 0
175 198 0
174 197 0
175 198 0
174 197 0
173 195 0
171 195 0
172 196 0
172 196 0
174 198 0
175 198 0
173 197 0
173 197 0
173 197 0
172 196 0
172 195 0
173 197 0
174 197 0
172 195 0
173 197 0
172 195 0
173 196 0
175 198 0
175 198 0
173 196 0
173 196 0
170 194 0
173 196 0
173 196 0
170 194 0
171 195 0
173 196 0
173 197 0
170 194 0
170 194 0
172 196 0
174 197 0
172 194 0
165 189 51
159 183 72
153 177 92
137 163 118
121 148 135
108 136 151
104 131 156
95 125 160
72 106 176
78 111 172
62 99 181
64 101 179
61 98 179
62 99 179
61 99 181
62 99 179
62 99 181
62 99 180
61 98 179
61 99 180
61 99 180
61 99 180
70 104 175
64 100 179
72 106 176
74 107 174
79 111 171
100 128 158
120 146 139
120 146 134
139 164 114
154 178 92
157 181 76
159 182 74
170 193 25
171 194 36
172 196 25
173 195 0
174 198 0
172 195 0
172 195 0
170 193 0
172 195 0
175 198 0
175 196 0
168 191 0
170 195 0
173 196 0
171 195 0
174 197 0
172 195 0
172 195 0
169 193 0
174 196 0
174 196 0
172 195 0
174 197 0
173 196 0
174 197 0
172 196 0
171 195 0
173 197 0
172 195 0
174 196 0
171 194 0
172 195 0
170 194 0
174 197 0
175 198 0
173 196 0
174 197 0
173 197 0
173 195 0
173 196 0
171 194 0
173 196 0
172 195 0
174 196 0
174 197 11
166 187 16
166 189 11
170 190 25
168 186 34
161 177 34
159 174 41
161 171 52
157 167 54
156 165 58
149 154 64
154 158 61
153 154 74
153 153 75
144 144 72
135 132 74
136 131 77
146 140 84
137 132 81
149 144 84
150 145 86
151 146 90
147 143 90
151 146 91
149 145 90
153 149 96
151 147 95
154 149 93
150 146 95
156 151 96
150 147 94
153 150 99
151 147 94
152 149 96
155 151 99
160 157 103
163 159 105
157 152 99
157 153 101
157 153 101
161 157 104
158 154 102
163 160 107
160 156 103
156 154 102
159 156 104
151 149 99
162 159 106
156 153 102
153 151 101
162 160 106
161 158 106
160 157 105
168 164 109
163 160 107
165 162 108
155 153 103
165 161 107
164 161 108
164 161 108
162 159 106
165 162 108
170 167 111
169 166 110
167 164 110
170 168 112
169 166 111
165 162 108
164 162 108
166 164 110
166 163 109
169 167 111
169 166 111
166 164 110
172 168 112
166 163 108
165 162 108
169 167 112
170 166 110
164 161 107
165 163 109
167 164 110
170 168 113
167 165 110
168 165 110
166 163 109
172 169 113
167 165 110
164 162 108
167 163 108
168 166 110
166 164 109
165 163 109
170 167 112
168 165 110
165 162 108
166 164 109
165 162 108
166 163 108
166 163 108
167 164 109
166 162 108
171 168 110
165 162 107
162 160 108
166 163 108
172 168 111
163 161 107
168 165 108
163 160 105
163 159 105
161 159 104
169 164 108
164 160 104
164 161 106
169 165 108
171 166 108
163 159 104
169 164 106
168 163 106
160 155 100
170 165 106
162 157 101
157 153 100
164 160 103
166 160 103
154 149 94
156 151 97
161 156 96
161 156 98
153 148 94
154 149 95
160 155 99
156 151 94
150 145 90
162 156 98
146 141 85
153 148 90
158 151 92
150 145 90
156 150 89
150 145 84
150 145 85
142 137 80
150 147 80
153 154 69
151 153 67
158 159 74
155 162 63
159 168 54
162 172 49
162 176 44
163 180 34
169 188 19
169 190 22
172 194 0
174 197 0
174 197 0
176 198 0
174 196 0
174 197 0
174 198 0
172 195 0
174 197 0
174 197 0
174 197 0
175 197 0
173 197 0
176 198 0
175 198 0
173 197 0
173 197 0
173 197 0
175 198 0
174 198 0
173 197 0
173 197 0
175 198 0
175 198 0
174 197 0
174 197 0
172 196 0
174 197 0
173 197 0
174 197 0
173 197 0
175 198 0
174 197 0
174 197 0
172 195 0
174 196 0
175 198 0
174 197 0
175 198 0
175 198 0
174 198 0
174 197 0
174 198 0
172 196 0
175 197 0
172 196 0
175 198 0
175 198 0
176 199 0
172 196 0
174 197 0
175 198 0
172 196 0
171 195 0
173 197 0
174 197 0
174 197 0
173 197 0
173 197 0
174 198 0
174 197 0
174 197 0
173 197 0
175 198 0
174 197 0
174 198 0
172 196 0
172 196 0
174 197 0
172 196 0
174 197 0
173 196 0
175 198 0
172 195 0
174 197 0
175 198 0
173 197 0
172 196 0
175 198 0
176 199 0
174 197 0
175 198 0
173 197 0
174 198 0
174 197 0
174 197 0
175 198 0
172 195 0
171 195 0
175 198 0
173 197 0
173 197 0
176 199 0
171 195 0
173 196 0
173 197 0
173 197 0
171 195 0
172 195 0
173 196 0
171 195 0
172 195 0
172 196 0
172 196 0
172 196 0
174 197 0
172 195 0
172 196 0
173 196 0
174 197 0
173 196 0
172 196 0
174 198 0
174 197 0
174 197 0
173 197 0
173 196 0
172 195 0
173 196 0
171 195 0
172 195 0
174 197 0
174 198 0
172 194 0
172 193 0
174 197 0
174 197 0
175 198 0
173 197 0
173 196 0
172 195 0
171 195 0
172 196 0
174 197 0
175 197 0
171 196 0
170 194 0
172 195 0
174 197 0
174 197 0
175 198 0
173 196 0
171 195 0
173 196 0
170 195 0
173 196 0
171 194 0
175 198 0
172 195 0
173 196 0
171 195 0
173 197 0
172 195 0
172 196 0
174 197 0
173 196 0
176 199 0
172 194 0
172 196 0
172 195 0
173 196 0
172 195 18
169 192 36
161 184 67
147 171 100
129 155 129
112 139 147
89 120 165
78 111 171
64 100 180
62 99 181
61 99 180
62 99 180
62 99 181
62 99 181
62 99 181
62 99 181
62 99 181
62 99 180
62 99 181
61 99 181
61 99 181
61 98 181
61 99 181
62 99 181
62 99 181
62 99 180
62 99 180
62 99 180
61 98 180
62 99 181
62 99 181
61 99 181
61 98 180
61 98 179
61 99 181
61 98 179
62 99 181
64 100 178
74 108 174
90 121 164
98 126 156
117 144 138
138 163 110
160 184 72
168 191 51
171 194 25
168 191 8
173 195 0
174 196 0
171 194 0
173 197 0
173 196 0
176 198 0
172 195 0
175 198 0
172 195 0
173 196 0
173 196 0
174 196 0
171 194 0
174 197 0
171 194 0
172 195 0
172 195 0
175 198 0
171 195 0
173 197 0
170 193 0
173 196 0
173 195 0
173 196 0
172 195 0
170 194 0
172 195 0
172 196 0
173 197 0
173 196 0
172 195 0
173 196 0
172 196 0
174 197 0
174 197 0
173 196 0
172 196 0
168 189 16
168 190 16
164 185 25
169 189 28
156 171 34
161 177 41
161 176 42
150 159 51
154 165 42
152 162 51
152 156 64
148 153 64
145 146 68
139 138 71
149 146 79
150 145 86
147 142 82
143 138 81
142 137 81
150 145 88
154 149 89
139 135 80
152 147 93
158 152 93
151 146 87
152 148 93
152 148 96
152 148 92
159 154 98
151 147 96
150 146 93
155 151 97
157 152 96
157 153 102
149 146 97
155 152 100
160 155 99
160 156 101
156 152 99
156 153 102
160 156 103
156 153 101
154 152 101
154 151 101
161 159 106
162 160 106
160 157 104
166 162 107
158 156 105
162 159 105
163 161 108
158 156 104
166 162 108
165 162 109
162 158 106
161 159 107
165 161 108
164 162 108
162 160 107
164 161 107
167 164 109
166 163 109
168 165 111
165 163 109
166 163 109
161 159 107
169 166 111
167 164 110
165 162 108
167 165 110
169 168 113
168 166 111
167 165 110
169 166 110
167 164 110
169 167 111
166 164 109
165 163 109
170 167 111
168 166 111
170 167 111
170 167 111
169 165 110
169 166 111
168 165 110
167 164 110
169 166 110
167 165 110
169 166 110
164 161 108
167 164 109
165 163 109
168 165 110
170 167 110
165 162 108
170 167 110
169 166 110
167 164 109
167 163 109
163 161 107
167 164 109
168 165 109
172 168 110
172 168 110
166 163 108
168 164 109
163 159 106
167 164 108
164 160 106
169 165 109
167 162 104
158 153 99
164 160 104
162 157 102
164 159 103
166 162 106
169 163 106
161 158 104
154 150 97
168 165 108
163 159 101
156 153 97
163 158 102
162 158 102
162 156 101
160 155 101
160 156 100
160 155 99
157 153 95
157 152 93
155 150 95
165 160 102
155 150 91
158 152 95
152 147 89
161 156 95
157 151 91
155 149 93
146 141 87
151 145 86
153 147 88
157 150 90
162 155 93
142 137 80
141 138 77
148 146 77
155 154 79
146 151 62
153 161 57
149 157 59
159 171 54
155 170 41
168 185 32
165 184 30
168 189 28
172 194 16
174 197 0
172 196 0
174 197 0
173 196 0
174 196 0
173 196 0
174 197 0
175 198 0
174 197 0
173 197 0
174 197 0
172 196 0
174 197 0
173 197 0
174 198 0
173 197 0
174 197 0
174 198 0
176 198 0
174 198 0
173 197 0
175 198 0
173 197 0
174 198 0
174 198 0
173 196 0
175 198 0
171 195 0
173 197 0
175 198 0
172 196 0
174 197 0
174 198 0
172 195 0
175 198 0
171 195 0
175 198 0
175 198 0
175 198 0
173 197 0
173 197 0
172 196 0
175 198 0
174 197 0
173 196 0
173 196 0
174 197 0
174 197 0
173 196 0
174 198 0
172 197 0
173 197 0
172 196 0
176 198 0
174 197 0
172 196 0
175 198 0
172 196 0
172 196 0
174 198 0
175 198 0
175 198 0
172 196 0
171 196 0
173 197 0
173 196 0
173 197 0
173 197 0
172 196 0
175 198 0
174 198 0
172 195 0
171 194 0
172 195 0
174 198 0
174 197 0
173 196 0
172 196 0
172 196 0
171 195 0
175 198 0
173 196 0
171 194 0
174 197 0
173 197 0
173 197 0
171 194 0
172 196 0
172 196 0
174 197 0
171 195 0
173 196 0
169 193 0
173 196 0
174 197 0
171 195 0
173 196 0
173 196 0
175 198 0
173 196 0
171 194 0
173 197 0
174 197 0
172 196 0
173 196 0
175 197 0
173 197 0
174 197 0
172 196 0
172 196 0
172 195 0
174 197 0
173 197 0
171 195 0
172 196 0
172 195 0
173 197 0
173 196 0
172 195 0
173 197 0
172 197 0
171 195 0
169 193 0
174 197 0
172 196 0
173 196 0
173 197 0
173 196 0
173 196 0
173 196 0
171 195 0
174 196 0
172 195 0
174 198 0
174 197 0
174 196 0
172 195 0
171 194 0
174 197 0
173 195 0
171 195 0
173 197 0
173 196 0
172 196 0
172 195 0
175 197 0
173 197 0
173 196 0
173 196 0
174 198 0
173 196 0
173 196 0
173 196 0
173 196 0
171 194 0
173 196 0
172 196 0
173 196 36
161 185 62
146 171 105
131 157 128
101 130 156
81 113 170
61 99 179
62 99 178
62 99 180
62 99 181
62 99 181
62 99 180
62 99 181
61 99 181
61 99 181
61 98 181
61 99 181
61 98 181
62 99 181
62 99 181
62 99 181
62 99 181
61 98 181
61 99 181
62 99 181
61 98 180
62 99 181
62 99 181
61 99 181
62 99 181
61 99 180
61 99 181
62 99 181
61 99 181
62 99 181
62 99 181
61 98 180
62 99 181
62 99 181
62 99 180
62 99 179
61 99 180
62 99 180
61 98 179
61 98 179
62 99 179
73 107 175
100 129 156
110 137 145
141 167 107
150 174 92
167 190 37
169 192 36
172 196 0
174 197 0
174 197 0
170 193 0
172 195 0
175 198 0
171 193 0
174 197 0
173 197 0
172 195 0
175 198 0
173 196 0
174 197 0
173 196 0
174 197 0
174 198 0
172 196 0
174 198 0
171 194 0
174 197 0
172 194 0
174 197 0
172 196 0
173 197 0
172 195 0
173 196 0
170 193 0
173 196 0
172 196 0
172 195 0
172 195 0
172 195 0
174 197 0
171 193 16
172 192 22
169 189 25
164 183 28
163 179 45
151 167 30
156 169 45
155 170 39
152 161 48
149 159 52
146 155 54
152 156 63
143 143 71
150 150 77
134 134 61
144 140 79
138 132 77
141 137 81
145 140 84
142 136 81
148 141 86
145 141 87
143 140 87
145 142 88
153 148 89
148 144 93
156 153 97
151 146 93
156 151 96
148 145 91
152 148 95
153 150 95
152 148 95
146 142 93
157 152 98
158 153 100
155 151 99
158 155 103
158 154 102
157 153 100
159 155 104
153 150 98
161 158 103
154 152 103
162 158 105
157 155 104
158 155 103
163 159 105
167 163 108
162 159 106
164 160 105
156 155 105
163 159 106
161 158 106
165 161 106
160 158 106
166 162 108
163 161 107
162 159 106
166 163 109
160 157 105
164 161 108
162 160 108
167 164 110
164 162 109
167 164 109
166 163 109
168 164 109
170 166 110
166 164 110
166 165 111
165 163 109
166 164 109
163 161 108
167 165 110
167 164 109
169 166 110
168 165 110
171 168 112
172 169 113
164 162 108
170 167 112
167 164 110
168 166 111
166 164 110
169 167 112
170 167 111
171 167 111
166 164 109
171 168 112
168 165 109
171 167 110
170 167 111
170 168 112
170 167 111
171 168 112
164 161 108
166 163 109
168 165 110
168 165 110
170 166 110
165 161 107
170 167 111
166 163 108
168 165 110
166 163 108
167 163 109
164 160 104
164 160 106
166 162 107
168 165 108
167 163 107
164 159 103
167 162 107
168 164 108
163 160 106
167 164 108
166 163 107
165 161 104
164 160 104
159 156 103
164 159 103
165 159 103
166 162 106
157 153 99
162 158 102
161 157 101
154 150 98
153 148 95
161 156 99
163 157 99
150 145 90
158 152 93
153 148 93
158 152 96
161 154 97
157 151 96
161 155 94
149 144 87
152 147 90
150 144 87
149 143 84
140 135 80
150 144 87
148 143 87
139 135 80
149 146 75
141 137 73
141 140 66
147 152 62
158 164 62
151 160 54
160 171 56
162 178 34
164 184 30
170 190 30
172 193 28
172 193 16
171 194 11
172 196 0
172 195 0
174 197 0
173 196 0
174 197 0
173 197 0
174 198 0
173 197 0
174 197 0
173 197 0
174 197 0
172 195 0
175 198 0
174 198 0
174 197 0
173 197 0
175 197 0
175 198 0
174 197 0
174 197 0
174 197 0
174 197 0
173 197 0
174 197 0
174 198 0
175 198 0
173 196 0
173 196 0
174 197 0
174 197 0
174 197 0
175 198 0
174 197 0
174 197 0
173 197 0
175 198 0
172 196 0
173 197 0
172 196 0
174 197 0
173 197 0
173 197 0
172 195 0
173 196 0
172 196 0
174 197 0
174 197 0
174 197 0
172 195 0
174 197 0
174 197 0
173 197 0
174 197 0
173 197 0
174 197 0
172 196 0
174 198 0
172 196 0
174 197 0
174 197 0
175 198 0
175 198 0
176 198 0
171 194 0
172 196 0
172 196 0
173 197 0
173 196 0
172 196 0
175 198 0
174 197 0
172 196 0
172 196 0
174 197 0
171 195 0
173 196 0
174 198 0
173 196 0
174 198 0
171 194 0
172 196 0
172 195 0
169 193 0
174 197 0
173 196 0
173 197 0
174 197 0
172 195 0
174 197 0
172 196 0
176 198 0
173 197 0
173 196 0
172 196 0
173 196 0
175 198 0
173 196 0
170 194 0
171 195 0
173 196 0
173 197 0
174 196 0
173 197 0
173 196 0
172 196 0
174 197 0
174 197 0
173 196 0
173 196 0
173 197 0
173 195 0
172 195 0
172 196 0
173 196 0
173 196 0
172 195 0
173 197 0
173 196 0
174 198 0
172 195 0
171 195 0
171 195 0
172 194 0
172 196 0
172 195 0
172 196 0
171 195 0
175 198 0
174 197 0
172 194 0
173 195 0
173 196 0
172 195 0
173 196 0
174 197 0
173 196 0
175 198 0
172 196 0
173 196 0
173 197 0
172 195 0
175 198 0
174 197 0
173 197 0
171 194 0
172 195 0
174 197 0
172 195 0
173 196 0
172 194 0
172 196 0
174 198 0
171 194 40
161 185 72
130 155 125
116 142 144
76 109 173
64 101 180
62 99 180
62 99 180
61 99 179
61 99 180
61 98 179
62 99 181
61 98 180
62 99 181
61 99 181
62 99 181
62 99 181
62 99 181
61 99 181
61 99 181
61 99 181
61 98 181
62 99 181
61 99 181
61 99 181
62 99 181
61 98 180
62 99 181
61 99 181
61 99 181
62 99 181
61 99 181
62 99 181
61 98 181
61 99 181
62 99 181
61 99 181
62 99 181
62 99 181
62 99 181
61 99 181
61 98 180
62 99 181
61 98 179
62 99 181
61 98 180
61 99 180
62 99 181
61 99 181
61 99 180
62 99 180
61 97 177
61 98 176
77 110 173
103 132 152
127 153 128
148 172 94
165 187 47
171 194 18
170 194 0
172 196 0
167 190 0
171 194 0
175 198 0
174 197 0
171 194 0
174 196 0
173 196 0
172 195 0
171 194 0
173 196 0
173 197 0
172 195 0
171 194 0
173 196 0
171 195 0
170 193 0
172 195 0
173 195 0
172 195 0
173 195 0
172 196 0
172 196 0
177 198 0
171 195 0
173 197 0
169 192 0
174 197 0
172 196 0
172 194 11
166 187 19
168 187 22
165 184 22
166 183 32
159 174 40
157 169 42
157 171 41
155 164 61
155 161 58
150 158 61
150 151 73
146 147 73
144 143 73
143 139 78
143 138 78
134 130 78
146 141 85
139 134 84
151 146 89
143 139 86
153 149 93
142 138 88
154 150 97
148 144 89
144 139 86
151 148 91
149 145 91
152 148 94
153 149 94
158 153 95
158 152 98
152 148 97
155 150 98
158 153 99
158 154 102
151 148 97
152 149 96
161 156 103
151 150 101
152 149 99
152 150 101
160 157 105
148 146 98
161 158 105
160 156 104
159 157 104
158 156 103
164 160 107
161 158 105
155 153 102
164 161 107
162 159 107
168 165 110
160 156 103
160 157 106
160 157 105
167 163 108
162 160 108
165 162 109
164 162 108
168 164 109
171 168 112
168 165 110
166 163 109
170 167 111
165 163 108
168 165 110
170 167 112
168 165 110
168 165 110
163 161 107
168 166 111
167 164 110
165 161 107
167 164 110
164 161 108
162 159 106
167 165 110
171 168 112
167 164 109
172 169 112
164 161 108
168 166 111
166 165 110
172 168 110
163 161 107
170 167 111
167 164 109
167 164 109
170 167 111
170 167 111
171 166 109
169 165 109
170 167 111
166 163 108
165 163 108
168 164 109
168 164 109
171 168 112
163 160 106
167 164 109
164 161 106
168 165 109
170 166 109
168 165 110
163 160 106
165 161 105
166 163 107
164 161 106
165 162 107
162 159 103
169 166 110
165 161 106
169 165 107
169 164 108
164 159 103
162 158 103
165 161 103
162 157 99
163 159 103
164 160 104
166 162 104
163 160 103
164 159 103
161 157 103
167 162 101
161 157 101
163 158 101
166 161 101
156 151 95
162 157 101
156 150 95
158 153 95
160 155 97
151 146 91
158 152 93
161 154 95
158 153 91
161 154 95
161 155 94
148 143 86
152 146 88
145 139 80
143 138 83
143 137 76
148 144 80
145 141 78
147 147 69
156 158 71
155 160 63
159 168 60
154 169 41
162 176 44
164 181 36
167 184 39
171 192 19
170 190 22
175 197 0
173 197 0
175 198 0
171 195 0
174 197 0
173 195 0
174 197 0
173 196 0
172 195 0
174 197 0
174 198 0
173 197 0
176 199 0
176 199 0
173 196 0
174 197 0
174 198 0
173 197 0
174 197 0
171 194 0
174 197 0
174 198 0
174 197 0
172 195 0
173 197 0
172 196 0
175 198 0
173 197 0
173 197 0
173 197 0
175 198 0
172 196 0
174 198 0
173 197 0
172 197 0
174 196 0
172 195 0
172 196 0
174 197 0
175 198 0
172 196 0
174 198 0
173 197 0
172 195 0
174 197 0
174 198 0
173 197 0
174 197 0
173 197 0
172 195 0
174 197 0
171 195 0
173 196 0
172 195 0
174 197 0
175 198 0
172 196 0
172 196 0
174 197 0
173 197 0
173 197 0
174 197 0
173 197 0
173 196 0
175 198 0
174 197 0
174 197 0
173 197 0
171 196 0
173 196 0
173 197 0
173 197 0
173 196 0
175 198 0
173 196 0
175 197 0
174 197 0
173 197 0
172 195 0
173 196 0
172 195 0
174 196 0
174 196 0
170 193 0
173 196 0
174 196 0
172 196 0
172 196 0
172 195 0
172 194 0
174 197 0
174 197 0
174 197 0
172 196 0
173 196 0
173 197 0
173 197 0
175 198 0
174 197 0
172 196 0
174 197 0
171 195 0
173 197 0
174 197 0
171 194 0
173 197 0
173 197 0
173 197 0
174 196 0
172 195 0
171 195 0
172 196 0
172 196 0
172 196 0
175 198 0
171 195 0
172 196 0
174 197 0
174 198 0
173 197 0
173 197 0
174 197 0
173 197 0
172 196 0
173 196 0
173 196 0
174 197 0
171 194 0
172 196 0
175 197 0
172 195 0
171 195 0
173 197 0
172 196 0
173 196 0
174 197 0
172 196 0
172 195 0
173 196 0
172 196 0
172 195 0
174 198 0
174 196 0
172 195 0
174 196 0
173 196 0
172 195 0
173 196 0
175 197 0
173 197 0
169 192 25
161 184 70
127 153 126
108 136 148
72 106 175
62 99 178
61 99 179
62 99 180
62 99 181
62 99 181
62 99 181
62 99 181
61 99 181
61 98 179
62 99 181
61 99 181
62 99 181
61 99 180
61 99 181
61 98 180
61 99 181
60 98 181
62 99 181
62 99 181
61 98 181
62 99 181
62 99 181
61 99 181
62 99 181
61 99 181
61 99 181
62 99 181
61 98 181
62 99 181
62 99 181
61 98 181
61 98 180
62 99 181
61 98 181
61 98 180
61 98 181
62 99 180
62 99 181
61 98 180
62 99 181
62 99 181
62 99 181
61 98 180
61 98 178
61 99 180
61 99 180
62 99 181
61 99 181
61 98 178
61 98 179
62 99 179
61 98 180
61 97 177
61 98 178
77 110 171
94 124 160
134 159 118
150 174 97
169 192 40
171 194 31
171 194 0
173 196 0
170 193 0
171 195 0
175 198 0
173 196 0
173 197 0
171 195 0
173 196 0
172 195 0
170 194 0
174 197 0
173 196 0
172 195 0
173 196 0
170 193 0
171 196 0
174 197 0
172 196 0
172 195 0
172 195 0
171 194 0
173 197 0
175 197 0
172 195 0
173 195 0
171 193 11
170 192 16
168 190 11
164 185 28
158 175 25
165 181 41
160 174 44
159 174 37
157 169 48
153 160 60
154 158 68
146 149 62
145 143 75
144 145 72
142 139 73
149 146 75
144 139 83
147 142 84
146 141 86
139 136 85
146 141 85
147 142 90
142 138 87
146 142 90
149 144 92
140 136 85
149 144 91
146 143 88
148 143 92
155 151 97
150 146 94
155 152 100
144 141 91
156 151 95
151 148 96
154 150 99
146 143 94
160 156 102
153 149 98
153 151 101
162 158 102
159 156 105
159 155 101
154 151 100
154 151 100
154 151 98
153 150 101
162 159 106
165 161 107
162 159 106
157 155 104
159 157 105
165 161 107
165 162 108
162 159 105
165 162 108
163 160 108
158 156 105
165 163 109
165 163 108
160 158 107
167 165 110
162 160 107
167 164 109
165 163 109
163 161 108
167 164 109
166 163 108
163 161 108
172 168 111
164 162 108
170 167 111
165 163 109
171 167 111
170 167 111
168 166 111
170 166 110
168 165 110
165 163 109
167 164 110
170 167 111
164 161 108
167 164 109
171 168 112
168 165 110
170 167 111
170 168 112
167 165 110
166 163 108
171 168 112
169 167 111
170 167 110
172 169 112
166 164 109
168 165 109
168 165 109
170 167 111
167 164 109
168 165 109
172 168 111
169 165 110
167 163 109
165 161 106
168 165 109
172 168 110
165 162 107
169 165 108
164 161 106
166 163 108
165 161 106
167 164 107
172 167 110
163 161 106
164 160 104
164 160 104
165 161 106
159 155 103
166 162 104
166 163 106
159 154 99
161 156 101
162 157 101
160 154 96
165 160 102
162 158 99
162 157 101
155 151 96
158 154 98
163 158 101
161 156 96
167 162 103
148 144 91
152 148 95
157 152 94
157 152 95
156 151 90
162 157 101
151 145 88
156 151 90
164 158 98
155 150 88
156 150 90
151 145 87
142 137 78
149 144 86
147 142 87
150 144 85
145 140 80
155 150 84
140 138 69
148 146 76
146 152 56
151 159 57
160 173 49
156 169 44
162 176 45
164 181 34
164 184 22
169 192 11
171 193 0
174 197 0
175 198 0
173 196 0
175 198 0
173 196 0
172 196 0
176 198 0
172 197 0
172 195 0
172 195 0
174 197 0
174 197 0
174 197 0
172 196 0
174 198 0
174 196 0
173 197 0
172 196 0
173 197 0
172 196 0
173 197 0
174 197 0
174 198 0
173 196 0
175 198 0
175 198 0
174 197 0
172 196 0
174 197 0
172 196 0
173 197 0
173 197 0
172 196 0
175 198 0
172 195 0
175 198 0
174 197 0
174 197 0
173 197 0
174 197 0
173 196 0
174 197 0
171 195 0
172 196 0
173 195 0
171 194 0
174 197 0
172 195 0
174 198 0
173 197 0
174 197 0
174 197 0
174 197 0
174 197 0
173 197 0
173 197 0
172 195 0
172 195 0
173 197 0
174 198 0
174 197 0
172 195 0
174 197 0
173 196 0
173 197 0
173 196 0
172 195 0
173 196 0
176 198 0
174 197 0
172 196 0
172 195 0
172 195 0
174 197 0
174 196 0
174 197 0
171 194 0
173 197 0
172 195 0
174 196 0
173 196 0
174 197 0
172 196 0
172 196 0
172 195 0
175 198 0
173 196 0
171 195 0
174 198 0
173 196 0
175 197 0
172 195 0
174 197 0
171 195 0
174 197 0
175 198 0
172 195 0
172 195 0
172 194 0
173 196 0
174 197 0
169 194 0
174 197 0
173 196 0
172 196 0
174 196 0
172 196 0
174 197 0
175 198 0
173 197 0
175 198 0
173 197 0
172 196 0
174 198 0
172 195 0
172 196 0
174 198 0
173 195 0
173 197 0
173 196 0
173 196 0
175 198 0
173 196 0
173 196 0
172 196 0
173 197 0
172 196 0
171 195 0
173 196 0
173 196 0
172 196 0
173 196 0
169 192 0
172 196 0
173 195 0
174 197 0
172 195 0
173 195 0
174 197 0
172 195 0
175 198 0
171 195 0
171 195 0
174 197 0
172 195 0
173 197 0
175 198 0
165 188 54
148 171 100
113 140 142
84 116 164
62 99 181
62 99 179
62 99 180
62 99 181
62 99 180
61 99 180
62 99 181
62 99 181
61 99 181
62 99 181
61 99 181
61 99 181
62 99 181
62 99 181
61 98 181
61 99 181
62 99 181
61 98 181
61 99 181
62 99 180
62 99 181
61 99 181
62 99 181
61 98 181
61 99 181
61 99 181
61 98 181
62 99 181
61 98 181
61 98 180
61 99 181
61 99 181
61 99 181
62 99 181
61 98 180
61 98 181
62 99 181
61 99 181
62 99 181
62 99 181
61 99 181
61 99 181
62 99 181
61 98 180
62 99 181
62 99 181
61 99 181
62 99 181
61 99 181
61 99 180
62 99 181
61 98 181
61 98 179
62 99 180
62 99 180
62 99 180
62 99 180
62 98 176
61 98 179
61 98 176
71 105 174
103 131 152
133 158 116
159 183 75
172 194 31
174 197 0
172 195 0
172 195 0
173 196 0
172 194 0
174 196 0
173 197 0
171 194 0
173 197 0
170 193 0
173 196 0
171 194 0
174 197 0
174 196 0
170 193 0
173 195 0
174 196 0
170 193 0
172 196 0
171 195 0
173 196 0
172 195 0
173 197 0
172 195 11
170 193 11
169 190 11
171 192 16
167 185 30
165 183 32
164 179 37
156 170 41
163 174 49
152 160 62
152 160 60
149 156 61
143 145 63
144 143 70
153 152 72
142 139 73
143 139 76
144 139 82
144 139 83
140 136 78
137 133 79
143 139 85
141 136 80
150 143 89
146 141 86
148 143 90
142 138 91
138 135 85
154 149 96
151 147 94
147 143 92
149 145 92
159 155 101
152 149 97
158 154 97
154 151 100
152 148 96
158 155 103
150 148 100
160 156 104
142 141 93
155 152 103
162 158 104
150 147 99
158 155 104
155 151 100
158 156 104
157 154 103
160 158 106
150 148 99
161 158 104
162 159 106
162 158 105
164 162 107
167 163 108
160 157 106
156 154 103
167 163 108
161 159 106
159 156 103
165 163 109
164 161 108
165 162 109
167 164 110
163 160 108
166 163 109
165 162 107
172 168 112
168 165 109
168 166 110
165 162 108
169 166 110
165 163 109
171 167 110
166 163 109
172 169 113
171 168 111
167 164 109
167 164 110
170 167 111
169 166 111
172 168 112
170 167 111
170 167 112
168 165 110
171 167 110
170 167 111
169 166 111
172 169 112
170 167 111
168 166 111
169 166 110
170 167 110
168 166 111
168 166 110
172 168 111
169 166 111
170 166 110
174 171 113
168 165 109
168 166 109
168 164 108
165 162 106
169 166 110
170 166 110
165 161 106
170 165 108
166 162 108
171 167 108
170 166 110
164 160 105
169 165 109
170 166 109
169 165 108
164 161 107
165 160 103
168 164 109
164 160 104
167 164 108
165 160 104
163 158 101
166 161 104
161 157 101
161 156 99
160 156 99
165 160 104
165 160 102
163 159 103
168 163 101
162 157 100
155 149 94
161 156 98
161 155 99
155 151 97
164 159 99
158 152 97
159 154 96
158 153 93
158 153 96
153 149 94
153 148 88
151 146 86
153 148 92
154 148 90
150 145 87
156 149 86
155 149 90
154 148 87
139 134 79
148 142 83
149 144 80
161 159 81
139 141 64
149 154 58
155 164 56
156 168 45
168 184 42
163 179 41
163 182 30
167 188 19
172 194 0
173 196 11
172 196 0
175 198 0
174 197 0
173 197 0
174 197 0
172 195 0
173 197 0
171 195 0
173 196 0
174 197 0
174 198 0
174 197 0
173 197 0
173 197 0
175 198 0
174 198 0
171 195 0
175 197 0
174 198 0
174 198 0
174 197 0
173 196 0
174 198 0
175 198 0
173 196 0
174 197 0
175 198 0
173 196 0
173 197 0
174 198 0
172 196 0
173 197 0
175 198 0
174 198 0
172 196 0
175 198 0
175 198 0
173 196 0
176 199 0
175 198 0
172 196 0
174 197 0
174 197 0
174 197 0
174 197 0
174 197 0
174 197 0
174 198 0
176 199 0
174 198 0
172 196 0
173 197 0
173 197 0
172 196 0
174 198 0
174 197 0
172 195 0
174 197 0
173 197 0
174 198 0
173 196 0
172 197 0
173 197 0
174 198 0
175 198 0
174 198 0
173 196 0
174 197 0
172 196 0
174 198 0
173 197 0
173 196 0
171 195 0
172 196 0
173 197 0
174 197 0
174 197 0
172 196 0
170 194 0
173 197 0
175 198 0
173 197 0
172 195 0
173 197 0
172 196 0
172 196 0
171 194 0
171 195 0
174 197 0
172 196 0
174 197 0
174 198 0
173 197 0
173 197 0
171 194 0
173 197 0
171 195 0
170 194 0
173 196 0
172 195 0
172 196 0
175 198 0
172 196 0
171 195 0
171 194 0
175 198 0
174 198 0
173 197 0
172 196 0
171 195 0
173 197 0
174 198 0
174 198 0
173 196 0
170 193 0
173 197 0
170 194 0
173 196 0
174 197 0
171 195 0
174 197 0
174 197 0
172 196 0
170 195 0
174 197 0
174 198 0
172 194 0
171 195 0
172 196 0
175 198 0
172 196 0
173 196 0
171 194 0
174 197 0
173 196 0
173 197 0
172 195 0
173 196 0
174 197 0
172 196 0
174 197 0
174 197 0
174 197 0
172 197 0
166 189 60
132 157 124
89 119 165
63 100 178
61 98 176
62 99 180
61 99 179
62 99 181
62 99 181
61 98 179
62 99 180
61 98 180
61 99 179
61 98 181
62 99 180
61 99 181
61 99 181
62 99 181
61 99 181
61 98 180
61 99 181
61 99 181
62 99 181
61 98 181
61 98 181
62 99 181
61 99 181
62 99 181
62 99 181
61 99 181
62 99 181
61 98 181
60 98 181
62 99 181
62 99 181
61 98 181
61 99 181
62 99 181
61 99 181
61 99 181
61 98 181
62 99 181
61 99 181
61 98 181
61 99 181
62 99 181
61 99 181
61 99 181
61 98 181
61 99 180
61 98 180
62 99 181
61 99 181
61 98 180
62 98 178
62 99 180
62 99 181
61 98 181
61 98 178
62 99 180
62 99 180
62 99 179
61 98 179
62 99 180
61 98 177
62 99 180
62 99 180
62 98 177
63 99 176
88 119 159
99 127 153
155 178 88
164 188 60
170 194 36
173 196 0
171 195 0
174 196 0
173 196 0
173 196 0
169 193 0
174 197 0
171 194 0
173 196 0
176 198 0
171 194 0
173 196 0
174 197 0
173 196 0
172 195 0
173 195 0
172 196 0
171 194 0
172 194 0
170 192 0
172 196 0
169 191 16
166 187 16
165 185 22
165 183 30
157 174 34
162 175 42
163 176 46
153 161 54
157 166 56
144 148 61
140 145 58
151 154 66
142 144 60
141 138 72
144 139 80
150 143 84
140 135 75
142 137 84
137 133 80
146 142 87
142 139 86
142 137 82
138 135 83
150 146 92
149 145 93
140 136 86
149 145 91
145 141 91
150 146 95
146 142 91
153 149 95
145 141 91
148 144 94
138 136 90
153 149 98
151 148 98
152 149 101
153 150 100
158 154 102
153 151 102
155 152 100
154 152 102
153 151 100
149 147 97
153 151 102
155 153 101
154 152 102
157 154 104
162 158 106
152 149 100
157 155 104
163 159 106
163 160 107
157 155 104
157 155 105
159 156 105
167 163 109
163 160 106
159 157 106
165 162 108
162 159 105
161 160 108
167 164 110
163 160 108
161 159 107
168 164 109
159 157 105
170 167 111
168 165 110
170 167 112
168 165 110
168 165 111
168 166 110
170 167 112
169 165 110
168 165 110
167 164 109
168 165 110
171 167 110
171 167 110
170 167 110
169 166 110
169 165 109
167 165 109
170 166 110
169 166 111
171 168 112
169 165 109
168 166 110
170 167 111
169 165 109
170 167 111
170 165 109
171 167 111
171 168 111
171 168 112
168 165 109
172 169 112
169 166 109
170 167 110
167 165 110
165 162 108
167 163 108
168 165 109
168 165 109
171 167 110
167 164 106
172 168 110
166 163 107
168 164 108
166 163 107
163 159 104
166 163 107
163 159 104
166 163 108
165 162 106
169 165 107
171 167 109
165 162 103
161 158 104
160 157 103
170 165 104
168 163 107
162 158 101
165 161 104
164 160 101
166 161 103
161 156 97
165 159 99
164 158 99
165 159 101
156 151 93
160 155 97
163 158 99
155 150 93
164 159 100
155 150 92
158 152 95
150 144 85
153 149 91
146 141 87
151 145 87
150 145 90
153 147 88
148 142 87
153 148 84
149 144 85
153 147 86
147 141 78
145 142 77
150 150 71
151 151 75
148 154 58
158 167 51
151 162 48
162 177 39
162 175 47
169 186 36
167 185 25
171 192 16
174 196 0
172 196 0
174 197 0
174 198 0
174 198 0
173 195 0
173 197 0
174 197 0
174 198 0
174 197 0
174 197 0
176 198 0
174 198 0
173 196 0
173 197 0
172 196 0
174 198 0
175 198 0
174 197 0
174 197 0
173 196 0
174 197 0
173 196 0
173 197 0
173 195 0
172 196 0
174 197 0
175 197 0
172 195 0
175 198 0
173 196 0
174 197 0
174 197 0
175 198 0
174 198 0
175 198 0
173 196 0
174 197 0
172 196 0
171 194 0
173 196 0
173 197 0
174 197 0
169 193 0
173 196 0
173 197 0
173 197 0
173 196 0
173 197 0
174 197 0
172 196 0
172 196 0
174 197 0
172 196 0
175 198 0
173 196 0
174 197 0
173 196 0
175 198 0
170 194 0
173 197 0
173 197 0
172 196 0
175 198 0
172 195 0
174 197 0
172 195 0
171 195 0
173 197 0
172 196 0
174 197 0
173 196 0
173 197 0
172 196 0
172 196 0
172 195 0
174 198 0
170 194 0
171 195 0
174 197 0
172 197 0
174 197 0
173 196 0
172 195 0
171 195 0
174 198 0
174 197 0
173 196 0
175 198 0
174 197 0
175 196 0
173 197 0
170 193 0
174 197 0
173 196 0
170 194 0
171 195 0
173 196 0
174 197 0
173 196 0
174 197 0
175 198 0
172 195 0
175 197 0
173 195 0
171 194 0
170 194 0
172 196 0
171 194 0
171 195 0
173 196 0
173 196 0
171 194 0
171 194 0
173 196 0
173 196 0
170 193 0
173 195 0
175 198 0
173 197 0
173 196 0
173 196 0
173 197 0
172 196 0
173 195 0
172 194 0
174 197 0
173 196 0
175 197 0
172 195 0
175 198 0
174 197 0
173 196 0
173 196 0
173 197 0
173 197 0
174 197 0
174 197 0
173 195 0
173 197 0
174 197 0
173 196 0
170 193 31
153 178 82
111 138 144
80 112 170
62 99 180
62 99 179
61 99 180
62 99 179
62 99 181
62 99 181
62 99 179
62 99 181
62 100 181
61 99 181
62 99 181
62 99 181
62 99 181
61 99 181
62 99 181
61 99 181
62 99 181
62 99 181
61 99 181
61 98 181
62 99 181
62 99 181
62 99 181
61 99 181
62 99 181
62 99 181
62 99 181
61 98 181
61 98 181
61 98 181
61 98 181
61 98 181
62 99 181
61 98 181
62 99 181
61 98 181
61 98 181
61 99 181
62 99 181
61 99 181
61 99 181
61 99 181
61 99 181
61 98 181
61 99 180
62 99 181
61 98 181
61 99 181
61 99 181
61 99 181
61 99 181
61 98 181
61 98 180
61 99 181
61 98 180
61 98 181
61 98 179
61 99 181
61 98 177
62 99 180
62 99 181
62 99 180
62 99 181
62 99 180
62 98 178
62 99 178
62 98 176
62 99 180
61 98 177
62 98 177
67 102 171
106 134 150
138 162 108
156 181 65
171 194 18
172 195 0
173 196 0
174 197 0
174 197 0
173 197 0
172 195 0
172 195 0
171 194 0
172 195 0
173 196 0
172 194 0
172 195 0
174 197 0
172 196 0
173 196 0
172 194 0
172 195 0
171 194 11
170 191 16
169 191 16
160 179 25
168 187 30
160 178 30
163 180 36
159 170 52
157 169 47
149 159 46
151 161 55
144 146 66
155 156 74
145 145 69
141 140 68
142 139 76
135 133 70
147 142 79
145 141 83
136 133 80
145 140 86
147 141 88
145 140 82
149 145 90
148 142 88
142 139 87
148 144 92
150 147 93
144 140 92
158 153 99
152 149 97
151 147 91
141 139 92
144 141 93
151 148 95
152 149 96
156 153 102
150 146 95
155 152 99
153 150 101
148 146 98
149 147 99
156 152 98
153 150 101
149 146 98
146 145 98
158 155 104
158 155 104
165 161 106
153 151 102
158 154 102
160 156 103
161 160 107
157 154 103
161 158 106
165 161 107
163 161 107
162 159 107
163 160 107
164 162 108
162 160 106
171 167 111
158 156 106
162 160 107
165 162 107
166 162 108
166 164 110
163 160 107
159 156 104
169 165 110
167 164 109
169 166 111
165 163 110
166 164 110
169 166 111
167 165 110
169 166 111
165 161 107
167 165 110
171 168 112
166 163 108
170 167 111
172 168 112
171 168 112
165 162 108
166 163 109
171 169 113
172 168 112
169 166 110
176 172 113
168 165 109
171 167 110
167 165 109
166 163 108
169 166 111
170 168 111
171 167 110
169 166 109
170 166 110
171 168 112
170 167 110
172 167 110
169 164 108
168 164 108
170 168 111
174 169 112
172 168 110
172 168 111
173 169 112
169 165 109
173 168 110
168 165 109
165 162 107
171 167 109
164 160 105
169 165 107
169 165 109
166 162 107
168 164 105
162 158 101
166 162 106
162 158 101
162 158 102
162 157 101
167 163 104
164 159 102
157 154 96
164 159 101
164 160 104
161 156 99
166 160 103
159 155 99
158 152 98
153 149 93
157 152 97
161 155 96
157 152 93
161 155 95
162 156 97
163 158 100
157 152 95
159 154 92
160 153 93
151 146 87
154 147 87
152 147 90
149 143 84
153 147 85
155 149 86
150 144 84
144 139 75
146 140 78
148 145 77
146 149 63
150 151 64
149 156 53
157 165 59
159 172 49
164 180 41
166 183 37
165 184 30
170 192 16
171 195 0
173 196 0
174 198 0
174 198 0
174 197 0
175 198 0
174 197 0
174 197 0
176 198 0
174 197 0
174 197 0
174 197 0
175 198 0
174 197 0
174 197 0
174 197 0
172 196 0
173 197 0
173 196 0
172 196 0
174 197 0
171 195 0
175 198 0
173 197 0
174 198 0
174 197 0
174 198 0
173 197 0
175 198 0
172 195 0
173 197 0
173 196 0
174 197 0
174 198 0
172 196 0
176 198 0
173 197 0
175 198 0
173 197 0
174 197 0
172 195 0
172 195 0
174 197 0
175 198 0
173 197 0
171 195 0
173 196 0
171 195 0
172 195 0
172 196 0
173 197 0
173 196 0
172 195 0
173 196 0
172 195 0
175 198 0
173 196 0
173 197 0
175 198 0
175 198 0
173 196 0
173 197 0
172 195 0
174 197 0
174 197 0
172 194 0
174 197 0
174 196 0
173 197 0
174 197 0
174 198 0
174 197 0
174 197 0
173 197 0
173 196 0
172 196 0
173 197 0
171 194 0
174 197 0
174 197 0
171 194 0
171 195 0
174 197 0
174 197 0
173 196 0
173 197 0
174 197 0
175 197 0
174 197 0
175 198 0
172 195 0
171 195 0
171 195 0
172 195 0
172 196 0
173 196 0
170 194 0
173 197 0
172 196 0
173 197 0
175 198 0
173 197 0
175 198 0
174 196 0
171 194 0
169 193 0
170 194 0
172 195 0
170 194 0
171 195 0
175 198 0
172 196 0
174 197 0
172 196 0
173 197 0
171 195 0
174 197 0
175 198 0
174 196 0
173 196 0
173 196 0
174 197 0
173 196 0
171 195 0
175 198 0
173 196 0
173 197 0
174 198 0
173 195 0
173 197 0
174 197 0
172 196 0
172 196 0
172 195 0
173 196 0
172 196 0
174 197 0
174 197 0
171 195 0
173 195 0
168 191 47
159 183 78
112 139 148
71 106 175
62 99 180
62 99 180
62 99 180
62 99 178
61 98 180
61 99 181
61 98 180
62 99 181
62 99 181
61 99 181
62 99 181
62 99 181
61 98 181
61 99 181
61 98 180
61 99 181
61 99 181
62 99 181
62 99 181
62 99 181
61 99 181
61 99 181
62 99 181
61 99 181
62 99 181
62 99 181
61 99 181
61 99 181
61 99 181
61 98 181
62 99 181
62 99 181
61 99 181
61 99 181
61 98 181
61 99 181
62 99 181
62 99 181
62 99 181
62 99 181
61 99 181
61 99 181
61 98 181
61 99 181
62 99 181
61 98 181
62 99 181
61 99 181
60 98 180
61 98 181
61 98 181
62 99 181
62 99 181
62 99 181
61 99 181
61 98 180
61 98 180
61 98 181
62 99 181
61 98 180
62 99 181
62 99 181
61 98 179
61 99 180
61 98 178
62 99 181
62 99 178
62 98 179
61 98 179
62 99 179
62 99 180
62 99 180
62 99 178
61 98 176
65 100 172
98 126 154
134 158 118
156 180 79
167 190 26
174 195 0
170 193 0
173 196 0
172 196 0
171 195 0
168 191 0
173 197 0
171 193 0
170 193 0
171 193 0
172 194 0
174 197 0
173 196 0
172 195 0
172 195 0
173 195 11
171 193 11
167 187 25
166 185 25
166 186 25
160 176 37
159 172 43
149 159 44
149 159 47
154 166 48
151 155 63
150 154 60
145 147 70
144 146 66
152 151 76
140 137 73
147 141 83
143 138 79
143 139 81
149 144 87
139 134 81
143 139 84
143 139 89
137 133 84
145 142 90
148 143 87
148 144 93
152 149 95
149 145 93
147 143 88
145 142 93
143 140 92
143 140 89
146 142 94
158 154 100
153 150 97
158 155 102
151 147 97
148 144 95
156 153 101
147 145 96
156 152 100
160 157 105
156 153 104
152 149 99
154 151 102
154 152 103
160 156 103
158 155 104
154 153 103
162 159 105
156 153 102
157 155 105
155 153 104
163 159 106
164 161 107
157 155 104
164 161 107
160 157 106
166 163 108
163 159 106
164 161 108
166 163 108
165 161 107
169 165 110
165 162 109
166 163 109
165 162 108
162 161 109
171 168 112
168 165 110
169 166 111
164 162 108
171 168 112
167 164 109
169 166 111
173 169 113
173 170 113
171 167 110
170 167 110
169 165 109
170 167 110
167 164 109
167 164 109
168 166 110
170 166 109
164 162 107
171 169 113
174 170 113
168 165 110
173 168 110
171 167 111
172 169 112
170 166 109
171 168 112
173 169 112
173 168 111
169 167 110
169 164 108
170 167 109
167 164 108
169 166 109
171 167 109
172 168 111
171 167 110
172 167 110
167 162 106
170 166 108
163 158 104
168 164 108
166 162 108
167 163 106
174 170 110
167 162 106
171 166 109
163 159 104
167 163 106
167 163 105
169 164 104
170 165 106
167 163 107
158 154 101
167 163 106
168 163 103
165 161 102
161 157 99
166 161 101
162 158 100
168 163 103
165 160 102
170 165 106
160 154 95
160 155 96
164 160 101
157 152 96
152 147 92
156 150 91
156 152 95
153 148 89
152 148 90
162 156 96
156 151 93
157 151 93
154 149 95
159 153 93
148 142 82
153 148 87
152 146 87
157 150 87
143 137 76
154 147 85
140 135 76
147 144 75
128 127 60
153 158 57
149 156 61
153 157 65
159 168 52
159 172 42
166 182 41
166 183 36
169 189 28
170 192 16
171 193 0
174 197 0
173 196 0
171 196 0
173 197 0
175 197 0
173 197 0
174 197 0
169 194 0
175 198 0
174 197 0
172 197 0
173 196 0
174 198 0
175 198 0
172 196 0
171 194 0
174 197 0
174 198 0
174 198 0
173 197 0
174 198 0
173 196 0
174 198 0
173 196 0
173 197 0
176 198 0
175 198 0
172 196 0
174 196 0
174 197 0
173 197 0
173 197 0
174 197 0
176 199 0
173 196 0
171 195 0
174 198 0
176 198 0
174 198 0
172 196 0
174 198 0
172 196 0
174 198 0
172 195 0
175 198 0
174 197 0
174 198 0
174 197 0
174 197 0
173 197 0
174 198 0
173 196 0
174 198 0
173 196 0
172 196 0
172 196 0
171 195 0
175 198 0
174 198 0
173 196 0
174 197 0
171 195 0
173 196 0
172 196 0
173 197 0
172 196 0
173 197 0
176 199 0
172 194 0
173 197 0
171 194 0
172 195 0
175 198 0
173 196 0
172 195 0
173 196 0
173 197 0
174 197 0
173 196 0
171 194 0
171 195 0
175 198 0
171 195 0
174 197 0
172 196 0
175 198 0
173 197 0
175 197 0
172 196 0
172 195 0
173 197 0
174 197 0
175 198 0
173 197 0
172 196 0
173 197 0
173 197 0
173 196 0
173 196 0
172 196 0
174 197 0
173 196 0
171 195 0
172 195 0
173 196 0
171 195 0
173 196 0
173 195 0
173 196 0
171 194 0
173 196 0
172 196 0
173 197 0
173 196 0
171 195 0
173 196 0
174 196 0
170 194 0
172 195 0
172 196 0
174 196 0
175 198 0
172 196 0
175 197 0
173 196 0
173 196 0
174 196 0
171 194 0
170 194 0
172 195 0
174 197 0
173 197 0
171 195 0
173 197 0
172 195 0
173 196 0
171 194 31
154 178 86
112 138 144
73 107 170
62 99 177
62 99 178
62 99 179
62 99 178
62 99 178
62 99 180
61 99 181
62 99 178
61 99 181
61 99 181
61 98 179
61 99 180
62 99 181
61 98 181
62 99 181
61 99 181
62 99 181
61 98 181
61 99 181
61 99 181
61 99 181
62 99 181
62 99 181
61 99 181
61 98 181
62 99 181
61 98 181
62 99 181
61 99 181
62 99 181
61 98 181
61 99 181
61 99 181
61 98 181
61 99 181
62 99 181
61 99 181
62 99 181
61 98 181
61 99 181
61 99 181
61 98 181
61 99 181
61 99 181
61 99 181
61 98 181
62 99 181
62 99 181
61 99 181
61 99 181
61 99 181
62 99 181
62 99 181
61 99 181
61 99 181
62 99 181
62 99 181
62 99 181
62 99 181
61 99 181
62 99 180
62 99 180
62 99 181
61 99 179
61 98 180
62 99 180
61 98 179
61 99 181
62 99 180
61 99 180
61 98 178
61 98 179
62 98 179
61 98 178
62 98 177
63 100 180
62 98 178
61 97 174
62 98 175
92 121 157
140 165 111
161 184 68
169 192 31
175 197 0
173 196 0
173 196 0
172 194 0
174 197 0
172 195 0
170 193 0
171 194 0
171 194 0
172 196 0
171 194 0
175 197 0
171 194 0
172 195 0
169 191 16
169 191 16
164 184 30
162 180 30
155 169 36
161 174 48
160 172 53
148 158 48
152 159 56
142 146 54
156 158 72
142 144 64
139 138 72
134 133 67
142 139 72
139 133 78
134 130 75
138 134 80
144 141 84
139 135 80
142 138 85
146 143 88
147 143 90
145 140 87
143 139 90
139 135 85
155 151 97
147 143 88
148 144 94
141 139 91
148 145 95
149 146 97
156 152 99
153 149 97
144 142 96
148 145 95
158 154 99
150 146 97
149 146 97
148 146 98
152 149 101
145 143 96
155 152 102
158 155 103
157 153 101
153 150 101
152 150 102
152 151 102
156 155 104
162 159 106
160 157 105
159 156 104
158 155 105
164 161 108
160 157 106
164 160 107
168 165 110
163 161 108
162 159 107
164 162 109
159 157 106
162 159 106
165 161 107
169 166 111
165 163 109
166 162 108
166 164 110
166 164 110
170 167 112
164 162 109
171 167 111
168 164 109
167 164 110
169 166 110
167 164 109
172 169 112
169 165 109
170 167 110
172 168 112
170 167 111
170 167 111
169 166 110
174 170 113
174 171 113
169 166 111
173 170 112
169 166 110
171 169 112
172 168 110
170 167 110
166 163 107
171 168 111
169 166 111
166 162 108
171 168 111
165 161 107
173 170 112
173 170 112
167 164 108
168 165 109
171 167 110
169 164 107
169 165 108
168 165 109
173 170 111
172 168 111
163 160 106
171 167 110
164 160 105
170 165 108
171 167 110
171 167 109
167 162 106
169 166 109
166 162 104
169 165 107
173 169 110
173 168 108
170 165 107
168 164 107
165 161 105
170 166 109
164 160 106
163 158 101
166 162 105
169 164 106
166 161 105
166 161 103
166 160 101
166 161 105
162 157 100
171 166 104
165 160 103
162 156 98
160 154 93
166 161 101
151 146 90
160 155 95
164 158 99
160 154 94
154 150 93
158 152 90
148 142 80
163 155 92
152 147 89
151 146 90
155 148 90
151 144 82
149 144 87
152 146 87
144 139 78
153 146 81
155 151 81
148 148 74
151 157 59
149 157 51
154 165 44
167 181 44
159 173 41
163 179 36
166 186 28
169 189 16
171 193 19
174 197 0
174 196 0
174 197 0
174 196 0
176 199 0
173 197 0
173 196 0
174 197 0
172 196 0
173 197 0
174 196 0
174 198 0
174 198 0
174 197 0
172 196 0
171 196 0
173 197 0
174 198 0
173 196 0
174 198 0
174 197 0
174 197 0
173 196 0
174 197 0
174 198 0
174 197 0
172 196 0
171 195 0
175 198 0
172 196 0
173 196 0
173 196 0
172 195 0
175 198 0
173 197 0
175 197 0
177 199 0
175 197 0
172 195 0
174 197 0
171 195 0
174 197 0
175 197 0
174 197 0
174 197 0
173 196 0
174 197 0
173 196 0
174 197 0
174 197 0
173 196 0
174 197 0
172 195 0
174 197 0
174 196 0
172 196 0
174 197 0
172 196 0
173 196 0
172 195 0
174 197 0
172 196 0
173 197 0
175 197 0
173 195 0
170 194 0
173 196 0
173 197 0
171 195 0
172 196 0
174 197 0
173 196 0
172 196 0
175 198 0
174 197 0
173 197 0
171 195 0
172 195 0
171 195 0
172 195 0
174 197 0
173 197 0
171 195 0
170 193 0
175 198 0
172 196 0
173 196 0
172 196 0
174 197 0
172 195 0
174 197 0
174 197 0
173 197 0
173 196 0
174 197 0
173 197 0
170 193 0
173 197 0
173 196 0
173 197 0
172 195 0
173 196 0
171 194 0
172 196 0
175 198 0
173 196 0
172 196 0
171 194 0
174 196 0
172 196 0
173 196 0
173 197 0
173 197 0
171 194 0
174 197 0
172 196 0
172 196 0
172 196 0
173 196 0
172 196 0
172 196 0
171 194 0
174 197 0
175 197 0
173 197 0
174 197 0
174 197 0
172 195 0
173 196 0
175 198 0
170 193 0
172 195 0
171 194 0
172 196 0
171 194 25
157 182 76
118 144 137
72 106 171
61 98 178
62 98 175
62 99 177
62 99 179
62 99 180
62 99 181
62 99 180
62 99 181
62 99 180
61 99 181
61 98 181
62 99 180
62 99 181
62 99 181
62 99 181
62 99 181
62 99 180
62 99 181
62 99 181
61 99 181
61 99 181
61 99 181
62 99 181
62 99 181
61 98 180
61 99 181
62 99 181
62 99 181
62 99 181
61 98 181
61 99 181
61 98 181
61 99 181
61 99 181
62 99 181
61 99 181
62 99 181
61 99 181
62 99 181
62 99 181
62 99 181
61 98 181
61 98 181
61 98 181
61 98 181
61 98 181
61 98 181
61 99 181
61 98 181
62 99 181
62 99 181
61 99 181
61 98 181
61 99 181
61 99 181
61 98 180
62 99 181
62 99 181
61 98 181
62 99 181
61 99 181
62 99 181
62 99 181
61 99 181
62 99 180
62 99 180
61 99 181
61 98 179
61 98 178
61 98 179
62 99 179
61 99 180
62 99 179
62 99 181
62 99 180
62 99 180
62 99 179
61 98 179
61 98 177
61 97 177
61 97 177
62 98 178
62 98 175
98 126 155
139 163 111
162 185 65
172 195 18
171 195 0
169 192 0
172 195 0
173 196 0
174 196 0
172 195 0
172 195 0
174 197 0
171 194 0
170 194 0
174 197 0
173 196 0
169 190 19
168 187 25
158 178 22
168 185 36
162 175 44
157 170 47
150 161 40
146 152 55
150 154 57
149 158 53
150 153 64
155 154 76
136 135 71
146 143 82
141 136 76
139 133 78
140 136 80
136 132 80
144 140 82
138 134 82
148 144 86
135 131 80
142 139 86
136 133 85
148 143 89
155 149 95
147 144 95
140 137 89
147 143 91
148 145 94
140 137 93
151 147 97
144 141 93
152 150 99
144 141 94
148 145 95
148 145 94
146 144 97
152 148 98
152 148 99
150 148 100
152 150 97
155 152 102
159 156 104
156 154 103
157 154 104
154 152 102
152 150 102
158 155 103
167 163 107
162 159 107
161 158 106
157 154 104
155 153 104
155 153 104
163 161 108
165 162 109
165 162 108
159 157 106
162 158 106
165 161 107
161 159 107
169 164 109
164 161 108
170 167 111
167 163 108
164 160 106
170 166 111
163 161 107
169 166 111
169 167 111
163 160 107
168 166 111
172 168 110
170 166 111
171 168 112
168 165 110
170 167 112
171 168 113
168 165 110
169 167 111
170 167 111
169 165 110
172 168 111
170 167 111
167 164 110
168 165 111
173 170 112
171 168 112
172 168 111
171 168 110
172 168 111
174 169 109
169 166 111
172 169 112
174 170 112
173 169 111
173 170 112
168 164 108
167 164 106
171 167 110
169 166 109
170 167 108
172 168 110
165 162 107
169 165 108
162 158 104
170 166 108
172 168 108
167 163 105
172 167 109
168 165 109
166 163 105
168 164 108
171 166 107
170 165 105
166 163 106
172 166 107
165 161 103
166 162 105
175 169 108
166 162 104
163 158 101
164 159 101
164 159 103
162 158 100
167 161 103
164 159 101
172 166 104
162 157 98
167 160 99
155 150 89
160 156 98
161 156 99
162 157 101
154 150 91
157 152 94
161 156 96
164 158 97
156 151 91
164 159 95
149 144 85
154 149 87
157 151 92
157 151 95
149 143 84
154 148 90
155 149 88
155 150 91
155 148 88
146 140 80
150 143 82
146 143 75
152 150 75
148 149 67
150 157 56
157 164 59
157 168 44
169 182 49
165 183 37
167 186 25
173 192 36
170 191 16
173 196 0
174 197 0
175 198 0
174 197 0
172 195 0
174 197 0
174 197 0
172 196 0
173 197 0
173 197 0
173 197 0
174 197 0
173 197 0
174 197 0
172 196 0
175 197 0
175 198 0
175 198 0
173 197 0
174 198 0
172 196 0
176 199 0
172 196 0
173 197 0
176 198 0
173 197 0
171 195 0
172 196 0
175 198 0
172 196 0
173 196 0
173 196 0
173 196 0
173 197 0
174 197 0
171 194 0
175 198 0
174 197 0
173 196 0
174 197 0
175 198 0
171 194 0
170 193 0
172 195 0
175 198 0
173 196 0
175 198 0
174 198 0
172 196 0
174 197 0
174 197 0
173 197 0
174 197 0
173 197 0
174 196 0
172 196 0
175 198 0
174 197 0
173 197 0
174 197 0
172 195 0
171 196 0
172 196 0
173 197 0
171 195 0
173 196 0
174 198 0
173 197 0
172 196 0
173 197 0
173 196 0
174 196 0
173 195 0
175 198 0
173 196 0
172 194 0
171 195 0
174 197 0
171 195 0
174 197 0
173 196 0
173 197 0
172 196 0
173 196 0
172 195 0
171 195 0
175 198 0
174 197 0
171 194 0
174 197 0
172 195 0
171 193 0
173 197 0
173 197 0
173 196 0
170 193 0
174 197 0
173 196 0
173 196 0
173 197 0
172 195 0
172 196 0
173 196 0
171 195 0
173 196 0
171 194 0
171 194 0
170 194 0
171 194 0
172 196 0
173 196 0
173 196 0
174 197 0
172 196 0
172 195 0
173 196 0
170 194 0
169 193 0
172 195 0
172 196 0
174 198 0
171 195 0
174 196 0
171 195 0
173 196 0
172 194 0
173 197 0
174 198 0
174 197 0
173 196 0
173 196 0
173 196 0
170 194 18
163 186 57
116 142 142
71 105 170
62 99 178
62 98 172
62 99 174
62 99 180
61 99 179
62 99 179
62 99 181
61 99 181
62 99 181
62 99 181
62 99 180
61 99 179
62 99 180
62 99 181
61 99 180
62 99 180
61 99 181
61 99 181
61 99 181
62 99 180
61 99 180
62 99 181
62 99 181
61 98 181
62 99 181
61 99 181
62 99 181
61 99 181
62 99 181
61 99 181
62 99 181
61 98 181
61 99 181
61 98 181
61 99 181
61 99 181
62 99 181
62 99 181
61 99 181
61 99 181
62 99 181
61 99 181
61 98 181
61 98 181
62 99 181
61 98 181
62 99 181
62 99 181
62 99 181
61 99 181
62 99 181
61 99 181
62 99 181
61 99 181
61 99 181
61 98 181
61 99 180
62 99 181
61 99 181
61 98 180
61 99 181
61 99 181
61 99 181
62 99 181
62 99 180
61 99 181
62 99 180
62 99 180
62 99 181
61 98 181
62 99 180
62 99 181
62 99 180
61 98 179
61 98 178
62 99 178
61 98 178
62 98 179
61 97 176
61 99 180
61 98 177
63 99 177
62 99 178
61 98 177
60 96 173
61 98 174
69 103 171
108 135 145
145 169 101
162 186 54
173 195 0
173 195 0
173 195 0
170 192 0
171 194 0
173 196 0
171 194 0
172 195 0
172 196 0
170 192 0
173 194 22
168 189 19
166 183 32
163 180 32
163 179 34
155 169 36
156 167 44
150 161 47
148 157 57
141 147 54
153 154 70
150 154 67
135 135 58
127 126 61
137 134 76
128 124 69
133 129 74
145 140 81
147 142 85
136 131 76
142 138 82
149 144 87
145 141 86
157 151 94
138 133 85
142 138 89
149 144 91
149 145 93
148 144 93
141 138 90
142 139 90
153 148 95
140 138 92
148 145 95
142 140 92
153 149 100
151 147 97
152 149 99
148 144 93
140 138 91
148 145 96
160 157 105
151 149 99
158 155 103
157 154 103
152 149 101
156 153 103
154 152 102
141 140 96
157 154 102
154 151 101
159 156 105
156 154 103
156 154 104
157 155 105
165 162 109
162 159 106
157 155 104
163 161 109
166 163 109
160 158 106
165 161 108
161 159 107
165 162 109
161 158 106
164 161 108
170 167 111
170 167 111
169 165 110
168 165 109
167 165 110
165 163 109
165 163 109
167 164 109
170 167 111
168 166 111
172 169 112
170 166 110
171 167 111
169 166 111
167 164 109
171 169 113
171 167 108
172 169 112
173 170 113
172 168 112
170 167 111
168 164 108
171 167 110
173 169 112
177 172 113
170 167 110
170 168 112
170 167 110
174 170 113
172 167 110
171 167 109
177 171 113
171 166 107
170 167 108
170 166 109
176 170 110
168 165 107
171 167 110
169 166 109
170 166 108
172 167 109
169 165 109
172 167 108
171 167 109
168 164 105
171 166 108
165 161 105
168 164 104
168 164 107
166 162 106
165 161 105
168 164 106
164 161 99
169 165 106
166 161 103
165 161 103
167 162 104
162 158 100
163 159 102
169 164 103
168 163 105
164 160 101
164 159 101
160 156 99
158 153 97
159 152 95
165 159 97
160 155 99
163 158 98
162 156 95
158 153 95
157 152 93
157 152 97
155 150 97
161 156 95
155 150 94
156 151 93
158 152 90
152 146 86
150 144 80
154 149 88
149 143 82
140 135 76
158 151 86
148 143 81
149 142 82
154 149 75
152 149 82
156 153 75
144 146 64
144 147 61
148 156 52
162 173 48
162 175 44
163 179 37
168 188 28
167 187 16
172 193 22
173 195 0
176 198 0
173 196 0
173 197 0
174 197 0
175 198 0
175 198 0
173 196 0
175 198 0
174 197 0
174 197 0
174 197 0
172 196 0
173 197 0
172 196 0
172 196 0
174 197 0
174 197 0
174 198 0
173 197 0
172 196 0
172 195 0
171 195 0
173 197 0
172 196 0
173 197 0
174 197 0
173 197 0
174 198 0
173 196 0
174 197 0
174 196 0
175 198 0
173 196 0
174 197 0
173 196 0
174 198 0
174 198 0
172 196 0
174 197 0
174 197 0
175 197 0
175 198 0
172 196 0
172 196 0
175 198 0
173 196 0
173 196 0
172 195 0
173 197 0
173 196 0
174 198 0
170 194 0
172 196 0
174 197 0
173 196 0
172 195 0
173 196 0
174 197 0
174 197 0
175 197 0
175 198 0
171 195 0
172 196 0
173 197 0
172 196 0
174 198 0
176 199 0
173 196 0
173 195 0
176 199 0
174 197 0
173 195 0
173 197 0
172 195 0
174 197 0
173 196 0
176 199 0
171 195 0
175 197 0
171 195 0
170 194 0
174 196 0
174 197 0
174 197 0
175 197 0
174 197 0
169 193 0
171 194 0
174 197 0
173 196 0
172 195 0
173 197 0
175 197 0
173 196 0
173 197 0
173 196 0
172 195 0
173 196 0
170 193 0
176 199 0
173 196 0
175 197 0
174 197 0
172 195 0
172 196 0
173 196 0
173 196 0
172 195 0
172 195 0
174 198 0
171 195 0
172 196 0
172 195 0
173 196 0
173 196 0
174 197 0
170 194 0
171 195 0
172 194 0
170 193 0
174 196 0
174 196 0
173 196 0
174 198 0
173 196 0
173 197 0
173 196 0
173 196 0
171 192 0
171 194 0
170 194 31
147 172 102
86 118 164
62 99 178
62 99 178
62 99 180
62 99 179
61 98 176
62 99 179
62 99 181
62 99 180
62 99 181
62 99 180
62 99 180
62 99 180
62 99 181
62 99 181
62 99 181
62 99 181
62 99 181
61 99 181
61 99 181
61 99 180
62 99 181
61 99 181
62 99 181
62 99 181
62 99 181
61 99 181
61 99 181
61 99 181
62 99 181
62 99 181
61 99 181
62 99 181
61 99 181
61 99 181
62 99 181
62 99 181
62 99 181
62 99 181
61 99 181
61 98 181
61 98 181
62 99 181
61 99 181
62 99 181
61 99 181
62 99 181
61 99 181
61 99 181
61 99 181
62 99 181
61 98 181
62 99 181
61 99 181
62 99 181
61 99 181
61 99 181
61 99 181
61 98 181
62 99 181
62 99 181
62 99 181
61 99 181
62 99 181
61 98 180
62 99 181
61 99 181
62 99 181
62 99 179
61 99 181
61 98 181
62 99 181
62 99 180
62 99 180
61 99 181
62 99 179
62 99 181
63 100 180
61 98 177
61 98 178
61 98 179
61 98 179
61 99 180
62 98 177
61 98 178
62 99 178
61 98 177
62 99 179
61 97 175
62 99 178
62 98 177
78 110 164
124 149 131
153 176 82
171 195 18
172 195 0
174 197 0
172 195 0
173 197 0
171 194 0
171 195 0
170 192 0
171 193 0
171 193 11
171 191 19
168 186 32
159 176 28
163 178 37
153 165 43
153 163 45
154 164 52
148 153 63
144 149 55
150 153 70
152 151 71
148 146 78
140 137 74
143 139 79
132 127 79
144 139 85
139 135 81
131 128 74
140 136 86
152 147 91
145 142 87
138 135 83
142 138 85
136 134 86
147 143 93
133 131 86
139 136 85
135 133 87
142 141 92
139 137 90
153 149 99
147 145 98
148 145 96
148 145 96
149 146 97
147 145 98
141 139 93
155 152 101
147 145 98
144 143 98
142 141 95
149 147 97
155 152 101
155 152 101
155 152 102
153 150 101
153 151 101
150 148 100
150 148 100
160 157 104
158 156 104
160 156 104
161 158 106
154 152 103
168 165 109
161 159 106
162 160 107
164 161 108
162 159 108
163 160 107
157 155 105
164 161 108
158 156 104
157 156 106
164 161 108
168 165 109
160 158 106
165 162 108
172 168 112
167 165 110
166 163 108
168 165 110
167 163 109
165 162 108
167 164 109
171 168 112
172 169 112
171 167 111
165 163 109
168 166 111
172 168 111
169 166 110
168 165 109
171 168 111
173 169 112
172 167 110
172 168 110
175 171 111
170 167 110
174 170 113
173 168 110
171 167 110
168 165 108
174 170 112
172 167 110
174 170 111
172 168 109
169 166 109
173 169 112
172 169 111
174 170 112
167 163 107
168 166 110
174 169 110
170 166 109
172 167 109
168 164 108
170 166 107
168 165 108
164 160 105
172 168 110
166 163 105
169 165 109
168 163 106
164 160 102
165 161 104
167 163 104
167 162 104
167 162 104
170 164 105
171 166 106
164 159 101
166 161 101
165 161 103
163 158 101
168 162 104
163 159 98
163 158 99
161 155 95
159 155 97
159 155 98
169 163 104
164 160 98
162 157 95
157 153 95
161 155 91
160 155 95
164 158 97
164 158 97
160 154 95
150 145 89
159 154 96
150 145 86
147 142 85
163 157 96
149 143 85
150 144 80
145 140 86
143 137 84
150 144 81
146 139 78
144 138 79
147 143 78
142 141 65
147 147 68
149 152 60
157 164 62
155 165 52
161 172 52
163 176 44
162 180 36
169 190 25
169 192 22
170 193 0
173 196 0
172 195 0
173 196 0
173 196 0
173 196 0
172 196 0
173 197 0
174 197 0
175 198 0
171 195 0
173 197 0
174 198 0
174 197 0
174 197 0
174 197 0
172 196 0
171 195 0
173 196 0
175 197 0
173 197 0
173 197 0
175 198 0
172 196 0
173 197 0
174 197 0
173 197 0
173 196 0
174 197 0
173 196 0
173 196 0
173 197 0
173 197 0
174 197 0
175 198 0
173 197 0
172 195 0
172 195 0
172 195 0
174 197 0
173 196 0
174 197 0
174 196 0
175 197 0
172 196 0
175 198 0
170 194 0
173 197 0
174 197 0
173 196 0
173 196 0
173 197 0
175 198 0
173 196 0
175 198 0
174 197 0
175 198 0
175 198 0
172 195 0
173 197 0
174 197 0
171 195 0
175 198 0
173 196 0
172 196 0
173 196 0
173 197 0
173 197 0
174 197 0
174 197 0
174 197 0
173 197 0
174 198 0
173 197 0
173 197 0
173 197 0
173 197 0
172 196 0
173 197 0
174 198 0
172 195 0
174 197 0
171 195 0
172 195 0
173 196 0
172 195 0
172 195 0
172 196 0
173 197 0
173 196 0
173 196 0
173 196 0
171 194 0
173 196 0
175 198 0
172 196 0
175 198 0
172 196 0
170 194 0
169 193 0
176 199 0
175 197 0
173 196 0
168 191 0
172 195 0
172 195 0
172 196 0
174 197 0
172 196 0
174 197 0
174 197 0
173 197 0
172 196 0
172 195 0
170 195 0
171 194 0
173 196 0
174 197 0
172 195 0
174 197 0
174 197 0
173 197 0
170 193 0
173 196 0
174 195 0
172 194 0
173 197 0
175 198 0
172 196 0
169 193 18
152 176 80
100 129 156
62 99 176
62 99 178
62 99 177
61 98 175
62 99 179
62 99 181
61 99 179
62 99 181
62 99 179
62 99 178
62 99 180
62 99 180
61 98 180
62 99 181
62 99 181
62 99 181
62 99 181
61 99 180
62 99 180
61 98 180
61 99 180
62 99 181
61 98 181
61 98 181
62 99 180
62 99 181
62 99 181
62 99 181
61 99 181
61 99 181
61 99 181
61 99 181
61 99 181
61 98 181
61 98 181
62 99 181
61 98 181
61 99 181
61 99 181
62 99 181
61 99 181
61 98 181
61 98 181
61 98 181
61 99 181
61 99 181
62 99 181
61 99 181
62 99 181
62 99 181
62 99 181
62 99 181
61 98 181
62 99 181
62 99 181
62 99 181
62 99 181
61 99 181
61 98 181
61 99 181
61 99 181
61 99 181
62 99 181
62 99 181
62 99 180
62 99 180
61 99 181
61 98 180
61 99 181
62 99 180
61 98 180
62 99 181
61 98 179
61 98 180
62 99 181
62 99 181
62 98 179
61 98 177
61 98 180
62 99 178
62 99 181
62 99 180
62 99 179
60 97 177
61 98 178
62 99 180
61 98 177
61 97 177
61 97 173
61 98 177
61 97 177
61 97 171
62 98 176
61 96 172
93 122 157
132 154 108
164 187 52
170 192 25
168 191 0
173 196 0
173 196 0
172 195 0
170 192 0
168 191 0
169 190 19
166 185 29
165 183 25
167 184 39
158 172 39
156 168 49
156 167 45
159 168 58
143 150 58
157 163 65
147 152 55
149 147 75
141 139 70
145 141 79
138 134 70
140 136 83
149 144 89
136 132 78
141 138 84
148 144 84
140 136 83
140 136 86
143 139 86
145 142 88
141 138 89
132 130 79
140 136 86
155 151 99
149 145 95
146 143 93
141 139 91
136 135 92
138 137 89
152 149 98
141 139 91
148 146 99
160 156 102
146 144 96
144 142 96
150 147 98
149 146 97
147 145 98
149 146 99
151 148 101
154 152 100
154 152 102
154 152 103
153 150 100
147 146 99
158 156 105
150 147 99
160 158 106
158 155 103
160 156 103
159 157 107
153 151 102
160 158 104
162 159 106
170 166 110
158 155 105
161 159 107
162 159 107
164 161 107
166 164 110
165 162 108
160 158 106
163 161 108
167 164 109
169 165 110
165 163 108
163 161 107
167 165 110
170 166 111
171 167 110
168 164 109
165 162 108
168 165 110
172 168 111
171 167 111
168 165 110
169 166 110
170 167 111
174 170 111
169 166 108
170 167 110
168 164 108
174 170 111
171 168 111
174 170 111
171 168 110
170 167 111
174 170 112
172 168 111
174 170 112
173 170 112
172 168 110
175 170 110
174 169 111
171 167 109
173 168 110
172 168 110
171 168 110
176 171 111
175 171 112
172 168 110
172 168 109
169 165 108
172 168 109
172 168 107
168 164 106
167 163 104
171 166 108
166 161 103
172 168 109
166 161 104
167 163 103
171 167 107
168 163 104
172 167 108
166 161 104
163 158 103
168 163 102
163 158 101
168 163 104
170 165 106
164 160 103
166 161 100
169 164 104
164 159 99
164 159 101
162 157 99
167 162 103
164 159 95
162 157 96
154 149 93
161 154 95
165 159 101
156 150 93
154 149 92
153 148 87
165 159 95
153 148 92
164 158 96
152 147 89
155 149 91
154 149 86
149 144 87
152 147 82
156 150 89
144 138 84
142 137 80
157 151 87
150 144 83
152 144 77
145 143 70
159 157 79
149 151 65
142 148 61
163 171 61
162 172 48
160 176 34
165 181 37
168 186 32
168 189 19
171 192 11
172 195 16
172 195 0
173 196 0
174 196 0
173 197 0
172 196 0
172 197 0
175 198 0
174 197 0
175 198 0
174 197 0
174 197 0
174 198 0
175 198 0
175 198 0
173 197 0
174 197 0
175 198 0
174 198 0
173 197 0
173 196 0
175 198 0
174 198 0
172 197 0
173 196 0
174 197 0
173 196 0
175 198 0
173 197 0
172 195 0
173 196 0
172 196 0
174 197 0
175 198 0
173 196 0
173 197 0
174 197 0
172 196 0
175 197 0
171 195 0
175 198 0
173 196 0
174 197 0
172 195 0
173 196 0
174 197 0
173 197 0
171 195 0
173 197 0
172 196 0
174 197 0
174 197 0
174 197 0
174 197 0
174 197 0
173 197 0
172 195 0
174 197 0
171 195 0
172 195 0
171 195 0
172 195 0
172 196 0
176 198 0
173 197 0
173 196 0
172 196 0
173 197 0
174 197 0
171 195 0
173 197 0
173 197 0
172 196 0
171 195 0
173 196 0
173 196 0
172 195 0
173 196 0
173 197 0
174 197 0
174 197 0
174 197 0
171 195 0
173 196 0
174 197 0
173 197 0
173 196 0
173 197 0
173 196 0
176 198 0
171 195 0
173 196 0
173 197 0
172 196 0
172 196 0
173 196 0
173 197 0
175 198 0
170 194 0
174 197 0
173 196 0
171 194 0
173 197 0
172 195 0
174 197 0
173 197 0
172 195 0
172 196 0
174 197 0
173 197 0
170 195 0
175 198 0
171 195 0
172 195 0
173 196 0
173 197 0
174 197 0
173 196 0
173 196 0
172 195 0
172 196 0
170 194 0
173 197 0
172 195 0
173 196 0
172 194 0
173 195 0
166 189 44
137 163 108
78 111 162
63 100 179
62 99 176
63 100 181
62 99 180
62 99 179
62 99 180
62 99 179
62 99 177
62 99 179
62 99 177
63 100 181
62 99 181
62 99 180
61 99 181
62 99 181
62 99 180
62 99 181
61 99 181
62 99 181
62 99 181
62 99 180
62 99 181
62 99 181
62 99 181
62 99 181
61 99 181
62 99 181
61 99 181
61 98 181
61 99 181
62 99 181
61 98 181
62 99 181
62 99 181
62 99 181
62 99 181
62 99 181
61 98 181
61 99 181
61 99 181
62 99 181
61 99 181
62 99 181
61 99 181
61 98 181
61 99 181
61 99 181
61 98 181
61 98 181
62 99 181
62 99 181
61 99 181
62 99 181
61 99 181
62 99 181
61 98 181
61 99 181
62 99 181
61 98 181
61 99 181
62 99 181
61 99 181
61 98 181
61 98 181
61 99 181
62 99 181
62 99 181
61 99 181
62 99 181
61 99 180
62 99 181
62 99 180
62 99 181
61 99 180
62 99 181
61 98 181
61 98 179
61 98 178
62 98 176
61 98 179
61 98 179
62 99 179
62 99 179
62 99 180
62 99 180
62 99 180
61 98 179
61 98 174
61 98 177
62 99 180
62 99 179
61 98 177
62 98 178
62 98 177
61 98 176
61 98 175
67 100 169
117 143 137
155 178 84
167 191 36
170 193 0
174 196 0
172 194 0
170 193 0
165 186 11
167 187 25
169 188 32
169 186 32
160 177 30
160 173 39
155 167 37
152 161 50
149 157 55
144 149 55
150 155 60
154 155 65
148 146 76
134 131 76
134 130 71
127 124 70
137 133 74
125 122 74
148 143 90
139 137 83
135 132 83
141 138 85
144 140 88
138 135 87
122 121 79
136 133 81
139 136 87
136 133 84
138 136 89
151 148 98
149 145 94
133 131 88
137 136 88
142 139 91
155 151 99
146 144 96
148 144 97
142 140 96
145 144 97
138 136 92
151 148 100
155 152 101
151 149 101
152 150 97
147 146 99
148 146 100
150 148 99
155 152 101
153 150 101
152 149 100
152 150 101
149 147 99
160 156 103
159 156 105
156 153 103
154 152 104
160 158 107
155 153 103
156 154 104
158 156 106
167 165 110
160 159 106
164 161 108
167 164 109
164 161 108
161 159 107
165 162 107
165 162 107
166 163 108
168 165 109
166 163 108
164 162 109
176 171 113
166 163 109
163 161 109
170 167 111
168 165 110
169 166 111
169 166 111
170 167 111
172 168 112
172 169 113
171 167 110
174 170 111
170 167 111
168 165 110
171 167 110
170 167 110
175 170 112
173 169 111
171 168 112
173 169 110
170 166 110
172 168 111
173 169 109
172 169 111
174 169 110
175 170 110
173 168 110
171 167 109
175 171 111
174 170 110
170 168 111
174 169 109
169 165 105
174 169 110
173 169 111
175 170 112
172 169 109
173 168 110
174 169 110
171 166 107
170 166 107
168 164 108
171 167 108
165 160 103
171 166 107
168 165 106
167 164 106
167 162 104
171 166 106
169 165 102
171 166 106
168 164 108
162 156 98
168 162 103
163 159 104
172 167 106
165 160 103
155 151 96
166 160 97
162 157 101
161 156 99
165 160 101
172 166 106
164 158 99
160 154 97
156 152 95
162 155 97
160 155 97
156 151 94
161 156 96
160 155 93
158 152 90
164 158 97
156 151 90
155 150 88
151 145 86
146 141 81
148 143 85
153 148 90
141 135 78
149 143 81
148 141 78
141 135 72
139 135 71
146 144 72
134 137 57
153 157 63
158 165 54
163 175 47
160 171 45
163 179 41
164 180 41
164 184 22
171 193 11
173 197 0
174 197 0
173 197 0
173 195 0
174 198 0
174 197 0
172 196 0
174 198 0
175 198 0
172 196 0
174 197 0
174 197 0
173 196 0
173 196 0
172 196 0
174 198 0
172 196 0
174 198 0
174 198 0
173 197 0
174 197 0
173 196 0
173 197 0
174 197 0
174 197 0
171 195 0
174 197 0
172 195 0
174 197 0
172 196 0
173 196 0
172 194 0
173 196 0
173 196 0
173 197 0
171 195 0
174 197 0
171 195 0
174 197 0
172 196 0
174 198 0
173 196 0
173 196 0
173 196 0
173 196 0
175 198 0
173 196 0
174 197 0
173 196 0
174 196 0
172 195 0
175 198 0
175 197 0
173 197 0
173 196 0
173 197 0
173 196 0
174 197 0
174 197 0
173 197 0
173 196 0
174 197 0
174 197 0
172 196 0
173 196 0
174 197 0
174 197 0
174 197 0
173 196 0
172 194 0
171 194 0
173 196 0
173 196 0
172 196 0
174 197 0
173 196 0
172 196 0
174 196 0
171 195 0
172 196 0
171 194 0
173 196 0
173 197 0
170 193 0
173 196 0
172 196 0
174 196 0
173 197 0
173 196 0
169 192 0
171 195 0
173 197 0
173 196 0
172 195 0
172 196 0
173 196 0
175 198 0
170 194 0
174 197 0
173 195 0
173 196 0
175 198 0
174 198 0
172 196 0
176 198 0
171 194 0
171 195 0
172 196 0
171 196 0
171 195 0
172 196 0
172 196 0
169 192 0
172 196 0
172 195 0
175 197 0
172 196 0
173 197 0
171 195 0
173 196 0
169 192 0
174 196 0
173 196 0
172 195 0
173 196 0
172 194 18
164 188 62
101 129 152
64 100 176
61 98 176
61 99 178
63 100 179
62 99 176
62 99 179
62 99 179
62 99 180
62 99 178
61 99 181
61 99 179
61 99 180
61 99 181
62 99 181
62 99 180
61 99 180
62 99 178
62 99 181
62 99 180
62 99 180
61 99 181
61 99 181
61 99 181
62 99 181
61 98 180
61 99 181
61 99 181
62 99 181
63 100 181
61 99 181
62 99 181
61 99 181
61 99 181
61 99 181
62 99 181
61 98 181
61 99 181
61 98 181
61 99 181
62 99 181
61 99 181
61 98 181
61 99 181
62 99 181
61 99 181
62 99 181
62 99 181
61 99 181
62 99 181
61 99 181
61 99 181
61 98 181
62 99 181
62 99 181
61 99 181
61 98 181
62 99 181
62 99 181
61 99 181
61 99 181
62 99 181
61 99 181
62 99 181
61 99 181
61 98 181
61 98 181
62 99 180
62 99 181
61 99 181
62 99 181
62 99 181
62 99 180
62 99 181
61 99 181
62 99 181
60 98 181
62 99 181
62 99 180
62 98 179
61 98 179
62 99 181
62 99 179
62 99 180
62 99 180
62 99 179
61 98 177
62 99 179
61 98 179
62 99 178
62 99 178
60 97 177
62 99 177
61 98 177
62 99 176
62 98 173
61 98 176
61 98 175
61 97 173
61 97 174
60 96 170
77 109 165
132 157 119
166 188 51
170 192 18
171 192 11
169 190 11
168 189 11
168 188 19
160 179 25
167 185 34
160 176 30
155 169 37
153 165 45
144 154 47
149 157 45
153 158 56
141 148 58
151 151 72
138 135 72
141 139 72
134 130 70
141 137 77
147 142 87
136 132 71
136 133 79
133 130 82
135 131 81
139 135 85
145 140 87
141 138 90
136 133 86
143 140 86
142 139 89
150 145 93
137 135 88
145 142 92
143 140 90
137 135 90
134 132 86
141 138 91
139 136 89
145 143 96
140 139 94
140 139 95
150 147 97
144 141 96
150 147 98
146 144 96
147 144 96
147 145 98
146 145 98
152 148 100
151 149 102
149 148 102
152 149 101
154 150 101
157 155 104
156 154 105
148 146 100
157 155 104
163 160 106
164 161 107
161 159 107
165 161 108
159 157 105
159 157 105
165 162 109
170 166 110
160 157 105
161 158 106
166 163 108
166 163 107
163 160 107
172 168 110
164 161 108
170 166 109
166 163 109
169 166 110
168 164 108
168 165 110
171 169 112
174 170 112
167 164 109
171 167 110
169 166 111
173 170 111
173 170 113
171 167 110
174 170 112
175 171 113
171 168 111
173 170 111
175 170 111
172 169 111
172 167 109
170 167 110
171 167 110
173 168 111
173 169 111
174 170 111
171 167 110
172 169 110
171 167 107
173 169 110
176 171 112
172 168 109
174 169 110
170 166 108
166 162 107
174 170 110
176 171 109
173 169 110
171 167 109
166 163 108
170 165 107
170 166 108
171 167 108
169 165 108
171 167 106
172 168 108
174 168 108
169 164 106
174 168 108
168 162 103
171 166 107
162 158 102
168 164 102
174 169 106
169 163 104
169 164 104
168 163 105
168 163 101
173 168 106
162 157 99
163 158 100
159 154 95
167 162 102
165 160 101
162 157 97
163 157 101
166 160 102
164 158 98
162 156 97
160 155 97
157 152 93
159 154 94
156 150 93
163 156 98
168 162 97
159 155 93
158 152 90
158 153 95
152 146 88
149 144 84
151 145 82
158 151 87
145 140 83
138 134 74
158 151 90
146 140 77
138 133 71
147 141 78
139 138 68
147 148 66
145 146 65
138 145 45
156 167 47
160 174 48
163 179 41
168 186 25
168 187 25
170 191 19
172 193 11
173 196 0
172 196 0
174 197 0
176 198 0
172 196 0
174 197 0
173 197 0
174 197 0
172 196 0
175 198 0
174 197 0
173 197 0
175 198 0
174 198 0
174 196 0
173 197 0
175 198 0
173 196 0
174 198 0
173 196 0
172 196 0
172 196 0
173 197 0
173 196 0
176 198 0
171 194 0
173 196 0
174 197 0
174 197 0
173 196 0
173 197 0
175 198 0
175 198 0
172 195 0
173 197 0
172 196 0
171 195 0
174 197 0
174 198 0
172 196 0
174 198 0
171 196 0
172 196 0
172 196 0
174 197 0
173 196 0
173 196 0
169 193 0
173 197 0
174 197 0
170 193 0
174 197 0
175 198 0
171 195 0
171 195 0
172 195 0
171 195 0
174 197 0
175 198 0
171 195 0
172 196 0
172 195 0
172 195 0
172 196 0
175 198 0
173 196 0
175 198 0
173 197 0
172 195 0
173 197 0
172 195 0
174 197 0
175 198 0
172 195 0
173 197 0
173 197 0
173 196 0
174 197 0
173 196 0
171 195 0
173 196 0
172 196 0
169 192 0
171 195 0
175 198 0
175 198 0
174 197 0
173 197 0
171 195 0
173 196 0
174 198 0
174 198 0
173 196 0
175 198 0
175 197 0
173 196 0
172 195 0
173 196 0
170 194 0
173 197 0
171 195 0
172 196 0
172 195 0
174 197 0
173 197 0
171 195 0
174 198 0
172 195 0
174 197 0
172 194 0
171 194 0
170 193 0
171 195 0
171 194 0
172 196 0
172 196 0
173 197 0
171 194 0
172 195 0
172 196 0
172 196 0
173 197 0
170 194 0
170 193 40
134 159 118
73 106 171
62 99 179
62 99 180
62 99 178
62 99 178
63 99 179
61 99 178
62 99 180
62 99 176
62 99 180
62 99 180
61 99 179
62 99 180
62 99 180
62 99 180
61 99 180
62 99 181
62 99 180
62 99 180
62 99 181
62 99 181
62 99 180
61 98 181
62 99 180
62 99 181
62 99 181
61 99 181
62 99 181
62 99 180
62 99 181
62 99 181
62 99 180
61 99 181
61 98 181
62 99 181
61 99 181
61 99 181
61 98 181
61 98 181
61 98 181
62 99 181
62 99 181
62 99 181
61 99 181
62 99 181
61 99 181
61 99 181
61 99 181
61 99 181
61 98 181
61 98 181
61 98 181
61 99 181
61 99 181
61 99 181
61 99 181
62 99 181
62 100 181
61 99 181
62 99 181
61 99 181
62 99 181
62 99 181
62 99 181
61 98 180
61 99 181
62 99 181
61 99 181
62 99 181
61 99 181
62 99 181
62 99 180
62 99 181
61 99 181
61 98 180
62 99 181
62 99 181
62 99 181
62 99 179
62 99 181
62 99 178
61 98 179
62 99 180
62 99 180
62 99 179
61 98 179
63 100 181
61 98 180
62 99 181
62 99 179
61 98 177
62 99 180
61 98 179
61 98 176
61 98 176
61 97 174
62 99 179
61 97 174
62 98 176
61 98 177
60 96 172
61 97 173
62 97 173
77 109 166
116 142 130
154 177 79
173 195 25
174 196 11
167 186 25
165 183 30
156 176 19
160 176 37
159 174 32
160 172 44
150 158 48
151 160 55
149 156 51
148 152 59
154 157 70
145 144 71
130 129 65
135 132 76
135 130 76
141 136 80
142 137 83
140 135 81
149 144 83
130 127 74
137 134 81
139 135 82
149 144 91
133 130 81
139 136 86
140 137 89
137 134 86
137 135 87
147 143 90
137 135 86
150 147 97
136 133 87
148 145 96
139 137 91
141 139 94
141 140 93
142 140 94
149 147 97
146 145 98
141 139 91
142 140 94
151 149 100
143 142 96
148 147 100
151 148 99
150 148 101
155 152 102
159 157 106
151 149 99
153 150 100
154 152 102
153 151 103
143 142 96
154 152 103
163 160 108
151 151 103
162 159 107
154 152 103
157 155 105
158 156 105
155 153 103
161 159 105
160 159 107
165 162 108
163 160 106
165 162 108
163 161 107
166 163 108
166 163 108
166 163 109
168 165 110
167 165 108
165 161 108
168 165 109
166 163 110
163 162 109
165 162 106
173 168 111
171 168 110
167 165 111
170 166 110
166 164 108
170 166 110
172 168 110
169 165 110
171 168 111
173 168 110
174 171 113
172 168 107
172 169 111
172 168 111
170 167 110
176 171 112
173 169 110
173 169 111
175 170 110
171 168 110
174 170 111
172 168 111
174 169 110
171 166 108
175 169 110
170 166 108
170 165 106
172 167 109
172 167 108
171 168 109
172 167 107
169 165 107
173 169 110
172 167 108
170 166 106
171 166 104
170 166 106
172 168 109
169 163 103
168 164 104
163 159 102
172 167 108
171 166 107
168 164 103
170 165 103
165 159 100
169 164 105
165 160 100
165 159 100
166 162 103
170 164 103
162 157 99
168 162 103
174 168 104
165 161 98
163 159 100
154 148 90
161 157 94
161 157 99
161 156 94
162 156 96
156 151 94
159 153 95
165 159 100
162 156 93
165 158 96
164 157 97
161 154 94
160 154 93
156 150 90
151 146 83
155 148 90
160 154 90
158 152 89
144 137 79
138 133 74
155 148 86
142 136 81
141 136 76
146 142 72
153 153 75
142 144 66
147 152 57
153 162 45
158 171 39
161 176 30
165 183 22
167 186 28
172 194 19
172 194 16
174 197 11
172 195 0
172 194 0
174 197 0
174 197 0
172 195 0
174 197 0
172 196 0
172 195 0
173 196 0
172 196 0
173 197 0
174 197 0
174 198 0
172 195 0
173 196 0
173 196 0
173 197 0
174 198 0
174 198 0
172 195 0
174 197 0
173 197 0
174 198 0
172 195 0
175 198 0
174 198 0
174 198 0
171 195 0
173 197 0
173 197 0
172 196 0
174 197 0
173 196 0
171 194 0
173 196 0
173 197 0
171 195 0
173 197 0
175 198 0
169 193 0
175 197 0
170 193 0
172 195 0
174 198 0
174 198 0
174 197 0
173 197 0
170 194 0
172 195 0
174 197 0
174 197 0
173 197 0
172 196 0
176 198 0
173 196 0
173 196 0
175 198 0
172 196 0
174 196 0
173 195 0
174 197 0
174 198 0
171 194 0
173 197 0
175 197 0
171 195 0
171 194 0
172 196 0
172 196 0
172 196 0
173 197 0
171 194 0
175 197 0
174 197 0
173 197 0
173 196 0
173 196 0
173 196 0
172 195 0
173 197 0
173 195 0
173 197 0
173 196 0
174 198 0
172 196 0
172 195 0
175 197 0
173 197 0
172 195 0
172 196 0
170 194 0
172 196 0
172 195 0
173 197 0
174 197 0
173 196 0
173 196 0
173 195 0
172 195 0
172 196 0
173 197 0
173 196 0
173 196 0
172 196 0
171 195 0
174 196 0
174 197 0
170 194 0
173 196 0
172 196 0
173 196 0
172 195 0
174 197 0
172 195 0
174 196 0
172 195 0
172 196 0
171 195 0
173 196 0
172 196 0
170 194 0
165 189 44
102 131 151
63 99 177
62 99 178
62 99 174
62 99 177
62 99 179
62 99 177
62 99 176
62 99 178
62 99 180
62 99 176
62 99 179
62 99 176
62 99 179
62 99 180
61 99 180
62 99 180
62 99 180
62 99 180
62 99 181
61 98 180
62 99 181
61 98 180
62 99 181
62 99 181
61 99 181
62 99 181
62 99 181
61 99 181
61 99 181
62 99 181
61 99 181
62 99 181
61 99 181
62 99 180
61 99 181
62 99 181
62 99 181
61 99 181
62 99 181
61 98 181
62 99 181
61 98 181
61 98 181
62 99 181
61 99 181
61 98 181
62 99 181
62 99 181
61 99 181
61 99 181
61 98 181
61 99 181
62 99 181
62 99 181
62 99 181
62 99 181
62 99 181
61 99 181
62 99 181
61 99 181
62 99 181
61 99 181
62 99 181
61 99 181
62 99 181
62 99 181
62 99 181
61 99 181
61 99 181
62 99 181
61 98 180
62 99 181
61 99 181
62 99 181
62 99 180
62 99 181
62 99 179
62 99 181
61 98 180
62 99 179
62 99 181
62 99 181
62 99 181
62 99 181
61 99 179
62 99 181
62 99 180
62 99 179
62 99 181
62 99 181
62 98 179
62 99 178
61 98 178
62 99 178
61 98 178
61 98 177
61 98 176
62 98 178
62 99 178
62 99 178
62 99 176
61 98 176
61 98 175
61 98 175
60 96 172
61 97 173
91 120 158
140 164 106
168 190 28
160 180 21
164 181 25
163 180 32
158 172 37
150 164 34
156 170 36
154 162 47
157 164 58
147 154 55
148 152 63
141 144 66
134 133 71
138 135 72
142 137 75
135 131 76
141 136 76
132 128 74
145 140 86
142 138 86
138 133 84
135 133 83
132 129 83
135 133 84
144 140 86
141 137 86
137 134 88
132 129 84
131 130 86
146 143 94
141 138 90
127 126 84
137 135 92
138 136 91
133 132 90
144 142 97
139 138 93
143 141 96
134 133 89
152 149 100
137 135 91
154 151 101
142 139 95
142 141 96
156 153 102
143 140 92
152 150 100
154 151 102
143 141 97
147 146 99
151 149 99
152 150 103
150 148 100
155 153 104
159 156 105
157 155 105
159 156 104
154 153 104
163 160 107
159 157 105
167 163 108
165 162 107
161 158 105
165 162 108
168 164 109
160 157 105
161 159 108
160 159 107
166 163 108
168 165 110
168 165 109
166 163 108
166 163 109
167 164 109
170 166 109
165 162 107
169 165 109
172 168 112
172 168 111
168 164 106
171 168 111
169 166 110
172 169 111
171 167 110
170 167 111
174 170 112
175 170 113
171 168 111
171 168 110
176 171 111
166 163 107
174 170 112
175 170 111
172 168 110
173 169 112
172 168 110
175 170 110
173 168 109
171 167 110
174 169 111
170 166 108
172 167 109
175 171 112
172 168 108
173 169 107
171 167 109
172 168 109
172 167 109
173 169 110
173 168 109
175 170 109
172 167 107
171 166 106
172 166 107
167 163 105
173 168 108
170 166 106
169 164 106
164 159 102
171 165 107
170 165 105
168 164 104
172 168 109
164 161 101
170 166 106
170 165 104
168 163 105
165 161 100
162 158 100
168 163 101
167 161 99
167 162 101
164 159 99
165 161 101
168 163 99
161 155 97
161 156 93
162 156 97
164 159 97
164 158 95
152 147 88
162 156 93
158 152 94
156 151 92
161 155 94
153 147 90
159 154 90
159 153 94
150 144 86
154 148 87
154 147 85
152 146 83
146 141 84
158 152 86
147 141 80
149 143 87
145 138 76
146 142 75
145 142 74
145 147 61
148 150 67
148 151 59
153 162 54
164 180 37
164 179 42
165 183 32
168 188 16
174 195 25
174 196 11
175 198 0
174 197 0
174 198 0
173 196 0
173 196 0
173 197 0
173 197 0
175 198 0
174 197 0
174 197 0
172 196 0
173 197 0
174 197 0
173 197 0
172 195 0
172 196 0
173 197 0
170 195 0
175 197 0
173 196 0
173 196 0
174 197 0
173 197 0
173 197 0
175 198 0
174 197 0
173 196 0
174 197 0
173 196 0
172 195 0
173 196 0
174 197 0
172 196 0
174 198 0
173 197 0
174 197 0
174 198 0
174 198 0
172 196 0
173 196 0
171 195 0
172 195 0
172 195 0
176 198 0
173 197 0
171 194 0
173 197 0
173 197 0
172 196 0
172 196 0
171 195 0
172 196 0
175 198 0
172 196 0
172 196 0
174 197 0
172 197 0
172 195 0
170 194 0
172 197 0
173 197 0
175 198 0
172 196 0
175 197 0
171 194 0
174 197 0
172 196 0
172 196 0
174 197 0
173 197 0
172 196 0
174 197 0
174 197 0
172 195 0
174 197 0
173 197 0
172 195 0
172 196 0
173 196 0
171 193 0
175 197 0
173 196 0
173 197 0
174 197 0
172 195 0
175 197 0
173 197 0
171 194 0
172 196 0
173 197 0
172 196 0
171 194 0
172 195 0
172 195 0
172 195 0
173 197 0
172 195 0
172 196 0
172 195 0
169 192 0
171 194 0
174 197 0
175 197 0
172 195 0
174 197 0
173 195 0
173 197 0
173 197 0
174 197 0
170 194 0
172 196 0
172 195 0
172 196 0
175 198 0
173 196 0
170 193 0
172 196 0
174 197 0
169 192 0
171 195 18
154 178 76
105 133 149
62 99 177
62 99 175
62 99 179
62 99 173
62 99 178
62 99 180
62 99 178
61 99 179
62 99 177
61 98 177
62 99 180
62 99 181
62 99 179
62 99 180
62 99 180
62 99 179
61 99 180
62 99 180
61 98 178
62 99 180
62 99 181
62 99 181
62 99 181
62 99 181
62 99 181
61 99 180
61 99 181
61 99 180
62 99 181
62 99 180
62 99 181
62 99 181
62 99 181
62 99 181
61 99 181
62 99 181
62 99 180
61 99 181
62 99 181
61 99 181
62 99 181
61 99 181
61 99 181
61 99 181
62 99 181
61 98 181
61 99 181
61 98 181
62 99 181
61 99 181
62 99 181
62 99 181
62 99 181
61 99 181
61 99 181
62 99 181
61 99 181
61 98 181
62 99 181
62 99 181
62 99 181
61 98 181
61 98 181
61 99 181
62 99 181
62 99 181
62 99 181
61 98 181
61 99 181
62 99 181
61 98 180
62 99 181
62 99 181
62 99 181
62 99 181
61 99 181
61 98 180
62 99 180
62 99 181
61 99 181
61 98 180
62 99 181
62 99 181
61 98 180
61 99 179
62 99 181
62 99 180
62 99 181
62 99 178
62 99 181
61 98 178
61 98 177
62 99 179
62 99 179
62 99 180
61 98 178
61 98 176
62 99 180
62 98 177
62 98 177
61 96 173
61 98 177
61 97 174
61 98 175
62 99 175
61 97 175
61 97 174
61 97 168
76 108 167
129 152 115
158 178 55
161 179 25
156 172 25
161 175 40
154 166 43
151 164 38
143 149 51
150 157 54
148 153 61
142 144 57
142 139 75
140 137 68
131 128 67
143 138 79
131 126 73
137 132 74
127 124 74
132 128 79
146 142 86
128 125 75
143 140 84
133 130 81
126 124 81
126 123 75
140 137 87
127 125 80
135 132 85
135 132 88
130 130 83
134 132 88
131 131 86
135 132 85
142 140 91
141 140 94
132 130 89
151 149 100
147 144 96
138 137 93
144 142 97
141 139 95
137 135 93
142 140 93
145 143 97
141 139 93
154 151 101
142 142 97
141 140 96
155 153 103
156 153 104
157 155 104
148 147 101
151 149 100
160 157 105
153 151 102
152 150 101
157 155 104
155 153 103
153 152 102
160 158 106
159 156 104
157 154 103
160 157 106
162 159 107
157 154 102
162 159 108
162 159 106
165 163 109
166 163 108
164 161 109
165 163 109
167 164 109
161 159 106
171 167 109
163 161 107
168 165 108
164 162 108
172 169 111
169 165 110
169 165 106
170 167 111
171 167 111
173 169 113
171 168 111
173 169 111
174 170 112
169 165 108
173 170 113
172 168 110
173 169 110
170 166 108
174 170 112
173 169 110
176 171 113
176 171 110
173 169 110
172 168 109
171 166 109
172 168 109
174 169 109
175 170 111
172 168 106
173 170 112
174 169 112
177 171 110
173 169 108
174 169 109
168 164 108
171 166 108
167 163 106
166 162 104
173 168 108
170 166 106
171 165 106
167 162 105
169 165 105
175 169 109
170 165 105
170 165 102
166 162 106
171 167 108
164 158 97
174 168 108
171 166 106
170 165 104
168 162 103
163 158 100
167 161 101
164 159 98
166 160 101
166 162 102
165 160 98
169 163 106
163 157 94
169 163 101
166 160 99
164 159 96
153 149 90
169 163 102
173 167 103
163 156 96
158 153 87
152 146 89
163 156 95
159 154 90
156 150 86
158 152 90
161 154 93
154 149 86
159 152 88
154 148 86
149 143 84
142 137 79
155 147 83
151 145 79
138 133 72
149 144 81
142 138 71
140 139 64
144 144 63
151 157 62
148 157 56
163 175 52
161 176 41
165 181 39
165 183 28
169 189 25
168 188 19
172 195 0
173 196 0
175 198 0
175 198 0
173 197 0
175 198 0
172 197 0
175 198 0
173 197 0
174 197 0
174 197 0
175 198 0
172 196 0
174 197 0
172 196 0
174 198 0
173 196 0
173 197 0
173 196 0
171 195 0
172 195 0
172 197 0
173 196 0
173 197 0
174 196 0
174 198 0
173 196 0
174 198 0
174 198 0
172 195 0
173 196 0
172 196 0
173 196 0
173 196 0
171 195 0
174 197 0
175 198 0
170 194 0
174 197 0
172 195 0
174 197 0
172 196 0
169 193 0
175 198 0
174 198 0
173 196 0
174 198 0
171 195 0
174 197 0
174 197 0
174 197 0
172 196 0
173 196 0
172 195 0
175 197 0
173 195 0
175 198 0
172 195 0
172 196 0
172 196 0
173 197 0
172 195 0
174 198 0
173 196 0
172 195 0
173 196 0
172 196 0
173 196 0
172 195 0
171 195 0
174 198 0
171 195 0
174 197 0
172 195 0
174 198 0
173 197 0
173 196 0
174 197 0
170 194 0
172 196 0
172 195 0
168 192 0
173 196 0
171 194 0
171 194 0
173 196 0
172 195 0
173 197 0
174 197 0
172 196 0
172 195 0
172 195 0
174 197 0
173 197 0
172 195 0
173 196 0
175 197 0
173 197 0
171 195 0
171 195 0
174 197 0
173 197 0
170 194 0
172 197 0
173 196 0
171 195 0
171 195 0
173 197 0
173 196 0
171 194 0
173 196 0
170 194 0
174 196 0
174 197 0
172 195 0
170 193 0
172 195 0
172 195 0
173 197 0
171 194 18
146 169 100
80 111 168
63 100 178
62 99 174
63 100 177
63 99 176
62 99 180
62 99 178
62 99 177
62 99 175
62 99 176
63 100 181
62 99 178
62 99 179
62 99 179
62 99 181
61 98 178
62 99 179
61 99 181
61 99 181
62 99 178
61 99 181
61 99 180
62 99 180
62 99 181
62 99 180
62 99 181
61 99 180
62 99 180
62 99 180
61 99 181
61 98 181
62 99 181
62 99 181
62 99 181
61 99 181
62 99 181
62 99 181
62 99 181
61 99 181
62 99 181
61 98 181
62 99 181
61 99 181
61 99 181
62 99 181
62 99 181
62 99 181
62 99 181
61 98 181
62 99 181
62 99 181
62 99 181
61 98 180
61 99 181
61 98 181
61 99 181
61 99 181
62 99 181
62 99 181
61 99 181
62 99 181
62 99 181
61 99 181
61 98 181
62 99 180
61 98 181
61 99 181
62 99 180
61 98 181
61 99 181
61 98 181
61 99 181
62 99 181
62 99 181
61 99 181
62 99 181
62 99 180
61 99 181
62 99 180
61 98 181
61 99 180
62 99 179
61 99 181
61 98 180
62 99 180
61 99 180
62 99 180
62 99 180
62 99 180
61 98 180
61 98 179
62 99 178
61 98 176
62 99 180
62 99 178
62 99 180
62 98 176
62 99 178
62 99 177
62 99 179
62 99 179
62 98 177
62 98 175
61 97 174
62 98 176
61 97 175
61 98 174
61 97 174
63 99 177
62 98 175
61 98 176
64 99 170
106 128 133
151 169 85
162 179 42
160 173 42
159 172 42
152 164 42
149 158 51
147 155 52
150 153 69
138 141 58
131 130 65
137 134 69
134 130 73
132 127 68
130 126 76
143 138 80
134 130 75
141 136 77
135 130 78
153 148 92
125 123 82
141 137 85
140 137 87
138 135 90
147 144 93
140 137 92
133 131 84
137 134 90
133 132 87
132 130 87
135 133 87
126 126 86
136 134 89
142 141 94
151 148 99
149 146 98
145 143 97
143 141 94
151 148 101
150 147 98
148 145 99
141 140 95
144 143 98
143 142 97
140 139 95
151 149 101
140 140 97
153 151 103
145 143 98
144 142 96
146 146 100
151 148 100
161 157 103
151 148 100
153 151 102
159 157 104
158 156 104
154 152 102
160 157 105
156 154 103
156 154 105
160 157 106
161 159 107
166 162 108
158 155 104
165 162 106
160 157 105
164 161 106
166 164 108
166 163 110
170 166 111
166 163 108
165 163 108
165 162 108
167 165 110
165 162 108
165 162 106
170 167 110
168 165 107
173 169 110
172 168 110
168 165 109
168 165 110
170 167 110
169 166 110
170 165 107
175 170 113
173 169 111
173 169 110
175 170 111
169 165 108
172 168 109
172 167 109
175 171 111
173 168 109
175 170 110
171 166 106
173 169 109
169 165 107
174 169 108
173 169 110
170 166 107
176 171 110
175 170 111
176 170 110
170 166 105
174 170 110
173 168 108
173 169 109
172 167 108
175 169 108
175 169 108
175 169 107
170 166 108
173 168 106
174 169 109
173 167 105
171 165 106
169 165 106
164 160 100
171 166 108
168 164 103
162 158 97
160 156 97
159 155 96
168 163 103
167 162 103
165 160 100
173 167 106
169 163 100
170 163 102
168 162 103
169 164 101
166 162 99
169 163 103
164 159 97
161 156 97
156 151 92
158 155 96
162 157 93
155 150 92
158 152 90
160 154 93
160 154 90
158 152 90
160 153 90
153 148 85
152 146 90
154 149 87
161 154 87
157 150 88
144 138 81
154 148 84
140 136 73
151 145 83
141 136 70
142 136 74
140 137 68
154 155 69
153 156 61
148 154 59
157 166 52
158 172 44
165 180 37
163 182 28
171 191 28
166 188 0
172 193 11
173 196 0
174 197 0
173 196 0
174 197 0
174 197 0
174 197 0
174 197 0
173 197 0
170 194 0
172 195 0
174 197 0
172 195 0
175 198 0
174 197 0
174 197 0
174 197 0
172 196 0
174 197 0
173 196 0
175 198 0
171 195 0
174 197 0
173 197 0
173 196 0
172 196 0
173 196 0
171 195 0
172 194 0
173 196 0
172 196 0
173 197 0
174 197 0
172 195 0
171 194 0
172 196 0
174 197 0
172 196 0
173 196 0
172 196 0
173 197 0
173 197 0
174 197 0
172 195 0
174 197 0
175 198 0
173 197 0
175 198 0
173 197 0
171 195 0
174 197 0
175 198 0
174 198 0
173 197 0
173 197 0
172 196 0
174 197 0
174 197 0
173 196 0
171 195 0
172 196 0
172 195 0
175 198 0
170 193 0
174 198 0
174 197 0
174 197 0
172 197 0
169 193 0
173 197 0
172 196 0
172 196 0
174 198 0
173 197 0
172 196 0
173 196 0
175 198 0
171 195 0
169 193 0
173 196 0
173 196 0
172 196 0
171 196 0
175 198 0
170 194 0
171 194 0
174 198 0
172 195 0
173 197 0
175 198 0
172 196 0
173 196 0
173 197 0
173 196 0
173 196 0
172 195 0
171 195 0
171 194 0
173 196 0
173 197 0
173 196 0
173 197 0
174 197 0
173 196 0
170 194 0
171 194 0
173 196 0
173 195 0
172 195 0
172 196 0
174 197 0
172 196 0
172 195 0
172 196 0
172 195 0
172 196 0
172 195 0
168 191 0
169 192 18
120 146 137
72 107 175
62 99 178
62 99 173
62 99 175
61 98 173
62 98 175
63 100 180
62 99 177
61 98 175
62 99 178
62 99 179
62 99 179
62 99 177
62 99 178
62 99 179
62 99 181
62 99 178
62 99 177
62 99 180
61 99 181
62 99 180
61 99 178
62 99 181
62 99 180
62 99 181
62 99 181
62 99 181
61 98 180
62 99 181
61 99 181
62 99 178
62 99 181
62 99 181
61 99 180
61 99 181
61 99 181
61 99 180
62 99 181
61 99 181
61 99 181
62 99 181
61 99 181
62 99 181
61 98 181
62 99 181
61 99 181
61 99 181
62 99 181
62 99 181
61 98 181
62 99 181
61 99 181
62 99 181
61 98 181
62 99 181
62 99 181
61 99 181
62 99 181
61 99 181
61 99 181
61 99 181
61 99 181
61 99 181
61 98 181
62 99 181
62 99 181
62 99 180
62 99 181
62 99 181
61 98 180
61 99 181
62 99 181
61 98 181
62 99 181
62 99 181
62 99 181
62 99 180
62 99 181
61 99 180
61 98 180
62 99 181
62 99 181
61 99 179
62 99 179
61 99 180
61 98 178
61 98 178
61 98 181
62 99 180
63 99 180
62 99 181
62 99 180
62 99 179
61 99 181
62 99 179
62 99 177
62 99 180
60 98 179
62 99 181
62 99 178
61 97 175
62 99 179
62 99 181
61 97 172
62 98 175
62 99 178
61 98 178
61 97 173
60 97 172
62 98 175
61 98 174
61 98 174
62 97 169
61 96 168
97 121 140
150 166 74
162 177 56
156 169 45
151 159 49
145 156 45
146 154 49
140 144 61
138 140 66
135 136 60
142 138 74
135 132 71
141 135 74
136 131 79
132 128 73
136 132 80
122 120 70
140 136 82
128 126 78
130 126 79
127 125 76
128 125 79
132 131 84
137 134 85
130 128 84
142 138 87
137 135 88
135 133 89
143 140 91
140 138 92
139 137 91
141 138 90
142 139 91
138 136 90
142 141 94
145 144 98
142 141 96
141 139 94
141 139 94
149 147 98
144 142 96
150 148 99
148 146 100
148 147 100
143 141 96
149 147 98
150 149 103
151 149 100
141 141 97
151 148 100
151 149 101
161 159 107
151 150 101
158 155 103
156 154 105
159 156 104
160 157 106
157 154 104
156 154 104
163 160 107
157 155 105
158 156 106
156 153 102
165 162 106
162 159 105
170 166 110
165 162 109
161 160 108
166 163 108
167 164 108
165 162 107
169 166 111
161 158 105
170 167 110
167 164 107
167 163 108
172 168 111
168 165 108
171 167 111
170 166 107
172 167 108
175 170 111
176 171 113
173 169 110
173 168 109
174 170 109
172 168 111
174 170 110
171 167 107
172 168 108
176 171 111
175 171 109
174 170 111
172 168 110
172 167 108
175 170 109
172 168 105
174 169 109
172 167 108
172 168 109
173 169 108
176 170 110
171 167 109
175 170 109
172 166 106
173 169 110
170 166 105
172 167 106
175 170 110
172 167 108
169 165 106
169 166 104
170 166 105
173 167 107
168 163 105
170 166 107
171 167 107
176 171 110
172 166 104
167 162 100
172 167 105
169 164 106
173 168 107
168 163 104
174 167 104
165 160 101
167 161 104
171 166 105
168 162 102
170 164 104
163 158 99
162 156 93
165 160 99
165 158 98
158 153 92
161 155 93
159 153 93
157 151 93
159 154 94
161 156 93
161 156 92
160 155 91
156 150 87
157 149 89
162 155 93
149 143 83
154 148 84
156 151 87
149 143 79
152 146 84
156 150 80
142 136 75
148 141 76
153 147 80
150 143 84
143 138 77
148 144 74
144 145 70
148 153 57
157 158 60
160 169 56
154 166 36
162 178 32
166 182 39
168 188 25
167 189 16
170 192 11
173 197 0
173 195 0
174 197 0
174 197 0
173 196 0
172 196 0
175 198 0
173 196 0
173 197 0
174 197 0
173 196 0
171 195 0
174 197 0
174 196 0
173 197 0
171 194 0
175 198 0
173 196 0
174 197 0
173 197 0
173 197 0
171 195 0
174 197 0
174 197 0
172 196 0
171 195 0
172 196 0
175 198 0
174 198 0
172 196 0
175 198 0
173 196 0
172 195 0
173 196 0
173 197 0
176 198 0
173 196 0
174 197 0
173 197 0
172 196 0
172 196 0
174 198 0
173 197 0
173 196 0
174 196 0
173 196 0
175 198 0
173 196 0
173 197 0
172 195 0
174 197 0
172 196 0
172 196 0
171 195 0
173 196 0
173 196 0
173 197 0
173 197 0
172 196 0
173 196 0
172 195 0
175 198 0
174 197 0
171 194 0
174 197 0
172 195 0
173 197 0
173 197 0
175 198 0
174 198 0
173 197 0
171 195 0
174 197 0
171 194 0
173 197 0
174 197 0
172 196 0
172 195 0
173 196 0
172 194 0
171 196 0
173 195 0
175 198 0
172 195 0
173 196 0
171 196 0
174 198 0
173 196 0
171 196 0
172 195 0
172 195 0
170 193 0
171 194 0
172 196 0
174 197 0
174 197 0
174 197 0
169 193 0
171 194 0
172 196 0
174 196 0
172 195 0
171 196 0
171 195 0
167 191 0
172 196 0
169 193 0
171 194 0
169 192 0
173 196 0
172 195 0
170 195 0
174 197 0
170 195 0
170 193 0
175 197 0
170 193 44
120 147 133
62 99 175
62 99 172
63 99 178
63 100 175
62 99 179
62 99 179
62 99 177
62 99 175
62 99 179
63 100 180
62 99 180
62 99 181
62 99 179
61 98 180
62 99 180
62 99 180
62 99 178
62 99 180
62 99 180
62 99 181
61 99 178
61 99 180
62 99 181
62 99 180
61 98 179
62 99 179
61 98 181
62 99 181
62 99 181
62 99 181
62 99 181
62 99 180
61 99 181
61 98 181
62 99 181
61 99 181
61 99 181
62 99 181
62 99 181
62 99 180
61 99 181
61 99 181
61 99 181
62 99 181
61 98 181
62 99 181
62 99 181
61 99 181
61 98 181
62 99 181
61 99 181
61 99 181
62 99 181
61 99 181
62 99 180
62 99 181
62 99 181
62 99 181
61 99 181
62 99 181
61 98 181
61 99 181
62 99 181
62 99 181
61 99 181
61 98 181
61 98 179
62 99 181
62 99 180
61 99 181
62 99 180
61 99 181
61 99 181
62 99 181
62 99 179
61 98 180
62 99 181
61 99 181
61 99 181
62 99 180
62 99 181
62 99 180
62 99 181
63 100 181
61 98 179
61 98 179
61 98 180
61 99 181
61 98 178
62 99 181
62 99 180
61 98 179
61 99 180
62 99 180
61 98 176
61 98 180
61 98 175
61 98 178
62 99 177
62 99 180
62 99 179
62 98 177
61 98 176
61 98 179
62 99 178
61 97 175
61 98 177
62 99 176
61 97 169
62 99 175
62 98 173
61 98 176
61 97 174
61 97 172
60 96 173
62 97 174
79 107 159
146 161 98
147 161 56
151 162 45
137 143 48
140 145 58
138 140 66
138 140 60
128 129 62
141 138 73
124 121 67
129 126 73
141 137 81
131 127 70
130 127 75
137 133 77
127 126 75
115 113 73
141 137 84
126 124 77
133 131 87
129 128 83
118 118 79
140 137 88
136 134 88
132 130 85
124 122 80
136 135 89
128 127 86
136 134 91
144 141 93
137 135 89
130 130 90
132 131 87
146 144 96
132 132 89
128 128 88
148 146 99
139 137 93
144 141 94
146 144 97
145 143 97
135 134 92
139 138 95
143 142 96
147 145 97
143 141 95
151 149 102
154 152 101
151 149 100
146 146 101
156 153 104
158 156 104
152 150 103
159 156 105
154 152 102
153 152 103
161 158 104
164 161 108
159 156 104
164 161 108
153 151 101
161 159 107
164 161 107
162 159 107
164 162 108
162 159 105
166 163 108
165 161 107
162 161 108
169 166 110
172 168 110
169 165 109
168 165 109
164 161 106
170 167 110
173 168 110
174 169 109
171 166 108
168 164 107
170 167 107
173 168 110
171 167 109
173 169 111
173 169 110
174 170 111
173 169 111
174 171 113
174 169 108
174 171 112
169 164 108
176 171 110
172 168 108
172 168 107
173 169 110
173 170 111
174 169 109
175 170 109
172 167 107
176 170 108
176 170 109
175 170 110
171 167 108
168 165 106
171 166 106
172 167 108
172 167 106
168 164 104
173 168 109
170 165 102
166 162 103
172 168 106
170 165 103
170 166 108
175 168 108
169 165 106
173 167 106
173 167 107
171 167 106
169 165 103
171 166 107
172 167 106
167 161 101
164 159 101
166 160 99
168 163 103
167 162 102
166 161 99
165 161 96
169 163 101
165 159 98
165 159 99
167 161 99
158 153 90
168 162 99
161 156 91
158 153 92
163 157 93
156 150 88
164 160 97
160 154 91
148 144 83
155 147 90
160 154 90
154 148 87
150 144 82
145 140 78
157 151 87
159 152 85
153 147 79
156 150 81
158 151 88
154 148 83
130 126 68
146 139 73
141 137 71
138 137 65
146 151 58
146 152 56
151 158 49
157 173 37
160 173 36
166 183 37
159 178 25
168 188 16
173 196 16
171 192 0
173 195 0
174 197 0
174 197 0
173 197 0
171 195 0
174 198 0
171 194 0
171 195 0
173 197 0
175 197 0
173 196 0
174 198 0
172 196 0
173 197 0
172 196 0
174 196 0
175 198 0
173 196 0
173 197 0
173 196 0
173 196 0
174 198 0
174 197 0
174 197 0
173 197 0
173 196 0
173 196 0
172 196 0
173 196 0
173 196 0
171 195 0
174 197 0
174 197 0
172 195 0
172 195 0
172 195 0
172 196 0
173 197 0
171 195 0
170 193 0
174 197 0
173 196 0
170 194 0
172 195 0
173 196 0
173 196 0
173 197 0
173 197 0
173 197 0
173 197 0
174 196 0
173 197 0
175 197 0
172 196 0
169 192 0
172 196 0
171 195 0
173 196 0
173 197 0
173 196 0
173 197 0
173 196 0
173 195 0
174 196 0
173 197 0
171 194 0
171 195 0
170 194 0
173 197 0
172 196 0
171 195 0
169 193 0
172 195 0
169 193 0
172 196 0
172 196 0
170 194 0
174 197 0
175 197 0
172 194 0
175 198 0
169 193 0
171 195 0
174 197 0
171 194 0
172 196 0
170 194 0
173 196 0
171 195 0
173 196 0
171 195 0
171 194 0
173 197 0
172 195 0
172 196 0
174 197 0
174 197 0
171 193 0
173 196 0
173 196 0
172 196 0
174 197 0
171 194 0
170 194 0
172 195 0
172 195 0
172 196 0
169 193 0
173 196 0
172 195 0
172 196 0
170 194 0
170 195 0
173 196 0
162 185 54
97 125 152
62 99 169
63 99 176
62 99 176
62 98 172
62 99 179
62 99 177
62 99 175
63 99 179
63 99 179
62 99 177
61 99 181
62 99 175
63 100 181
62 99 181
62 99 178
61 99 180
62 99 180
62 99 181
62 99 181
61 99 179
62 99 180
62 99 181
62 99 180
62 99 181
61 99 181
62 99 180
62 99 181
62 99 180
62 99 181
62 99 181
62 99 180
62 99 181
62 99 181
61 99 181
62 99 181
61 99 180
62 99 181
61 99 181
62 99 180
61 99 181
62 99 181
62 99 180
61 98 181
62 99 181
61 99 181
62 99 181
62 99 181
62 99 180
61 99 181
61 99 181
62 99 181
62 99 181
61 98 180
62 99 181
61 99 180
62 99 181
62 99 180
61 98 180
61 99 181
61 99 181
62 99 181
61 98 181
61 98 180
62 99 181
62 99 181
61 98 181
61 99 181
62 99 181
62 99 181
61 98 180
62 99 181
62 99 180
61 98 180
62 99 181
62 99 180
62 99 180
62 99 181
61 98 179
62 99 179
61 98 179
62 99 179
61 99 181
62 99 181
62 99 181
62 99 180
62 99 181
62 99 180
62 99 180
62 99 181
62 99 181
62 99 181
62 99 181
61 98 180
62 99 180
62 99 181
62 99 181
61 98 177
62 99 181
62 99 178
62 99 178
62 99 178
62 99 179
62 99 180
62 99 180
61 98 175
62 99 177
62 98 176
62 99 179
62 99 176
62 99 178
61 97 174
62 99 178
62 98 172
61 97 172
61 97 172
61 97 176
61 96 170
62 97 170
82 108 155
127 139 107
151 156 69
147 153 58
141 144 55
134 137 53
137 138 55
143 140 76
135 130 67
123 120 65
141 136 75
120 116 72
138 135 80
124 123 74
135 132 80
134 131 82
138 134 84
134 131 79
135 131 80
134 132 81
126 125 81
122 121 79
126 124 79
134 132 88
129 127 85
135 134 89
135 133 89
137 135 87
137 135 90
139 138 95
133 133 92
125 125 88
133 133 91
137 136 94
130 131 90
141 138 93
132 132 91
151 148 99
138 137 93
138 137 94
147 145 97
146 145 99
139 140 96
149 148 101
138 138 95
141 141 97
156 154 104
152 150 101
152 150 99
155 154 106
148 145 98
148 147 100
159 156 104
145 144 97
155 153 103
159 156 104
158 155 103
161 157 104
164 161 107
165 162 106
157 154 103
158 156 105
158 156 103
161 158 106
164 161 107
168 163 105
169 165 109
169 165 108
167 164 108
168 165 109
170 167 110
164 161 107
168 164 109
171 167 108
166 164 109
167 164 108
174 169 111
175 169 110
172 168 109
174 169 110
172 168 108
171 167 109
173 169 108
171 167 108
175 171 110
176 171 110
178 172 112
173 169 109
173 169 110
173 169 109
175 171 111
170 166 108
175 170 111
176 171 109
174 169 106
174 169 109
173 169 107
175 170 108
171 167 108
176 170 110
171 167 106
175 170 110
171 166 104
176 170 109
174 168 107
171 166 104
178 171 107
175 170 109
171 166 106
172 167 106
173 168 108
176 171 109
172 167 104
169 164 106
173 168 108
173 168 106
167 162 99
169 164 104
169 164 101
174 169 106
170 164 103
172 166 105
168 163 100
170 164 103
168 163 102
163 158 98
168 162 99
168 163 103
168 162 99
173 166 102
163 157 94
165 159 97
166 161 100
163 158 95
161 156 92
164 159 95
155 149 87
160 155 90
164 157 95
169 161 98
161 155 95
157 152 90
154 149 90
156 150 89
157 151 85
147 143 84
150 146 85
165 159 95
144 139 78
152 145 85
146 140 79
150 145 79
157 150 83
151 145 80
144 139 68
138 136 62
147 149 64
156 155 67
140 148 45
156 165 49
157 170 41
158 173 36
165 183 28
169 188 25
173 195 11
172 195 11
173 196 0
174 197 0
173 197 0
175 197 0
174 197 0
174 197 0
172 195 0
173 197 0
173 197 0
172 196 0
173 196 0
175 198 0
173 196 0
175 198 0
174 197 0
175 198 0
172 196 0
173 197 0
174 197 0
172 196 0
175 198 0
172 195 0
175 198 0
173 196 0
172 196 0
171 196 0
173 196 0
172 196 0
174 197 0
174 197 0
171 195 0
172 196 0
172 196 0
174 197 0
172 195 0
175 198 0
172 196 0
170 194 0
173 196 0
172 196 0
172 196 0
169 192 0
173 196 0
174 197 0
174 197 0
173 196 0
172 196 0
174 197 0
174 197 0
172 195 0
171 195 0
173 196 0
171 195 0
174 197 0
173 197 0
171 195 0
174 197 0
172 195 0
174 197 0
172 195 0
173 196 0
174 196 0
175 197 0
172 196 0
173 196 0
173 197 0
170 194 0
172 196 0
174 197 0
175 198 0
173 196 0
174 198 0
175 198 0
174 197 0
175 198 0
170 194 0
173 196 0
171 193 0
176 199 0
174 198 0
173 197 0
174 198 0
172 194 0
170 193 0
172 196 0
171 195 0
171 194 0
173 196 0
172 196 0
169 193 0
171 195 0
174 197 0
172 195 0
171 195 0
170 194 0
173 196 0
173 196 0
171 194 0
173 197 0
173 196 0
172 194 0
171 195 0
170 194 0
172 196 0
172 195 0
172 196 0
171 196 0
175 198 0
172 196 0
173 196 0
171 194 0
174 197 0
171 194 0
167 190 47
89 119 159
62 98 169
61 98 172
62 99 176
62 99 175
62 99 177
62 99 175
62 99 175
62 99 180
63 100 180
62 99 178
62 99 180
62 99 179
62 99 179
62 99 177
62 99 180
62 99 178
62 99 180
62 99 180
62 99 179
62 99 181
63 100 179
62 99 178
61 98 181
62 99 181
62 99 181
62 99 180
61 98 179
63 100 181
62 99 181
62 99 179
61 98 178
62 99 180
61 99 180
62 99 181
61 99 181
62 99 180
62 99 181
62 99 179
61 99 181
61 99 181
62 99 180
62 99 181
61 98 181
62 99 180
62 99 181
62 99 181
62 99 181
61 99 181
62 99 181
61 98 181
62 99 181
61 99 180
62 99 180
61 99 181
62 99 180
62 99 181
62 99 181
61 99 181
62 99 181
62 99 181
61 99 180
61 99 181
62 99 181
61 98 181
62 99 181
61 99 181
61 98 181
61 99 181
62 99 181
62 99 180
61 99 181
62 99 181
61 98 180
61 99 181
62 99 180
61 99 181
61 98 179
62 99 181
61 99 180
62 99 181
62 99 180
61 99 180
62 99 181
62 99 180
62 99 180
62 99 180
62 99 180
61 99 180
62 99 181
62 99 180
62 99 181
62 99 179
62 99 177
62 99 180
62 99 181
61 98 178
62 99 179
62 99 180
62 99 180
62 99 181
61 98 178
61 98 178
62 99 179
61 99 178
61 98 175
62 99 180
62 99 175
62 99 181
61 98 178
62 98 177
62 98 177
62 98 176
61 97 173
61 97 172
61 97 171
62 98 175
60 96 171
62 99 176
63 99 177
61 97 171
74 102 159
111 126 120
139 148 76
138 144 45
130 135 56
136 135 65
141 136 72
129 128 73
135 131 73
127 124 70
133 130 75
131 127 76
144 139 84
128 124 74
137 134 81
135 132 84
128 126 81
125 124 79
119 119 77
128 127 82
133 131 84
126 126 83
128 127 85
131 130 87
133 132 85
131 131 88
130 129 85
132 131 89
126 126 87
133 132 92
136 134 90
137 136 93
151 148 99
147 145 97
126 127 90
133 133 92
135 135 94
144 143 100
134 133 91
140 140 96
142 141 96
147 145 99
153 151 101
141 140 97
150 148 100
154 153 104
145 144 99
146 145 99
154 151 102
151 150 101
154 151 101
149 147 100
155 154 104
155 152 102
157 155 105
153 151 103
157 156 105
163 160 106
159 156 105
154 152 102
158 156 104
158 155 103
162 159 103
168 165 110
165 162 106
163 160 106
169 165 108
169 165 109
170 166 109
167 164 109
168 164 106
163 160 106
170 166 107
170 166 108
172 168 109
169 165 107
172 168 110
170 167 107
170 166 108
169 167 110
168 165 108
173 168 110
171 167 109
174 170 108
175 170 109
172 168 108
172 168 107
175 171 110
173 168 109
174 169 108
169 166 107
175 170 110
173 168 109
172 168 106
173 168 109
173 169 109
175 170 109
172 168 108
177 172 111
176 171 109
175 170 109
173 167 106
171 166 106
175 170 107
177 171 109
168 163 103
176 171 108
171 166 108
173 168 103
177 171 109
176 170 108
172 167 106
168 164 104
174 168 107
169 164 102
172 167 106
169 164 106
170 164 102
170 165 106
165 160 101
173 166 105
164 158 99
174 168 104
171 167 107
169 164 100
172 166 106
168 163 101
165 160 99
170 165 101
158 153 93
165 160 99
163 157 97
158 152 90
164 158 97
163 157 93
156 150 88
164 159 95
161 155 90
168 162 101
159 154 90
156 152 88
158 153 93
159 152 87
154 149 89
152 147 84
140 135 77
151 145 85
157 151 86
152 146 80
158 152 84
151 144 77
131 126 68
144 138 73
146 141 71
147 145 66
148 148 68
139 144 51
157 163 53
154 164 48
160 173 37
161 175 42
168 186 36
167 187 22
167 190 11
173 195 0
174 196 11
173 197 0
174 198 0
174 196 0
172 195 0
174 197 0
172 196 0
174 197 0
172 195 0
173 197 0
173 196 0
171 195 0
170 194 0
173 196 0
173 197 0
172 196 0
174 197 0
172 197 0
174 197 0
173 196 0
170 192 0
173 196 0
176 198 0
173 196 0
172 196 0
173 197 0
172 196 0
175 198 0
174 197 0
172 196 0
171 195 0
174 196 0
174 197 0
172 195 0
173 196 0
171 195 0
174 197 0
173 196 0
174 196 0
173 197 0
173 195 0
172 195 0
173 196 0
174 197 0
171 195 0
174 197 0
174 196 0
173 197 0
173 195 0
172 196 0
171 195 0
173 197 0
174 197 0
172 195 0
175 198 0
173 197 0
171 195 0
174 197 0
173 196 0
174 197 0
175 197 0
175 198 0
171 194 0
172 195 0
173 196 0
171 194 0
173 196 0
174 197 0
172 196 0
172 196 0
173 196 0
171 195 0
175 197 0
175 198 0
172 196 0
173 196 0
171 194 0
172 195 0
172 196 0
172 196 0
169 193 0
171 195 0
172 195 0
169 192 0
171 194 0
173 196 0
171 194 0
172 195 0
174 198 0
172 196 0
175 197 0
172 195 0
173 196 0
173 195 0
175 198 0
172 195 0
174 197 0
173 196 0
168 192 0
172 196 0
173 196 0
174 197 0
172 195 0
172 195 0
170 194 0
171 195 0
169 191 0
172 195 0
172 195 0
171 194 0
174 197 0
172 196 0
156 180 76
97 126 155
62 99 172
62 99 177
62 99 176
61 99 177
62 99 176
62 99 176
62 99 178
62 99 179
62 99 178
62 99 175
62 99 178
62 99 180
62 99 176
62 99 177
62 99 179
62 99 178
62 99 180
62 99 180
61 98 177
62 99 179
63 100 181
61 99 181
62 99 180
62 99 179
62 99 180
62 99 180
61 99 181
62 99 181
62 99 179
62 99 181
61 99 180
62 99 181
62 99 181
61 98 181
62 99 180
62 99 181
62 99 181
62 99 180
62 99 180
61 99 181
62 99 181
61 98 180
62 99 179
62 99 181
61 98 181
61 99 181
61 99 181
62 99 181
62 99 180
62 99 181
61 98 180
61 99 180
62 99 181
62 99 181
63 100 181
62 99 181
62 99 180
62 99 181
61 99 181
61 99 181
61 98 180
62 99 181
62 99 180
63 100 181
62 99 181
62 99 181
62 99 181
62 99 181
62 99 180
62 99 181
61 99 181
61 98 180
62 99 180
62 99 181
62 99 181
62 99 181
62 99 181
62 99 181
61 99 180
62 99 180
62 99 180
62 99 179
62 99 180
62 99 179
62 99 181
62 99 180
62 99 180
61 99 180
62 99 180
61 99 181
62 99 179
62 99 179
62 99 180
62 99 179
62 99 180
61 98 180
62 99 179
62 99 179
62 99 180
62 99 179
62 99 180
62 99 178
62 99 179
61 98 178
61 98 178
61 98 176
62 99 178
62 99 174
62 99 176
61 98 177
61 98 173
62 99 176
61 98 176
61 98 175
62 98 175
62 98 175
61 96 170
62 98 173
61 97 171
62 97 171
62 97 168
62 97 173
70 100 167
117 129 121
139 143 64
127 131 55
137 138 65
125 123 66
129 126 70
130 126 74
131 126 72
143 137 78
140 135 82
125 123 72
134 130 83
120 118 72
131 129 82
132 129 81
130 126 80
130 127 81
125 124 81
128 126 83
129 127 86
126 125 81
129 127 82
134 132 87
126 125 85
117 119 81
137 135 90
126 126 86
132 131 87
134 133 89
135 134 89
136 134 92
131 130 90
137 137 92
131 132 92
135 135 93
140 139 94
141 141 97
149 147 101
139 137 92
143 141 95
143 142 96
139 139 96
146 143 97
148 148 102
152 150 101
141 140 97
146 144 98
156 154 103
152 149 100
152 151 102
148 147 98
154 151 102
156 154 104
161 158 104
150 149 99
159 156 103
159 157 104
164 160 104
165 162 105
158 156 105
161 158 105
165 161 107
169 165 108
163 160 105
160 158 105
165 162 106
166 163 107
166 163 107
164 161 105
170 165 107
170 166 107
165 162 106
168 165 108
171 167 109
170 166 108
170 166 110
170 166 108
173 168 109
169 165 106
170 166 108
172 168 108
171 168 109
173 169 109
172 168 108
171 169 109
176 171 110
174 169 108
174 169 109
172 168 108
172 168 108
172 168 107
169 165 105
176 170 108
176 171 110
167 163 104
177 171 109
169 166 105
173 170 111
169 165 107
167 164 103
172 168 108
175 169 109
177 171 108
174 169 108
172 166 104
170 165 103
170 166 104
176 170 107
168 163 103
169 164 105
172 168 106
168 164 104
177 170 106
171 165 102
173 167 106
167 162 102
169 165 106
168 163 101
164 159 99
163 158 99
170 164 102
169 163 103
164 160 96
165 160 97
170 165 100
165 159 95
161 156 93
167 162 100
162 158 97
167 161 99
162 157 94
165 159 97
162 155 91
158 153 90
164 157 93
163 157 93
160 156 95
162 155 95
154 149 88
147 142 82
148 142 84
150 144 81
154 148 86
158 151 90
152 146 83
150 145 83
147 141 83
144 138 77
154 148 83
147 141 74
151 146 77
142 137 75
150 148 72
140 140 63
144 147 59
140 146 47
148 156 52
160 175 42
161 177 39
161 179 30
165 186 16
169 189 0
172 195 0
173 196 0
174 197 0
174 197 0
174 198 0
174 196 0
174 197 0
173 196 0
173 197 0
173 196 0
175 198 0
175 198 0
173 196 0
173 197 0
174 197 0
173 196 0
171 195 0
173 196 0
176 199 0
171 194 0
171 195 0
173 197 0
174 197 0
170 194 0
174 197 0
173 197 0
175 198 0
173 196 0
173 197 0
170 193 0
175 198 0
174 197 0
173 197 0
171 195 0
171 195 0
171 195 0
173 196 0
170 193 0
173 196 0
174 197 0
174 197 0
170 194 0
174 197 0
171 195 0
172 195 0
171 195 0
174 198 0
172 196 0
172 194 0
172 196 0
171 195 0
172 196 0
172 196 0
173 195 0
172 196 0
173 196 0
175 198 0
172 196 0
172 195 0
171 194 0
173 196 0
174 197 0
173 196 0
174 197 0
174 197 0
173 196 0
173 196 0
173 196 0
173 197 0
172 196 0
173 197 0
172 195 0
173 196 0
171 195 0
172 195 0
168 191 0
172 194 0
172 196 0
171 194 0
174 197 0
172 196 0
173 196 0
171 195 0
171 195 0
172 196 0
172 196 0
173 197 0
171 194 0
171 195 0
172 196 0
175 198 0
173 195 0
171 195 0
176 198 0
173 197 0
173 197 0
173 197 0
168 192 0
170 194 0
174 197 0
169 192 0
172 195 0
171 195 0
172 195 0
173 196 0
168 191 0
173 197 0
174 197 0
170 193 0
173 196 0
172 195 0
171 194 18
151 175 84
79 111 168
62 99 174
63 99 175
62 99 176
62 99 177
62 99 176
63 100 181
62 99 177
62 99 175
62 99 178
62 99 179
62 99 178
62 99 175
61 98 173
62 99 177
62 99 176
62 99 176
62 99 179
62 99 180
62 99 179
62 99 178
62 99 176
62 99 180
62 99 179
62 99 181
63 100 180
61 99 179
62 99 179
62 99 180
62 99 181
62 99 180
62 99 181
62 99 181
61 98 181
61 99 180
62 99 180
62 99 180
61 98 179
62 99 181
62 99 179
62 99 180
62 99 181
61 99 181
61 99 181
61 99 181
62 99 180
61 99 181
62 99 181
62 99 181
62 99 181
61 99 180
62 99 181
62 99 181
62 99 180
62 99 180
61 99 180
62 99 181
62 99 181
62 99 181
61 99 179
61 98 181
61 99 180
62 99 181
61 99 181
62 99 179
62 99 181
62 99 181
61 99 181
62 99 181
62 99 181
62 99 181
62 99 181
62 99 181
62 99 180
63 100 181
62 99 181
62 99 180
62 99 181
62 99 181
62 99 180
62 99 181
61 99 180
62 99 181
61 98 180
62 99 176
61 99 179
63 100 181
62 99 181
62 99 180
62 99 181
62 98 178
62 99 179
62 99 181
61 98 178
62 99 179
61 98 178
62 99 178
62 99 180
62 99 178
62 99 178
62 99 179
61 98 176
62 99 176
62 99 180
61 99 178
63 99 180
61 98 177
62 99 179
61 98 176
61 98 177
61 98 174
62 99 177
62 99 177
62 98 174
61 98 177
62 99 175
62 98 176
62 97 171
62 98 175
61 97 171
62 97 169
61 98 174
61 97 170
61 96 172
60 96 168
63 96 165
107 118 126
129 130 69
139 140 64
148 146 76
142 138 77
136 131 75
133 131 75
142 138 81
115 112 67
120 118 73
128 125 78
120 117 72
129 126 78
131 129 78
128 126 79
116 116 76
117 117 79
123 122 78
133 131 87
120 119 82
133 130 85
121 120 80
130 130 89
132 130 87
122 122 83
125 125 83
133 133 90
128 128 87
130 130 91
138 138 93
141 140 94
142 141 98
131 131 90
142 140 95
143 142 97
138 136 92
138 137 95
140 139 95
140 139 97
148 146 98
147 146 100
146 145 99
143 142 96
143 142 98
139 139 96
148 146 98
141 140 94
148 146 100
151 149 101
150 149 102
154 152 101
149 147 100
161 159 107
154 152 103
147 147 101
161 158 106
160 156 102
158 155 101
164 162 107
161 158 105
165 161 106
162 160 103
162 159 103
163 160 105
167 164 109
165 163 108
166 163 106
173 168 109
168 165 108
172 167 109
167 164 107
164 161 106
166 163 105
168 165 105
169 166 107
167 164 106
169 165 107
170 165 105
169 165 104
168 165 105
171 168 107
170 167 108
174 170 109
173 169 108
172 168 108
174 170 108
177 172 112
174 169 108
176 171 109
175 170 109
177 171 107
175 169 108
175 171 110
176 171 108
174 170 110
172 168 106
171 167 108
173 168 108
171 167 106
172 167 107
173 168 106
173 168 106
170 165 104
173 168 106
173 168 108
173 168 106
173 168 106
170 165 104
165 161 102
175 168 107
166 161 100
173 166 104
169 164 102
171 166 104
170 165 103
176 169 106
173 166 103
173 167 102
167 161 97
172 166 103
164 159 97
167 161 100
170 164 101
164 158 98
168 162 97
165 160 97
164 158 99
167 161 96
164 158 93
167 160 98
167 161 95
161 154 89
165 159 95
167 160 94
164 158 91
165 159 93
155 150 87
155 150 86
155 149 87
164 158 97
150 146 84
154 149 89
153 148 81
153 147 86
141 137 74
151 145 80
162 155 87
151 144 81
147 141 73
151 144 80
145 140 77
146 143 72
140 137 65
142 142 63
156 163 59
152 164 36
154 167 37
157 172 37
167 184 32
164 183 25
170 190 16
172 194 11
173 197 0
174 197 0
173 197 0
174 197 0
171 194 0
175 197 0
174 197 0
175 198 0
173 197 0
174 198 0
172 196 0
174 197 0
170 194 0
175 198 0
173 197 0
175 198 0
175 198 0
174 198 0
174 197 0
173 197 0
172 196 0
174 197 0
172 196 0
173 197 0
175 198 0
172 196 0
174 197 0
173 197 0
171 194 0
172 195 0
173 196 0
173 196 0
172 195 0
172 196 0
173 197 0
176 198 0
170 193 0
174 197 0
174 197 0
173 196 0
171 195 0
172 195 0
173 196 0
174 197 0
172 195 0
172 196 0
174 197 0
172 196 0
175 198 0
171 195 0
173 196 0
172 195 0
173 197 0
171 195 0
174 197 0
173 197 0
173 196 0
174 198 0
174 197 0
173 197 0
175 198 0
174 198 0
172 196 0
172 196 0
173 197 0
172 195 0
172 195 0
170 194 0
171 195 0
172 196 0
174 197 0
172 196 0
171 194 0
172 195 0
171 195 0
173 196 0
173 197 0
170 195 0
172 196 0
171 195 0
171 196 0
173 195 0
172 195 0
174 197 0
171 195 0
173 196 0
174 197 0
174 197 0
172 195 0
171 195 0
173 196 0
172 195 0
170 193 0
172 195 0
170 193 0
172 195 0
173 196 0
171 195 0
174 197 0
174 198 0
172 195 0
172 196 0
174 197 0
173 196 0
173 196 0
173 196 0
172 196 0
174 196 0
171 194 0
170 194 0
156 179 78
76 109 169
62 98 174
62 99 176
62 99 173
63 100 177
62 99 175
62 99 177
62 99 175
62 99 179
62 99 174
62 99 176
62 99 176
62 99 175
62 99 176
62 99 177
62 99 177
62 99 176
61 98 174
61 98 178
61 98 175
62 99 181
62 99 179
62 99 181
62 99 181
62 99 180
61 98 177
61 98 179
62 99 181
62 99 180
62 99 181
62 99 180
62 99 180
62 99 181
61 99 180
62 99 181
61 99 179
62 99 180
61 99 179
62 99 180
62 99 178
62 99 181
62 99 181
61 99 181
62 99 180
62 99 180
61 99 181
61 99 181
61 98 181
61 99 180
62 99 181
62 99 181
61 99 180
61 99 180
62 99 180
62 99 180
62 99 181
62 99 181
61 98 179
62 99 180
61 98 181
62 99 180
62 99 181
62 99 181
62 99 180
62 99 181
61 98 181
62 99 181
62 99 181
62 99 181
61 99 181
62 99 179
61 98 180
62 99 181
62 99 181
62 99 180
62 99 181
61 99 181
62 99 180
61 98 180
62 99 181
62 99 181
62 99 181
62 99 181
63 100 181
62 99 181
61 99 181
62 99 181
62 99 180
62 99 178
62 99 180
62 99 181
62 99 181
61 98 180
62 99 180
62 99 180
62 99 179
62 99 180
62 99 180
62 98 177
62 99 181
62 99 176
62 99 180
62 99 178
62 99 177
61 99 179
62 98 177
63 99 179
62 99 178
62 99 180
62 99 178
63 99 176
62 98 176
62 99 177
62 99 174
62 99 177
61 98 176
62 98 175
62 98 175
62 99 176
61 97 172
61 97 174
62 98 174
61 98 174
61 97 173
61 96 171
62 99 175
60 95 168
61 96 170
105 114 122
122 127 83
127 123 66
130 126 73
118 115 65
134 131 77
121 118 70
131 128 74
134 131 78
122 120 73
123 121 73
126 124 79
117 116 74
126 124 76
113 113 73
115 115 77
125 124 84
129 127 86
114 115 78
126 125 83
122 120 80
117 118 80
125 125 87
133 132 89
129 129 88
135 134 90
138 137 93
116 117 82
129 129 90
128 128 88
141 139 94
136 135 92
133 133 92
134 134 92
138 137 93
129 129 91
138 137 95
140 140 96
145 143 97
148 146 99
138 137 93
147 146 99
152 150 100
136 135 93
147 146 98
145 144 96
154 152 101
146 145 99
155 152 100
151 149 99
156 153 102
151 149 101
159 157 102
155 153 102
158 155 103
160 157 104
158 156 104
161 158 102
163 160 106
159 157 103
162 159 105
157 154 101
170 166 108
166 162 106
164 161 105
162 158 104
170 166 107
164 161 105
173 168 109
169 165 107
171 167 109
175 170 108
170 167 108
174 169 110
168 165 107
172 168 108
171 167 108
171 167 109
175 170 109
172 168 106
171 167 107
177 171 111
167 164 105
172 167 105
177 171 110
176 171 109
175 169 107
169 165 103
175 171 110
174 170 108
176 171 112
173 168 106
176 170 110
171 167 107
173 169 109
172 166 103
175 169 105
175 170 109
173 169 108
173 168 106
173 168 108
173 168 103
174 168 106
171 166 103
173 168 106
172 166 105
171 166 103
173 167 103
173 167 104
167 163 102
172 166 100
168 162 98
169 164 105
170 165 103
170 164 103
173 166 102
164 159 99
164 159 95
164 160 99
169 164 101
173 167 102
167 161 99
164 159 95
166 162 97
165 160 95
158 153 87
167 160 94
164 158 97
161 154 93
165 159 95
169 163 99
165 159 93
168 161 99
162 154 92
157 150 87
162 156 93
160 153 92
154 149 84
158 153 90
152 145 87
166 160 96
147 140 78
149 143 78
153 147 77
146 141 75
142 137 72
149 143 77
154 148 83
146 139 75
139 134 70
141 137 72
143 142 65
146 147 61
147 152 56
148 157 48
160 173 48
161 175 37
161 178 36
164 183 11
173 193 16
171 193 0
173 195 0
173 196 0
171 195 0
173 197 0
172 195 0
174 197 0
173 196 0
172 196 0
174 197 0
174 198 0
173 197 0
174 197 0
172 195 0
174 198 0
172 195 0
172 196 0
171 195 0
172 196 0
171 195 0
174 198 0
173 196 0
173 196 0
172 196 0
173 197 0
173 197 0
171 194 0
173 196 0
172 195 0
173 196 0
174 198 0
175 198 0
173 196 0
172 195 0
171 194 0
175 198 0
172 195 0
173 196 0
171 194 0
172 195 0
174 197 0
170 194 0
171 195 0
173 197 0
174 197 0
175 197 0
171 194 0
174 196 0
174 197 0
174 197 0
172 197 0
173 197 0
173 196 0
172 195 0
171 195 0
175 197 0
173 196 0
173 196 0
174 197 0
173 196 0
172 195 0
170 194 0
174 197 0
173 196 0
171 195 0
174 197 0
174 197 0
172 196 0
173 196 0
174 197 0
173 197 0
172 195 0
173 196 0
172 195 0
173 197 0
172 196 0
174 197 0
168 193 0
171 194 0
174 197 0
173 197 0
171 194 0
171 195 0
174 197 0
170 193 0
172 195 0
170 195 0
172 196 0
173 196 0
172 195 0
172 196 0
170 194 0
170 193 0
175 198 0
170 193 0
174 196 0
173 196 0
171 195 0
170 194 0
172 196 0
171 194 0
173 194 0
174 197 0
171 194 0
174 198 0
174 197 0
171 195 0
170 194 0
171 194 0
170 193 0
159 183 70
85 116 160
63 99 169
62 98 171
62 99 174
62 99 180
62 99 172
62 99 180
62 99 175
62 99 176
62 99 179
62 99 177
62 100 181
61 99 179
62 99 181
62 99 178
62 99 181
62 99 179
62 99 181
62 99 180
62 99 178
62 99 178
62 99 181
62 99 178
62 99 179
62 99 180
62 99 180
61 99 178
62 99 181
62 99 178
62 99 180
61 98 178
62 99 181
61 99 180
62 99 181
62 99 181
62 99 181
61 98 181
62 99 181
62 99 180
62 99 181
63 100 180
62 99 181
61 99 179
62 99 180
62 99 180
62 99 181
62 99 181
62 99 180
62 99 180
62 99 181
61 98 179
61 99 181
61 99 181
62 99 180
62 99 180
62 99 180
61 99 180
62 99 181
62 99 181
62 99 180
62 99 181
62 99 181
61 99 180
61 99 181
61 99 181
62 99 181
62 99 181
61 99 181
61 98 177
61 99 180
62 99 181
62 99 181
62 99 180
61 99 181
61 99 181
62 99 180
62 99 181
62 99 181
62 99 179
62 99 181
62 99 180
62 99 180
62 99 181
62 99 180
62 99 180
62 99 181
62 99 181
61 98 180
62 99 178
62 99 180
62 99 181
62 99 179
62 99 180
62 99 181
61 99 180
62 99 179
62 99 178
62 99 180
61 98 179
62 99 180
62 99 180
62 99 177
62 99 178
62 99 180
62 99 179
62 99 180
62 99 180
61 98 177
62 99 176
61 98 178
62 99 177
62 99 181
62 98 174
62 99 180
61 98 176
62 98 175
61 98 174
62 98 175
62 98 170
62 98 174
61 98 174
62 97 170
62 98 174
61 97 173
61 98 171
62 98 174
61 96 170
61 97 171
60 95 166
64 94 157
104 114 125
116 117 84
130 127 74
126 122 70
137 133 71
142 138 85
112 110 63
126 124 76
122 120 74
117 114 73
117 116 72
114 113 74
108 107 69
127 126 82
109 109 71
127 124 83
115 116 78
115 114 77
126 126 84
126 126 85
127 126 86
128 128 87
126 126 85
130 129 86
128 128 86
124 124 86
130 130 89
133 132 90
126 127 88
132 131 90
132 132 92
129 130 91
135 135 93
137 136 94
141 139 93
142 141 96
128 127 88
140 138 94
147 146 100
146 144 98
147 145 99
144 143 98
130 131 90
149 146 99
149 147 99
154 152 101
147 145 95
159 156 103
145 144 97
154 153 104
163 160 105
154 152 101
152 150 101
161 158 104
164 161 107
159 156 102
156 154 102
158 156 104
162 158 103
163 160 105
167 163 106
167 163 105
165 161 106
174 169 109
171 167 108
168 165 108
168 165 107
165 162 106
163 160 105
169 165 108
170 166 106
169 165 108
175 169 107
173 168 107
173 169 110
172 168 108
174 169 110
170 166 106
169 165 103
171 167 107
175 170 108
174 169 110
171 167 106
174 168 106
171 166 104
176 171 112
178 172 110
173 168 104
175 170 106
174 169 108
174 169 108
175 170 108
173 169 106
173 167 105
175 170 109
173 169 107
173 168 109
172 167 103
175 169 108
173 168 109
174 168 106
170 165 101
173 168 107
173 168 106
171 166 103
171 167 103
170 164 103
169 164 100
174 168 106
169 164 100
171 166 104
173 167 104
170 165 102
167 161 101
170 164 100
169 163 99
168 163 100
169 163 101
169 162 98
168 162 95
171 165 102
170 164 99
170 163 100
166 159 95
165 159 97
160 154 92
159 153 90
161 155 95
154 149 91
157 153 95
162 155 93
169 164 99
166 160 93
158 153 90
168 161 93
160 154 88
159 153 90
159 154 85
154 148 84
152 146 85
158 152 84
153 147 84
156 149 84
150 144 83
147 141 79
143 138 78
144 138 77
146 140 81
136 131 68
141 138 68
142 140 66
145 147 58
147 148 65
151 161 49
153 162 47
155 170 25
160 174 36
166 185 36
168 189 19
170 191 16
173 196 0
173 196 0
171 195 0
173 196 0
173 196 0
172 196 0
174 197 0
170 194 0
173 197 0
172 195 0
171 195 0
173 197 0
173 197 0
174 197 0
174 198 0
173 196 0
174 197 0
171 194 0
173 197 0
174 197 0
173 197 0
174 197 0
176 198 0
172 196 0
172 196 0
170 194 0
175 198 0
174 196 0
171 195 0
172 195 0
172 196 0
172 196 0
174 197 0
173 196 0
171 195 0
173 197 0
173 197 0
172 196 0
173 196 0
173 196 0
171 195 0
173 196 0
172 195 0
174 198 0
173 196 0
174 197 0
173 196 0
171 195 0
173 197 0
174 197 0
172 195 0
175 198 0
172 196 0
170 195 0
169 193 0
174 197 0
174 197 0
174 196 0
173 196 0
173 197 0
173 197 0
172 196 0
170 193 0
172 196 0
172 196 0
174 197 0
173 196 0
173 197 0
174 197 0
175 198 0
171 194 0
172 196 0
172 195 0
172 196 0
175 198 0
171 195 0
170 194 0
171 195 0
173 195 0
174 196 0
174 197 0
172 195 0
170 194 0
171 195 0
174 197 0
171 195 0
167 190 0
169 193 0
172 196 0
171 195 0
169 192 0
170 193 0
172 195 0
174 197 0
172 196 0
172 195 0
172 196 0
172 196 0
171 195 0
172 195 0
173 195 0
171 194 0
171 194 0
172 196 0
172 195 0
175 198 0
169 193 0
173 197 0
166 189 47
85 116 156
63 99 171
61 98 172
62 98 172
62 99 178
62 99 176
62 99 176
62 99 179
62 99 179
63 99 178
62 99 178
62 99 180
62 98 173
62 99 178
62 99 180
62 99 178
62 99 179
62 99 179
61 98 179
61 98 178
62 99 179
62 99 175
62 99 179
62 99 176
62 99 178
61 99 179
62 99 181
62 99 180
62 99 181
62 99 180
62 99 180
62 99 181
62 99 180
62 99 180
62 99 181
62 99 180
62 99 181
62 99 180
62 99 181
62 99 180
61 98 181
62 99 181
63 100 181
62 99 181
62 99 181
62 99 179
61 99 181
62 99 180
62 99 180
62 99 181
62 99 181
62 99 179
62 99 181
62 99 180
62 99 180
62 99 181
62 99 180
62 99 180
61 99 181
62 99 181
62 99 181
61 99 178
61 99 181
61 99 181
62 99 181
62 99 181
62 99 180
62 99 181
62 99 180
61 99 180
62 99 179
62 99 180
61 99 180
62 99 179
62 99 179
61 99 180
62 99 181
62 99 181
62 99 180
62 99 181
62 99 178
61 99 181
61 98 180
61 98 181
62 99 181
62 99 181
62 99 180
62 99 181
62 99 180
61 99 177
62 99 180
62 99 181
62 99 181
62 99 181
62 99 181
62 99 177
61 99 178
62 99 179
62 99 181
61 98 178
62 100 181
62 99 177
63 100 178
61 98 176
62 99 181
62 98 178
61 98 175
62 99 178
62 99 181
62 99 177
62 99 179
62 99 178
61 98 176
62 99 178
61 98 173
61 98 174
61 98 177
61 98 175
62 98 177
61 98 176
61 97 172
61 98 174
61 97 173
62 98 173
61 97 175
62 98 170
61 96 170
61 98 175
61 97 169
60 95 162
60 96 169
65 96 161
96 106 121
127 124 75
116 112 66
131 127 73
127 124 74
121 118 74
119 117 71
124 122 76
125 122 77
115 113 72
122 119 75
116 115 76
120 120 79
132 131 85
110 110 72
115 114 79
128 126 84
122 121 79
129 127 81
118 119 83
118 118 81
125 125 84
119 120 83
119 120 83
125 124 84
125 124 85
131 130 88
124 125 88
137 138 96
131 130 90
127 127 88
130 131 93
135 134 92
144 142 95
136 135 93
141 140 95
146 145 97
145 143 96
135 134 91
137 137 93
144 143 97
155 153 101
152 149 98
144 144 99
152 150 98
152 150 101
161 157 103
150 148 99
158 154 101
155 153 100
150 147 99
160 158 105
162 160 105
161 158 102
156 153 102
158 156 105
162 158 103
158 156 101
158 155 102
169 164 106
165 162 107
166 164 108
168 165 109
164 160 106
166 163 105
165 162 105
173 168 110
168 164 107
169 165 105
170 165 107
171 167 105
171 167 106
172 167 106
170 166 109
168 164 106
178 172 113
172 167 109
173 169 109
171 167 107
174 169 106
175 170 108
169 165 103
172 167 105
173 169 107
174 168 105
175 169 107
171 166 106
172 168 105
171 167 104
175 170 106
176 171 108
173 168 106
173 168 105
173 169 108
169 164 102
173 168 106
175 169 104
174 168 108
176 169 106
175 169 106
172 167 106
178 171 107
174 169 108
172 167 104
168 162 101
177 170 109
168 164 103
174 168 104
171 167 101
165 160 98
170 163 99
165 160 98
167 162 97
167 162 99
172 166 102
168 164 95
171 166 100
166 160 99
167 162 100
167 161 99
166 160 93
163 157 95
163 157 94
166 160 96
164 158 93
159 154 91
157 151 87
164 159 93
157 152 83
160 155 91
155 149 89
157 152 87
166 159 95
158 153 85
164 158 90
160 154 87
153 148 84
151 146 87
157 151 82
154 148 87
149 143 76
157 151 82
153 147 76
151 145 80
153 147 75
145 139 76
150 144 81
140 134 71
146 140 75
135 135 62
152 154 65
146 151 56
157 165 52
157 165 53
147 161 25
164 179 41
170 189 28
165 185 22
170 192 16
173 196 11
174 197 0
173 197 0
176 199 0
174 197 0
172 196 0
173 196 0
171 195 0
173 197 0
173 196 0
175 197 0
172 196 0
174 197 0
171 194 0
171 194 0
173 197 0
175 198 0
173 196 0
172 195 0
173 196 0
174 197 0
175 197 0
172 196 0
173 197 0
173 197 0
174 197 0
173 197 0
174 197 0
173 196 0
171 195 0
174 197 0
175 198 0
174 197 0
171 195 0
172 196 0
175 198 0
174 197 0
176 198 0
176 198 0
174 197 0
171 195 0
174 197 0
174 197 0
173 196 0
174 197 0
171 195 0
173 196 0
175 198 0
174 196 0
169 193 0
174 198 0
174 196 0
171 195 0
171 195 0
172 195 0
174 197 0
172 195 0
174 198 0
175 197 0
171 194 0
170 194 0
175 198 0
173 196 0
173 195 0
173 196 0
172 195 0
174 197 0
173 196 0
169 192 0
173 197 0
174 197 0
171 194 0
173 197 0
174 197 0
171 193 0
171 194 0
173 196 0
173 196 0
170 194 0
172 196 0
173 196 0
172 195 0
174 196 0
172 196 0
170 193 0
172 196 0
170 193 0
173 197 0
174 197 0
172 195 0
173 196 0
171 195 0
175 198 0
171 194 0
171 193 0
172 195 0
172 195 0
170 193 0
174 197 0
172 195 0
170 193 0
172 196 0
172 196 0
171 194 0
172 195 0
173 196 0
168 192 0
164 187 54
99 128 152
62 99 170
61 98 167
62 99 172
62 99 173
63 99 178
62 99 174
61 98 174
62 99 174
62 99 175
62 99 177
63 100 178
62 99 177
63 100 180
62 99 177
62 99 177
62 99 179
62 99 175
62 99 178
62 99 177
62 99 181
62 99 180
62 99 179
63 100 179
62 99 177
61 99 179
62 99 178
61 98 179
62 99 180
62 99 181
62 99 178
61 98 179
62 99 180
61 99 179
62 99 181
62 99 179
62 99 181
62 99 181
62 99 180
62 99 180
62 99 181
62 99 180
62 99 181
61 99 181
62 99 181
62 99 180
62 99 181
61 99 180
62 99 181
61 99 181
62 99 181
62 99 180
61 99 181
62 99 181
61 99 181
62 99 180
61 99 180
61 98 179
62 99 180
62 99 181
61 98 180
62 99 181
61 99 180
62 99 181
61 98 179
62 99 178
62 99 181
62 99 179
61 99 181
61 99 180
62 99 180
62 99 180
62 99 181
61 98 179
62 99 179
62 99 181
62 99 178
62 99 181
62 99 181
62 99 181
61 99 181
62 99 181
62 99 180
62 99 181
62 99 181
61 99 180
61 99 180
61 99 180
62 99 180
62 99 181
62 99 181
62 99 178
62 99 181
62 99 178
62 99 178
62 99 180
62 99 179
62 99 179
62 99 179
62 99 180
61 99 179
62 99 180
62 99 180
62 99 180
62 99 178
62 99 179
62 99 180
62 99 178
62 99 178
62 99 179
62 99 178
62 98 177
62 99 177
62 98 177
62 99 174
61 98 177
62 99 177
62 98 176
61 98 177
62 99 175
61 98 174
62 99 175
60 97 171
62 98 174
62 98 175
60 96 168
61 97 173
61 97 170
60 96 168
61 96 168
61 96 166
61 96 167
60 95 167
65 93 152
99 107 117
123 122 81
131 127 75
127 124 67
121 119 74
128 125 77
118 118 75
130 127 78
118 116 75
113 114 77
107 109 68
108 108 69
115 114 74
124 122 79
108 108 76
115 115 78
116 116 77
107 107 73
118 118 80
116 116 81
115 117 79
123 124 84
124 124 86
127 126 87
119 119 82
129 129 90
136 135 92
134 135 94
134 133 91
131 131 91
143 141 95
134 133 92
126 127 90
130 130 91
133 133 94
128 129 91
143 142 96
150 148 98
142 141 98
137 137 95
144 143 95
147 146 98
149 148 98
146 145 100
148 146 97
155 153 103
148 147 98
155 152 101
161 158 103
154 152 100
148 147 100
162 160 106
153 151 99
159 156 102
154 152 101
168 164 108
160 157 104
159 157 104
152 151 99
165 161 105
166 162 108
171 167 108
171 166 108
168 164 105
163 160 104
167 164 105
166 162 106
170 166 108
170 166 106
169 165 105
173 169 107
169 165 103
169 165 105
168 165 105
173 169 107
172 167 108
174 168 107
171 167 105
170 165 103
175 171 109
173 169 106
173 169 108
173 168 104
175 169 108
173 169 108
176 171 108
172 168 104
173 168 105
175 169 109
172 168 108
177 172 109
174 169 106
173 168 108
175 170 105
177 172 108
170 165 101
178 172 108
172 167 103
174 168 104
174 169 102
174 168 103
173 167 104
171 166 106
170 165 101
169 163 101
174 169 106
170 165 102
171 166 104
176 169 105
167 162 97
171 166 104
169 165 102
170 165 103
170 165 104
171 165 101
170 165 99
170 164 99
167 161 96
161 156 97
161 156 93
168 162 100
169 163 97
166 161 93
165 160 97
166 159 94
163 157 88
167 160 94
162 157 92
168 162 101
163 157 93
161 155 85
162 155 91
157 151 87
159 153 89
163 156 90
163 157 90
164 157 87
154 147 84
156 149 86
158 150 86
159 153 87
155 148 80
142 137 74
152 146 78
144 139 71
139 133 72
144 139 72
146 141 75
147 146 63
150 153 57
151 156 54
141 147 52
153 164 48
152 166 36
162 177 42
162 180 22
167 189 0
167 188 16
174 197 0
171 195 0
174 197 0
172 194 0
172 195 0
172 195 0
174 198 0
174 197 0
173 196 0
172 195 0
173 197 0
174 198 0
173 196 0
172 196 0
172 195 0
173 197 0
172 195 0
173 196 0
170 194 0
172 196 0
173 197 0
171 195 0
175 198 0
172 196 0
171 194 0
173 196 0
171 194 0
173 196 0
172 196 0
173 196 0
173 196 0
172 195 0
173 197 0
174 196 0
174 197 0
174 197 0
172 195 0
174 197 0
172 195 0
175 198 0
172 195 0
174 198 0
172 195 0
171 195 0
171 194 0
169 192 0
171 195 0
172 195 0
173 196 0
172 196 0
174 197 0
174 197 0
170 193 0
171 194 0
173 196 0
170 194 0
173 196 0
174 197 0
174 198 0
171 195 0
172 195 0
171 195 0
173 195 0
171 195 0
174 198 0
174 197 0
175 198 0
175 198 0
173 196 0
172 196 0
174 197 0
171 195 0
172 195 0
170 193 0
171 194 0
172 195 0
172 195 0
172 195 0
171 195 0
171 194 0
171 195 0
169 193 0
173 196 0
170 193 0
168 193 0
170 194 0
171 194 0
174 197 0
174 196 0
171 195 0
176 198 0
173 197 0
170 194 0
170 193 0
171 194 0
172 196 0
173 196 0
172 195 0
171 193 0
174 197 0
171 194 0
173 197 0
174 197 0
171 194 0
172 196 0
173 196 0
162 185 54
120 147 130
62 98 166
62 98 170
62 99 174
62 98 170
62 99 178
61 98 174
62 99 173
62 99 173
62 99 177
63 99 178
62 99 177
62 99 179
62 99 178
62 99 177
62 99 177
62 99 180
61 99 179
62 99 176
63 100 179
62 99 178
62 99 179
62 99 180
62 99 180
61 99 178
62 99 178
62 99 179
62 99 179
62 99 179
62 99 181
62 99 180
62 99 179
62 99 180
62 99 178
62 99 180
62 99 180
62 99 181
62 99 181
62 99 179
62 99 181
62 99 181
62 99 180
62 99 180
62 99 180
62 99 180
61 99 181
61 99 179
62 99 181
62 99 180
62 99 181
62 99 180
62 99 180
61 99 181
62 99 181
61 99 180
62 99 181
62 99 179
61 99 181
62 99 180
62 99 181
61 99 180
62 99 181
62 99 181
62 99 180
61 99 181
62 99 181
62 99 180
61 99 181
62 99 180
62 99 181
62 99 180
62 99 180
61 98 178
61 99 181
62 99 179
61 99 181
62 99 181
62 99 181
62 99 180
62 99 181
62 99 179
62 99 179
61 98 179
62 99 177
62 99 181
62 99 180
62 99 181
62 99 181
61 98 180
62 99 179
62 99 178
61 98 179
61 98 179
62 99 176
62 99 178
61 98 177
62 99 181
61 98 177
62 99 180
61 99 179
62 99 179
61 99 179
62 99 181
62 99 178
62 99 179
62 98 174
62 99 177
62 99 177
61 98 176
62 99 175
62 99 176
61 98 178
62 98 174
62 99 178
62 98 178
61 99 178
61 98 177
61 98 174
62 98 176
63 100 175
62 99 176
62 98 172
62 99 176
61 97 171
62 99 172
60 96 171
61 98 174
62 97 173
62 98 172
61 96 167
61 98 175
60 95 161
60 95 167
62 97 168
61 96 167
68 96 155
114 117 99
122 119 75
115 113 64
107 106 67
114 112 70
121 119 72
117 116 73
119 118 75
120 118 71
126 124 77
105 106 70
123 121 79
116 115 75
110 111 76
110 112 78
111 112 80
122 123 85
112 113 78
115 116 80
110 112 79
126 126 86
128 128 87
124 124 86
118 120 85
131 132 91
117 118 84
124 125 87
124 125 86
124 124 87
123 124 87
137 136 94
134 133 90
129 129 91
132 132 93
141 139 94
134 135 94
138 137 93
149 147 101
143 141 96
146 145 97
138 137 94
145 143 96
155 153 105
145 144 98
154 152 101
153 151 100
158 155 104
157 153 100
155 153 101
153 151 100
159 157 103
158 156 103
155 152 100
156 153 100
161 157 103
162 158 103
160 157 101
166 162 103
167 163 104
161 159 106
164 160 100
164 161 104
165 162 104
171 168 110
167 163 105
165 161 107
169 165 106
168 163 102
169 165 106
172 167 108
169 165 104
171 167 103
168 164 104
172 167 108
172 167 107
173 168 108
176 170 108
174 168 108
175 170 108
176 170 106
173 168 105
176 171 109
172 168 104
173 169 109
173 168 107
174 168 107
175 168 103
173 168 106
172 168 102
174 169 107
175 169 103
174 169 104
174 168 105
170 165 102
172 167 105
176 170 106
173 169 104
176 170 103
173 167 102
175 170 108
168 163 99
170 164 102
169 164 100
172 167 104
175 170 106
175 169 107
173 167 103
172 167 103
169 164 100
172 166 101
170 165 99
168 162 96
171 165 101
173 167 99
167 161 97
171 165 101
167 163 97
170 164 97
168 162 97
169 162 98
168 162 96
168 162 95
170 164 100
164 158 97
163 158 93
164 158 93
161 155 94
167 161 95
164 158 92
157 152 88
154 148 84
160 153 88
156 150 84
163 157 88
149 144 80
159 153 84
163 156 90
161 155 87
154 148 86
148 143 80
148 142 79
153 147 84
146 140 72
151 145 82
155 148 80
136 131 67
139 133 68
149 146 68
147 147 59
148 152 51
152 160 48
157 165 49
166 178 44
166 181 34
165 182 25
168 188 25
173 195 11
172 195 0
173 196 0
173 196 0
172 196 0
176 198 0
174 197 0
172 196 0
175 198 0
172 196 0
173 197 0
172 195 0
174 197 0
176 198 0
172 196 0
175 198 0
171 194 0
174 197 0
172 195 0
173 197 0
173 196 0
173 197 0
172 196 0
174 198 0
170 193 0
174 197 0
171 195 0
173 196 0
173 197 0
167 191 0
171 195 0
173 196 0
176 199 0
171 194 0
174 197 0
172 196 0
173 196 0
173 197 0
169 193 0
172 196 0
174 197 0
173 197 0
173 196 0
173 196 0
174 197 0
173 196 0
173 197 0
172 196 0
172 195 0
171 195 0
173 197 0
171 195 0
173 196 0
172 196 0
175 197 0
171 195 0
174 197 0
171 194 0
173 197 0
174 197 0
173 197 0
175 198 0
170 193 0
173 196 0
172 196 0
171 194 0
173 196 0
174 197 0
173 196 0
175 198 0
171 195 0
173 197 0
173 197 0
173 197 0
174 197 0
172 196 0
171 195 0
173 195 0
171 195 0
172 195 0
169 194 0
171 195 0
174 196 0
175 198 0
170 193 0
171 194 0
171 194 0
172 195 0
170 193 0
172 195 0
172 196 0
173 196 0
171 194 0
170 194 0
172 195 0
171 195 0
172 196 0
174 197 0
175 197 0
171 194 0
168 192 0
169 192 0
172 196 0
172 195 0
173 196 0
172 195 0
172 194 25
115 141 135
62 98 170
63 99 174
63 99 175
62 98 170
62 99 175
62 99 174
63 100 177
62 99 174
62 99 174
62 99 174
62 99 180
62 99 175
61 99 177
63 100 178
62 99 177
62 99 175
62 100 181
62 99 177
62 99 175
62 99 179
62 99 180
62 99 179
62 99 179
62 99 179
62 99 179
62 99 179
62 99 180
62 99 179
62 99 178
61 99 179
62 99 179
62 99 181
62 99 180
63 100 179
62 99 179
62 99 180
62 99 181
63 100 179
62 99 179
62 99 178
62 99 180
62 99 179
62 99 179
62 99 179
62 99 179
62 99 181
63 100 181
61 99 180
61 98 179
62 99 179
63 100 181
62 99 181
62 99 180
63 100 180
61 98 179
62 99 181
63 100 181
62 99 181
62 99 181
63 100 181
62 99 180
61 99 181
62 99 181
61 99 180
62 99 180
62 99 180
62 99 181
62 99 181
61 99 181
62 99 181
61 99 180
62 99 181
62 99 180
62 99 178
62 99 181
62 99 181
62 99 180
62 99 179
62 99 179
62 99 181
61 99 180
62 99 181
62 99 179
62 99 179
62 99 181
62 99 180
61 99 179
61 99 180
61 98 180
62 99 179
62 99 179
61 98 178
62 99 180
62 99 181
62 99 176
62 99 179
62 99 180
62 99 180
62 99 177
62 99 180
62 99 178
61 99 179
61 98 177
62 99 181
61 98 175
62 99 178
62 99 180
62 99 175
62 99 180
63 99 178
62 99 178
62 98 175
61 98 176
62 99 177
62 98 175
61 99 178
62 99 179
62 99 178
62 99 178
62 98 176
61 97 173
62 99 177
62 99 178
61 97 172
61 98 176
61 97 171
61 97 167
62 98 172
60 96 171
63 98 170
60 96 165
61 97 172
62 98 174
61 97 170
59 94 162
61 97 172
81 103 154
106 110 98
125 123 73
121 118 73
118 115 70
114 112 70
114 112 70
126 125 78
118 116 69
109 109 71
105 107 73
106 106 73
113 112 73
113 113 77
115 115 80
124 122 80
115 115 76
122 122 82
111 112 78
117 118 82
116 117 80
125 126 87
124 124 86
126 126 86
120 121 84
127 126 87
133 133 90
133 133 91
127 126 85
125 125 87
135 133 90
132 132 93
133 134 93
131 131 90
127 127 87
146 144 98
141 139 92
144 144 99
146 144 97
139 140 97
145 144 97
141 140 95
142 141 98
149 147 100
160 157 104
148 147 100
153 151 101
147 145 97
141 141 94
152 150 101
155 153 102
159 155 101
157 154 99
160 157 102
158 155 99
149 148 99
160 157 101
161 157 102
163 159 105
168 163 105
165 161 102
164 161 101
167 162 104
164 161 102
169 165 104
168 164 104
166 162 105
167 164 105
170 165 105
172 167 106
175 170 109
172 167 106
172 167 105
173 167 107
173 168 106
171 167 104
171 167 103
175 170 109
174 169 106
173 168 108
173 168 105
174 169 107
174 169 107
173 167 106
175 170 106
173 168 103
175 169 105
176 171 108
176 171 107
177 172 110
174 169 101
174 169 104
176 170 103
173 169 104
175 170 107
174 169 107
172 168 104
174 168 104
172 167 104
169 164 103
174 168 103
173 166 102
174 168 103
170 165 103
168 163 101
172 167 100
175 168 103
169 163 100
170 163 101
174 168 103
171 165 101
167 162 96
167 162 99
167 161 97
165 160 99
167 161 97
169 163 99
165 161 94
166 161 98
168 162 96
169 163 98
169 163 94
162 155 91
165 158 92
163 158 95
165 159 94
162 156 90
167 161 93
166 159 95
157 151 90
160 154 89
161 155 95
159 153 87
161 154 90
161 155 88
157 152 86
152 146 82
159 152 84
152 147 78
162 155 86
150 145 77
151 145 79
145 139 74
142 136 73
151 145 79
138 133 61
147 141 78
139 135 66
135 135 53
141 143 49
155 161 56
154 163 48
157 170 41
154 168 36
163 181 25
167 188 19
170 192 11
172 194 0
171 195 0
173 197 0
171 196 0
176 199 0
173 196 0
172 196 0
174 198 0
172 196 0
174 197 0
174 198 0
173 197 0
172 196 0
170 194 0
172 195 0
174 197 0
172 195 0
173 197 0
174 197 0
174 197 0
171 195 0
174 197 0
171 194 0
172 195 0
173 196 0
171 195 0
173 196 0
174 196 0
170 195 0
172 196 0
174 198 0
173 196 0
173 196 0
173 196 0
172 195 0
173 197 0
171 195 0
172 196 0
172 195 0
173 196 0
173 196 0
174 198 0
172 195 0
174 196 0
173 196 0
172 196 0
174 197 0
172 195 0
173 197 0
174 197 0
173 197 0
173 196 0
172 196 0
175 197 0
173 196 0
173 196 0
171 195 0
172 196 0
171 195 0
172 196 0
177 199 0
173 196 0
171 195 0
173 196 0
174 196 0
173 196 0
169 193 0
171 194 0
174 197 0
173 197 0
172 195 0
170 194 0
170 193 0
173 197 0
175 198 0
171 194 0
174 197 0
171 195 0
171 193 0
173 195 0
170 194 0
170 194 0
171 194 0
172 195 0
171 195 0
172 196 0
171 193 0
171 194 0
173 196 0
173 197 0
173 197 0
172 195 0
173 196 0
170 193 0
171 195 0
172 196 0
172 196 0
173 197 0
169 193 0
172 195 0
173 196 0
172 196 0
171 194 0
172 195 0
171 194 25
132 157 113
62 99 171
61 98 167
62 98 170
62 99 170
63 99 176
62 99 175
62 99 176
61 98 172
62 98 171
62 99 174
62 99 176
63 99 179
61 98 174
63 99 176
63 99 177
61 99 176
62 99 178
62 99 176
62 99 176
62 99 180
62 99 181
62 99 177
62 99 180
61 98 176
62 99 179
62 99 176
62 99 181
62 99 178
62 99 179
62 99 180
62 99 181
62 99 180
62 99 181
62 99 181
62 99 181
63 99 179
62 99 180
63 99 178
62 99 180
62 99 180
63 100 181
62 99 181
62 99 179
62 99 180
61 99 181
61 98 181
61 99 181
62 99 180
61 99 178
62 99 180
62 99 181
62 99 180
62 99 179
62 99 181
61 99 181
62 99 180
62 99 180
62 99 180
62 99 181
62 99 180
61 98 181
62 99 181
62 99 181
63 100 181
62 99 180
62 99 180
62 99 179
62 99 181
61 98 181
61 98 178
62 99 181
62 99 180
62 99 181
62 99 180
61 98 179
62 99 181
63 100 180
62 99 180
62 99 181
62 99 180
62 99 181
63 100 181
62 99 178
62 99 180
62 99 180
62 99 180
62 99 180
62 99 179
62 99 181
62 99 180
61 99 180
62 99 180
62 99 181
62 99 179
61 99 179
62 99 180
61 98 176
61 98 176
62 99 181
62 99 179
62 99 180
62 99 179
62 99 179
62 99 178
62 99 180
61 98 177
62 99 177
62 99 175
62 99 179
62 99 178
62 99 177
61 99 178
62 99 177
62 99 175
62 98 179
61 97 174
62 98 174
62 98 175
62 98 176
63 99 174
62 99 177
61 98 174
61 98 178
62 98 175
62 98 172
61 97 172
60 97 174
62 99 173
62 98 172
61 96 171
61 98 173
61 96 167
62 98 173
62 98 175
62 98 171
61 95 165
59 94 166
60 95 165
92 108 142
115 117 95
118 117 66
117 115 71
104 105 70
116 115 74
110 109 69
122 121 79
110 108 68
110 109 69
116 115 71
114 113 75
117 116 78
114 116 78
113 114 77
110 111 73
123 123 84
114 114 79
102 105 75
116 116 82
121 120 82
117 118 81
132 132 89
130 130 91
128 128 87
126 126 88
123 122 84
126 125 85
133 132 91
125 126 86
136 136 94
129 129 87
134 134 93
139 137 94
144 143 98
139 139 95
135 135 92
136 135 94
138 137 93
139 139 97
140 140 94
138 137 93
150 148 100
152 149 99
150 149 100
155 152 99
155 153 101
152 150 99
146 145 96
158 155 102
155 152 101
158 157 104
152 151 100
160 157 105
161 158 101
159 157 103
155 153 101
163 159 103
164 160 102
162 157 98
166 162 106
172 167 107
162 159 101
170 166 106
167 163 106
167 163 103
166 161 100
170 166 107
169 165 107
170 166 104
170 165 103
169 165 103
174 169 107
174 169 108
172 167 107
174 168 108
176 171 108
172 167 106
174 169 108
180 173 107
170 165 103
174 168 103
173 167 105
175 169 104
175 170 107
175 169 109
173 168 106
176 170 108
175 169 103
176 171 106
176 170 104
174 167 102
172 166 101
174 169 104
174 169 103
175 169 102
175 169 105
172 166 100
176 170 107
176 170 103
173 167 104
172 167 103
172 166 102
170 164 96
172 166 104
174 169 104
170 165 103
167 162 96
171 164 95
169 163 101
168 163 99
173 166 99
172 166 100
168 162 97
170 164 102
172 167 101
169 162 98
165 158 93
168 161 98
168 161 97
164 159 93
164 157 94
164 158 94
164 158 94
167 161 95
164 158 87
161 156 93
160 154 87
158 153 83
157 151 86
156 150 85
160 153 87
155 149 83
159 153 84
164 157 93
162 155 87
150 144 78
148 142 75
151 145 80
160 153 85
153 146 81
144 138 73
141 136 67
142 136 74
142 137 68
145 139 74
139 137 59
147 147 64
141 144 54
147 151 57
157 170 41
153 167 34
156 172 36
165 182 30
165 183 25
166 187 11
173 195 16
172 196 0
172 195 0
175 198 0
172 197 0
174 197 0
174 198 0
172 195 0
174 197 0
175 198 0
173 197 0
173 196 0
175 198 0
172 195 0
175 198 0
173 197 0
170 193 0
173 196 0
174 197 0
173 197 0
173 196 0
174 198 0
173 197 0
171 195 0
173 197 0
173 196 0
174 197 0
174 197 0
172 195 0
174 197 0
171 194 0
170 194 0
173 196 0
174 197 0
172 196 0
172 196 0
172 196 0
170 194 0
172 195 0
174 197 0
172 195 0
173 197 0
173 196 0
174 197 0
173 197 0
173 196 0
175 198 0
172 195 0
171 195 0
175 198 0
173 196 0
174 196 0
171 195 0
172 196 0
171 195 0
173 196 0
174 198 0
172 195 0
170 193 0
171 194 0
171 195 0
169 193 0
172 195 0
171 194 0
172 195 0
172 195 0
171 195 0
174 197 0
172 195 0
170 193 0
174 198 0
171 194 0
171 194 0
173 195 0
170 193 0
173 197 0
173 196 0
170 193 0
175 197 0
174 197 0
172 195 0
174 196 0
171 194 0
169 193 0
172 195 0
169 192 0
174 197 0
175 197 0
171 195 0
172 194 0
174 198 0
172 194 0
172 195 0
173 196 0
173 196 0
171 194 0
173 196 0
171 195 0
172 195 0
169 193 0
173 196 0
174 195 0
174 196 0
169 193 0
149 173 92
74 107 164
62 99 172
62 98 172
62 99 173
63 99 173
62 99 166
62 99 173
61 98 174
63 100 178
61 98 172
62 99 173
63 100 180
62 99 177
61 98 174
62 99 175
62 99 179
62 99 181
63 100 179
62 99 176
62 99 178
62 99 179
62 99 180
62 99 180
62 99 176
62 99 180
62 99 180
62 99 179
62 99 180
61 99 179
61 99 179
62 99 178
62 99 180
62 99 180
62 99 178
62 99 181
62 99 180
62 99 177
61 98 177
62 99 178
63 100 181
62 99 180
62 99 181
62 99 180
62 99 181
62 99 181
62 99 181
62 99 180
62 99 179
62 99 181
62 99 179
62 99 179
62 99 180
62 99 181
61 99 180
62 99 179
62 99 180
61 98 178
62 99 180
62 99 178
62 99 180
62 99 178
62 99 178
62 99 180
62 99 180
62 99 180
61 99 180
62 99 180
61 99 179
61 99 180
62 99 181
62 99 180
61 99 179
62 99 180
61 99 180
63 100 181
62 99 180
62 99 179
62 99 180
62 99 179
62 99 178
61 99 179
62 99 180
61 98 176
62 99 180
62 99 180
62 99 181
62 99 180
62 99 180
62 99 178
62 99 179
62 99 181
62 99 180
62 99 179
62 99 180
62 99 179
62 99 180
62 99 179
62 99 179
62 99 180
63 100 180
61 98 175
62 99 177
62 99 177
62 99 180
62 99 181
61 98 174
62 99 177
62 99 179
62 99 180
62 99 176
62 99 179
62 99 177
62 99 176
62 99 177
61 98 175
61 99 179
62 98 174
62 99 176
62 99 179
62 99 175
62 99 174
62 99 176
62 99 177
62 99 176
61 97 169
62 99 174
62 99 176
62 99 180
62 98 172
61 98 175
61 97 171
60 96 166
61 96 168
61 98 174
62 98 174
61 96 170
62 98 173
59 92 157
61 97 172
59 92 159
80 97 135
111 113 89
104 105 68
113 112 69
126 122 77
116 114 66
104 104 69
113 112 73
120 120 81
109 110 73
106 107 73
110 110 75
123 122 80
103 105 74
109 111 78
95 97 67
113 114 77
108 110 79
108 109 77
104 108 79
109 110 79
124 124 84
118 119 85
120 121 85
124 124 88
130 131 92
131 130 90
127 127 88
131 132 91
136 136 93
129 128 89
138 138 95
129 129 90
129 129 90
146 145 97
134 135 92
142 141 96
143 142 97
148 146 97
137 137 92
146 144 95
139 139 92
148 147 98
138 138 92
151 149 100
153 151 100
146 145 96
159 157 103
150 148 96
154 151 100
158 155 100
157 154 101
156 154 100
158 156 103
162 159 106
160 157 100
152 150 100
162 159 101
171 166 106
165 161 99
167 163 107
165 162 104
168 164 105
168 163 101
166 163 104
170 165 102
168 164 104
168 164 102
170 166 105
165 162 103
173 168 105
172 167 103
173 167 105
172 168 107
168 164 105
172 167 104
176 170 108
172 168 105
171 166 105
171 167 104
175 169 107
173 169 106
174 169 106
172 167 105
175 170 106
172 167 102
176 170 102
175 169 104
173 168 106
176 171 105
174 168 104
169 164 100
176 170 102
173 168 107
176 170 106
173 168 108
169 164 103
173 166 103
176 170 105
170 164 103
170 164 101
173 168 103
170 166 101
170 164 98
170 164 99
172 167 101
172 166 101
172 166 98
167 162 95
168 162 97
169 164 99
166 161 98
169 163 99
168 162 97
160 155 90
172 165 99
169 163 95
165 160 94
170 164 97
161 156 86
160 155 88
164 159 93
164 158 90
156 150 87
169 162 99
164 158 94
166 160 90
157 151 90
160 154 87
160 154 90
156 150 86
161 154 87
151 145 83
156 149 85
155 149 81
154 149 82
150 143 77
154 148 81
152 147 78
151 145 80
137 132 71
139 134 65
152 145 75
142 137 75
143 138 73
147 145 63
149 151 54
151 153 64
152 160 48
158 165 52
156 171 37
159 173 36
162 177 37
169 187 25
170 192 11
173 194 16
172 195 0
173 196 0
171 195 0
175 198 0
172 196 0
173 197 0
172 195 0
173 197 0
172 196 0
174 197 0
172 195 0
171 195 0
172 195 0
173 197 0
174 198 0
172 195 0
175 198 0
172 196 0
171 194 0
172 196 0
171 195 0
174 197 0
172 196 0
172 196 0
171 195 0
172 196 0
173 196 0
173 197 0
174 197 0
172 196 0
172 196 0
170 194 0
173 196 0
171 194 0
171 195 0
169 192 0
174 197 0
171 194 0
174 198 0
173 197 0
168 192 0
171 194 0
169 193 0
169 192 0
172 196 0
174 197 0
173 197 0
174 196 0
173 196 0
171 195 0
173 197 0
171 195 0
173 197 0
174 197 0
173 196 0
170 193 0
169 194 0
172 196 0
174 197 0
173 196 0
172 196 0
172 195 0
173 196 0
172 196 0
173 196 0
171 195 0
171 195 0
173 196 0
173 196 0
169 193 0
171 192 0
172 195 0
173 196 0
171 194 0
174 197 0
169 192 0
170 194 0
170 194 0
172 195 0
172 195 0
173 196 0
171 195 0
173 197 0
173 196 0
172 195 0
171 194 0
171 195 0
172 195 0
172 195 0
171 195 0
172 196 0
173 196 0
171 194 0
171 194 0
173 197 0
168 191 0
173 196 0
169 193 0
173 196 0
172 194 0
171 195 0
172 196 0
160 183 70
74 107 162
62 99 170
62 99 166
63 99 178
62 98 171
62 99 176
62 99 176
62 99 174
62 99 169
62 99 177
62 99 176
63 99 177
62 99 177
62 99 178
62 99 181
62 99 175
61 99 176
62 99 176
62 99 179
63 100 178
62 99 179
62 99 179
61 99 180
62 99 177
62 99 181
62 99 178
62 99 180
62 99 178
62 99 180
62 99 179
62 99 179
62 99 180
62 99 181
62 99 181
62 99 181
62 99 180
62 99 179
62 99 179
62 99 181
61 99 181
62 99 178
62 99 179
62 99 180
62 99 180
62 99 178
62 99 181
63 100 181
61 98 180
61 98 179
61 98 181
62 99 181
62 99 181
62 99 179
62 99 181
62 99 180
62 99 181
62 99 180
62 99 181
62 99 181
62 99 181
63 100 181
61 99 181
62 99 181
61 99 180
62 99 180
62 99 181
62 99 180
62 99 180
61 99 180
62 99 181
61 99 180
61 98 180
62 99 178
62 99 179
61 99 179
62 99 180
62 99 180
61 98 178
63 100 181
62 99 179
62 99 179
61 99 180
62 99 180
62 99 181
62 99 178
61 98 177
61 99 179
63 100 181
62 99 178
62 99 179
62 99 179
61 98 179
62 99 181
62 99 177
62 99 180
62 99 181
62 99 180
62 99 177
62 99 178
61 99 180
62 99 178
62 99 180
63 100 181
62 99 178
62 99 178
62 98 174
63 100 178
61 98 179
62 99 177
62 99 177
62 99 178
62 99 177
62 98 173
62 99 179
62 99 179
62 99 177
62 99 177
62 99 175
62 99 175
62 99 179
62 99 175
62 99 175
62 98 175
61 98 172
62 98 172
62 99 177
62 98 174
60 97 171
61 98 173
62 99 175
62 99 176
62 98 174
61 97 170
62 98 170
61 98 174
61 98 169
61 97 173
61 97 166
61 97 174
60 96 164
59 93 163
64 96 162
99 111 129
112 112 75
119 117 69
111 110 73
124 122 73
109 109 74
100 100 67
114 114 72
104 106 68
108 108 72
106 107 73
102 105 74
117 117 81
107 108 76
116 116 76
109 111 76
98 101 73
112 113 80
115 115 81
112 114 81
113 115 84
127 128 89
123 123 86
118 118 83
121 122 86
111 113 79
127 128 91
129 129 89
130 130 91
128 128 90
135 135 92
133 134 93
129 129 88
131 131 90
138 138 93
133 133 88
134 135 91
149 147 98
142 141 97
153 149 98
149 147 96
141 140 96
140 138 91
144 143 95
150 147 95
152 149 98
151 149 100
150 149 98
154 152 99
161 157 103
162 159 102
156 153 101
155 153 98
158 155 99
166 162 104
166 162 103
161 158 99
162 159 102
169 165 104
165 161 105
161 159 100
168 164 107
170 166 106
168 164 100
164 160 98
170 166 104
169 164 100
171 166 103
173 168 102
169 165 106
168 164 100
167 164 107
172 168 108
168 164 100
174 168 103
173 167 105
173 168 101
175 169 107
175 169 105
175 170 108
176 170 105
168 164 101
174 169 103
170 165 98
176 170 106
175 169 103
172 168 105
173 168 102
172 167 106
174 168 107
175 169 100
172 168 105
169 163 98
173 168 103
176 169 104
170 165 103
167 162 95
172 166 101
176 170 106
168 163 96
174 168 103
169 164 97
172 166 101
172 167 103
164 159 96
173 167 99
171 165 103
168 162 94
169 163 96
168 163 96
166 160 93
172 165 103
168 162 95
168 161 94
165 159 93
163 157 94
165 158 93
164 158 91
164 159 87
169 162 95
168 161 96
163 157 92
155 150 85
166 159 95
157 151 86
165 159 91
155 149 86
159 153 87
167 160 88
164 158 87
160 154 89
159 153 87
169 161 90
163 156 88
160 153 85
144 138 75
158 152 79
155 149 81
154 148 85
150 144 80
150 144 75
143 138 75
142 136 74
134 130 60
146 141 73
145 143 67
148 152 57
143 150 37
148 156 44
156 168 44
162 177 34
166 183 25
166 186 11
172 193 16
172 193 11
173 197 0
175 198 0
173 196 0
172 196 0
174 197 0
172 196 0
175 198 0
173 197 0
173 196 0
173 196 0
174 197 0
172 195 0
175 198 0
172 196 0
170 195 0
173 196 0
170 194 0
174 197 0
174 197 0
169 193 0
172 195 0
172 196 0
172 196 0
175 198 0
173 196 0
173 196 0
170 194 0
174 198 0
173 196 0
172 195 0
171 195 0
174 197 0
173 196 0
170 194 0
172 195 0
175 198 0
169 194 0
169 192 0
174 197 0
173 196 0
171 195 0
172 196 0
171 194 0
173 196 0
171 194 0
173 196 0
174 197 0
171 194 0
172 194 0
171 194 0
171 194 0
171 195 0
169 193 0
170 193 0
173 196 0
172 196 0
173 197 0
173 196 0
174 197 0
173 197 0
170 195 0
172 196 0
173 197 0
173 197 0
172 195 0
172 195 0
173 196 0
172 195 0
172 195 0
171 194 0
172 195 0
174 198 0
172 195 0
172 195 0
175 198 0
172 196 0
173 195 0
173 196 0
172 195 0
174 197 0
169 193 0
171 195 0
173 196 0
168 191 0
171 195 0
171 194 0
171 195 0
173 197 0
173 197 0
171 195 0
173 196 0
174 197 0
171 194 0
170 194 0
173 196 0
172 196 0
171 194 0
174 196 0
173 196 0
172 194 0
169 194 0
163 186 54
104 132 143
62 99 169
61 97 163
63 99 172
62 99 173
62 99 176
62 98 171
61 98 171
62 99 171
63 100 179
62 99 174
62 99 176
63 100 178
63 99 175
62 99 179
62 99 178
63 100 178
62 99 178
62 99 175
62 99 179
62 99 176
62 99 176
62 99 178
62 99 176
63 100 180
62 99 177
61 98 177
62 99 179
62 99 176
62 99 180
62 99 179
62 99 179
62 99 179
62 99 181
62 99 181
62 99 181
62 99 179
61 99 181
62 99 181
61 99 181
61 99 179
62 99 181
61 99 178
62 99 179
61 99 181
62 99 179
62 99 180
62 99 179
62 99 178
63 100 180
62 99 179
62 99 181
62 99 180
62 99 178
61 99 181
61 99 181
62 99 181
62 99 181
62 99 180
61 99 180
62 99 180
62 99 180
62 99 181
62 99 179
62 99 180
62 99 181
62 99 180
62 99 179
62 99 180
61 99 179
61 98 177
62 99 181
62 99 178
63 100 180
62 99 179
62 99 180
62 99 179
62 99 179
63 99 178
62 99 178
62 99 180
62 99 179
62 99 180
62 99 179
62 99 181
63 100 181
62 99 179
62 99 180
62 99 178
62 99 180
61 98 180
62 99 180
63 100 179
62 99 181
62 99 178
62 99 180
62 99 181
62 99 179
61 98 178
62 99 177
62 99 180
62 99 179
62 99 180
62 99 179
62 99 177
62 99 177
63 100 181
62 99 179
62 99 180
62 99 176
62 99 176
61 98 175
62 99 176
62 99 178
61 98 174
62 99 180
62 98 176
62 99 177
61 97 173
62 99 180
62 99 178
62 99 178
62 99 178
62 99 177
62 99 177
61 98 177
61 98 172
62 99 176
62 99 176
61 97 171
62 98 174
62 98 174
61 98 172
61 97 170
61 97 171
61 97 168
61 96 170
61 97 172
61 97 168
61 96 164
60 95 161
62 97 170
61 96 167
69 99 160
93 103 112
120 119 84
109 108 70
106 104 67
115 114 70
100 102 68
112 113 74
102 103 70
94 96 66
102 103 71
103 104 73
106 107 77
104 106 76
107 108 75
109 110 77
112 112 78
107 109 79
123 122 84
106 107 74
103 106 77
111 112 80
114 117 83
117 118 83
117 117 82
125 126 86
119 120 82
113 115 83
120 121 83
120 122 85
132 132 89
129 129 87
140 139 93
130 130 91
128 128 89
128 129 87
137 136 94
137 136 92
150 148 98
142 141 95
144 143 95
153 151 99
150 149 97
149 147 97
147 145 95
149 147 98
158 155 98
154 152 99
161 157 103
156 152 100
153 151 97
157 154 100
158 155 99
160 157 101
162 159 101
161 157 100
156 154 101
164 161 103
161 157 103
172 167 108
162 159 103
165 161 103
168 162 103
165 162 99
165 162 100
170 166 106
171 166 100
165 161 102
169 164 100
173 168 107
174 168 106
170 166 102
175 169 107
166 163 101
170 165 100
174 168 105
173 168 108
174 169 107
172 167 104
172 167 102
173 168 100
178 172 108
175 169 105
173 168 101
175 170 107
170 166 103
175 169 102
173 168 102
178 171 104
173 167 106
178 170 103
176 170 104
169 164 98
176 170 104
171 166 103
171 165 99
173 168 99
172 166 101
176 169 107
173 168 99
175 169 103
172 167 103
172 166 99
173 167 103
167 161 95
176 170 104
173 167 101
171 166 100
171 165 99
174 168 101
172 165 101
163 158 93
170 164 98
165 160 93
163 158 93
168 163 93
163 157 90
166 161 93
167 160 93
169 163 97
168 162 93
172 164 96
166 159 94
164 157 91
167 160 90
161 156 88
161 155 90
164 159 95
163 158 90
149 144 78
152 146 84
153 147 86
153 146 81
161 154 87
154 148 83
149 143 79
146 140 76
160 153 84
154 148 80
131 126 68
147 141 72
145 138 70
153 146 82
141 136 75
140 136 65
141 140 60
150 155 54
147 151 52
154 163 45
159 171 45
151 167 32
165 182 32
170 190 22
169 192 0
172 193 19
171 195 0
173 196 0
174 197 0
171 195 0
174 198 0
173 197 0
173 197 0
174 198 0
173 197 0
173 197 0
175 198 0
173 197 0
171 194 0
173 197 0
172 196 0
173 195 0
173 196 0
173 196 0
171 195 0
170 194 0
172 195 0
174 196 0
175 198 0
171 195 0
172 196 0
174 197 0
173 195 0
173 197 0
172 195 0
174 197 0
173 196 0
173 196 0
176 199 0
174 197 0
172 195 0
172 195 0
174 197 0
173 195 0
172 196 0
173 197 0
171 195 0
174 196 0
170 194 0
172 196 0
172 195 0
172 196 0
173 197 0
173 196 0
172 195 0
172 195 0
174 197 0
173 196 0
174 198 0
172 194 0
175 198 0
172 195 0
171 195 0
172 197 0
173 195 0
169 193 0
172 195 0
170 193 0
171 195 0
173 196 0
172 196 0
169 192 0
170 194 0
169 193 0
172 195 0
172 195 0
171 194 0
173 196 0
173 196 0
171 195 0
171 195 0
170 193 0
171 194 0
171 196 0
174 196 0
174 197 0
170 193 0
172 195 0
172 196 0
173 197 0
172 195 0
174 197 0
168 191 0
172 195 0
172 195 0
172 196 0
172 195 0
169 193 0
172 195 0
169 192 0
173 197 0
173 196 0
171 194 0
175 198 0
168 192 0
170 194 0
168 191 25
126 151 124
62 98 172
61 98 164
62 99 173
63 99 176
62 99 169
62 99 174
63 100 175
62 98 169
62 98 171
63 99 173
63 100 177
62 99 176
62 99 176
63 99 177
61 98 176
62 99 177
62 99 176
62 99 178
63 100 179
62 99 179
62 99 175
62 99 179
62 99 180
61 98 176
62 99 178
62 99 174
63 100 180
62 99 177
62 99 178
62 99 179
62 99 178
62 99 176
62 99 179
62 99 177
62 99 181
62 99 180
62 99 179
62 99 178
62 99 180
62 99 179
62 99 177
62 99 180
62 99 180
62 99 180
62 99 179
62 99 180
62 99 180
62 99 178
63 100 180
61 98 179
62 99 181
62 99 181
62 99 178
62 99 179
62 99 180
62 99 181
62 99 180
61 98 181
62 99 180
61 98 178
62 99 180
62 99 179
61 99 181
62 99 179
62 99 179
62 99 180
62 99 179
62 99 179
61 99 179
62 99 181
61 99 181
61 99 181
61 99 181
61 99 181
62 99 181
62 99 177
62 99 180
61 99 180
62 99 179
62 99 178
61 98 180
62 99 178
61 98 179
63 100 181
62 99 180
62 99 180
62 99 181
61 99 180
62 99 178
62 99 178
62 99 179
62 99 178
62 99 178
62 99 180
62 99 180
61 99 177
62 99 181
62 99 179
62 99 180
62 99 180
62 99 178
62 99 176
62 99 176
62 99 178
62 99 179
62 99 178
62 99 178
61 98 177
61 98 175
62 99 178
62 99 178
61 98 177
62 99 176
62 99 180
62 99 176
62 99 178
62 99 177
62 99 179
62 99 178
62 99 175
61 99 179
62 99 174
62 99 174
61 98 177
62 99 174
62 99 176
61 97 170
62 98 171
62 98 174
62 99 174
61 98 174
62 98 174
62 99 174
63 99 174
62 98 172
62 98 172
61 97 167
62 98 170
61 98 171
62 99 173
60 96 167
60 95 165
61 96 167
60 94 163
71 96 143
97 100 88
97 98 64
112 111 72
106 106 70
113 112 73
106 106 72
100 102 72
104 104 69
109 110 76
108 108 77
99 100 67
108 109 73
109 111 81
118 117 81
105 107 76
96 100 73
97 100 74
99 102 73
118 120 86
123 123 84
103 106 77
117 119 84
116 117 83
121 121 85
124 125 85
120 121 84
121 123 87
132 131 88
123 125 90
123 125 88
133 133 91
138 137 92
140 139 95
138 138 92
143 142 95
147 145 99
144 143 98
134 134 91
143 142 94
148 146 99
133 133 91
147 145 93
155 152 101
156 153 103
145 144 94
145 144 96
157 154 99
154 152 99
152 150 98
159 156 100
163 159 102
152 150 97
156 153 97
154 151 94
162 160 104
156 154 96
161 157 103
159 156 99
167 163 105
167 163 103
166 162 102
170 166 104
168 163 105
166 163 104
167 162 98
171 167 104
172 166 105
171 165 103
167 163 100
167 163 99
173 168 108
172 167 104
173 168 104
171 166 104
171 166 102
169 164 98
175 170 108
176 170 105
172 167 102
174 169 104
173 168 104
172 167 98
175 169 101
173 167 100
176 170 104
174 168 102
174 168 102
175 169 104
174 169 105
174 168 103
170 165 97
174 168 99
177 170 104
172 167 100
172 166 104
171 166 99
173 167 101
172 167 102
173 167 101
170 165 103
169 163 99
173 167 98
172 166 99
163 159 94
176 169 108
167 161 95
165 160 92
171 166 99
170 164 97
172 165 99
167 161 93
168 161 93
164 159 94
168 163 94
166 159 90
166 161 90
165 159 90
168 161 94
162 156 90
159 154 84
160 155 87
165 159 91
166 159 94
167 160 95
158 153 86
160 153 87
161 155 88
157 152 87
156 150 82
156 149 80
160 153 84
155 149 82
150 144 73
155 148 83
147 141 74
151 145 71
151 145 75
145 139 76
147 140 76
154 147 80
141 135 69
142 138 61
145 140 68
136 135 58
132 132 49
151 159 49
151 160 44
164 176 47
163 177 37
168 184 34
166 186 22
170 189 22
169 190 0
172 196 0
173 196 0
173 197 0
174 197 0
174 197 0
172 195 0
173 197 0
173 197 0
172 196 0
172 196 0
172 196 0
172 196 0
171 195 0
173 196 0
174 196 0
173 197 0
172 195 0
171 195 0
175 197 0
172 195 0
175 197 0
173 196 0
174 198 0
169 193 0
174 197 0
173 197 0
174 197 0
176 198 0
172 195 0
174 198 0
174 197 0
172 195 0
172 196 0
171 195 0
174 197 0
174 196 0
172 195 0
174 196 0
173 196 0
171 194 0
172 196 0
173 197 0
174 197 0
171 194 0
174 197 0
172 196 0
170 194 0
173 196 0
174 197 0
172 196 0
173 197 0
172 195 0
171 195 0
174 197 0
174 198 0
173 196 0
171 194 0
172 195 0
173 196 0
169 193 0
174 197 0
173 196 0
172 196 0
171 194 0
172 195 0
173 196 0
170 194 0
174 197 0
171 195 0
174 197 0
169 193 0
170 194 0
172 196 0
172 196 0
173 196 0
175 198 0
171 195 0
176 198 0
171 196 0
170 194 0
173 197 0
170 194 0
171 195 0
172 196 0
168 191 0
170 194 0
170 193 0
170 194 0
171 194 0
171 194 0
171 193 0
173 196 0
171 194 0
169 193 0
167 191 0
169 192 0
171 195 0
170 194 0
169 193 0
170 193 0
147 171 86
68 103 167
62 99 173
62 99 168
63 99 173
63 99 173
63 99 176
62 99 175
62 98 170
62 99 174
62 99 172
63 99 175
62 99 172
62 99 176
62 99 175
62 99 175
62 99 175
62 99 176
62 99 177
62 99 174
62 99 174
62 99 177
61 98 176
62 99 176
62 99 179
61 98 178
62 99 179
62 99 179
62 99 178
62 99 178
62 99 181
62 98 174
62 99 179
62 99 179
62 99 180
62 99 181
61 99 178
62 99 181
62 99 178
62 99 180
62 99 177
62 99 178
62 99 180
62 99 179
62 99 177
62 99 179
62 99 179
62 99 179
62 99 181
62 99 181
62 99 178
62 99 179
62 99 179
62 99 180
62 99 180
62 99 181
62 99 180
62 99 179
62 100 181
62 99 180
62 99 181
62 99 180
62 99 181
61 99 180
62 99 180
62 99 180
62 99 180
62 99 179
62 99 179
62 99 180
62 99 180
62 99 180
62 99 179
62 99 179
62 99 181
61 99 180
61 99 179
61 98 180
62 99 181
61 99 179
62 99 180
62 99 181
61 98 176
62 99 179
63 100 180
62 99 178
62 99 179
62 99 178
62 99 179
62 99 181
62 99 180
61 98 176
62 99 177
62 99 179
62 99 180
62 99 179
62 99 180
62 99 177
62 99 178
62 99 179
62 99 178
61 98 177
62 99 178
63 100 181
62 99 179
62 99 178
62 98 173
62 99 176
62 99 179
62 99 174
62 98 176
61 98 176
61 99 177
62 99 178
61 98 176
63 99 179
62 99 179
62 99 175
62 99 174
62 99 178
63 99 174
62 99 175
62 99 179
62 99 178
62 98 171
62 99 175
62 99 178
62 98 171
62 99 175
62 99 177
62 99 176
61 98 170
61 97 172
62 99 177
61 96 166
62 99 176
62 98 172
61 97 173
61 98 171
60 95 161
61 96 169
60 96 170
61 96 165
61 97 168
61 95 163
60 94 158
63 95 161
89 103 121
94 99 78
107 107 68
102 103 66
116 115 76
100 100 66
99 99 68
100 100 70
97 99 70
103 105 74
109 110 77
102 104 73
98 101 71
97 101 75
107 107 74
114 114 78
101 103 73
109 110 77
97 98 68
111 113 80
112 114 78
117 119 83
121 122 87
119 121 85
124 125 85
128 129 90
131 130 90
122 123 86
128 128 88
129 129 89
126 126 86
130 129 88
132 132 89
132 132 89
145 143 96
138 138 90
142 141 94
149 147 98
149 147 99
153 150 95
140 140 93
150 148 97
152 150 98
143 142 92
153 151 98
140 139 91
153 150 96
151 149 97
149 146 98
160 157 100
160 157 101
155 153 99
159 156 98
162 159 100
162 159 99
157 154 98
166 161 101
163 159 100
169 164 102
168 164 104
162 159 98
167 163 101
161 158 102
164 160 102
166 161 100
170 165 102
168 164 104
172 167 103
171 166 101
173 167 105
172 167 104
172 166 100
174 169 103
175 169 106
176 170 104
167 163 97
175 169 104
174 169 102
173 168 101
177 171 105
173 168 104
176 170 106
172 167 101
174 170 106
176 170 106
176 170 103
174 169 105
175 170 104
174 168 102
173 168 103
172 167 100
173 167 99
174 168 99
172 167 101
174 168 103
174 168 103
170 165 97
173 167 99
173 167 99
170 164 97
172 165 95
168 164 96
172 165 99
163 158 92
170 164 95
164 159 91
164 159 94
163 158 91
171 165 99
168 163 93
169 163 98
168 162 93
165 159 93
168 162 96
163 156 88
171 164 94
162 156 88
160 153 90
166 159 96
161 155 87
166 160 91
162 157 88
159 153 85
160 155 84
163 156 90
160 154 88
157 151 81
156 151 87
161 155 87
152 146 77
150 145 79
153 148 78
151 146 75
156 148 83
155 148 85
142 137 75
150 144 76
153 146 77
152 146 78
152 146 75
139 134 66
138 133 64
148 143 71
137 135 54
146 146 63
152 158 57
148 160 39
156 171 36
160 176 32
159 175 32
170 191 16
167 186 22
171 193 0
175 198 0
172 196 0
172 195 0
175 198 0
174 197 0
172 195 0
174 197 0
175 198 0
174 197 0
173 196 0
174 197 0
174 197 0
172 195 0
172 195 0
174 197 0
175 198 0
173 197 0
172 195 0
175 197 0
170 194 0
174 197 0
173 197 0
173 197 0
172 195 0
170 193 0
174 197 0
173 196 0
173 196 0
173 197 0
173 195 0
173 196 0
171 195 0
171 195 0
170 194 0
167 191 0
173 196 0
172 196 0
172 196 0
172 196 0
175 197 0
173 197 0
171 195 0
171 194 0
172 196 0
169 194 0
172 195 0
171 195 0
173 195 0
171 195 0
175 198 0
171 195 0
172 195 0
172 195 0
175 198 0
174 197 0
173 197 0
175 198 0
170 194 0
172 196 0
170 194 0
174 198 0
173 196 0
171 194 0
171 195 0
171 195 0
170 194 0
171 195 0
173 196 0
172 196 0
173 196 0
170 194 0
171 194 0
172 196 0
172 195 0
172 195 0
172 195 0
173 196 0
171 195 0
171 195 0
172 196 0
174 197 0
169 193 0
172 196 0
172 196 0
172 195 0
172 196 0
173 196 0
170 194 0
171 194 0
173 196 0
173 196 0
171 194 0
174 197 0
172 195 0
171 194 0
171 195 0
171 195 0
166 189 0
173 196 0
158 182 67
90 120 154
62 98 167
63 99 169
62 98 166
63 99 175
63 100 175
62 99 173
62 99 169
63 100 181
61 98 172
62 99 176
62 99 177
62 99 179
62 99 178
63 99 178
62 98 171
63 99 173
62 99 178
62 99 175
62 99 175
62 99 180
62 98 174
62 99 175
62 99 178
62 99 178
63 99 180
63 100 178
62 99 180
62 99 176
62 99 176
62 99 180
62 99 178
62 99 179
62 99 179
62 99 180
62 99 181
62 99 179
62 99 180
63 100 181
62 99 180
63 100 180
62 99 180
62 99 179
61 98 180
62 99 177
62 99 180
62 99 180
61 99 178
62 99 179
61 99 179
61 99 180
62 99 178
61 99 179
62 99 180
62 99 178
62 99 179
62 99 181
62 99 180
62 99 178
63 100 181
62 99 181
63 100 180
62 99 178
62 99 180
62 99 179
61 99 180
62 99 179
62 99 179
62 99 180
62 99 177
62 99 181
62 99 177
62 99 178
62 99 178
62 99 179
62 99 181
62 99 177
62 99 181
62 99 181
62 99 178
62 99 180
62 99 180
61 99 178
62 99 181
62 99 181
62 99 180
62 99 181
62 99 177
63 99 180
61 99 179
62 99 180
62 99 178
62 99 178
62 99 178
62 99 179
61 98 179
62 99 179
62 99 179
61 98 178
62 99 177
62 99 180
61 99 178
62 99 181
61 99 179
62 99 180
61 98 176
62 99 179
62 99 180
62 99 179
63 99 178
62 99 178
61 98 176
62 99 179
62 99 179
61 98 172
62 99 174
62 99 175
62 99 178
62 99 178
62 99 177
61 98 169
62 99 176
62 99 175
61 98 174
61 99 177
61 98 177
62 99 176
62 99 174
62 99 174
62 98 171
62 99 176
62 98 173
62 99 176
62 99 174
62 98 174
61 97 170
62 98 173
62 98 171
61 97 164
61 97 170
62 98 174
60 95 163
61 96 165
60 95 165
60 96 169
60 96 162
60 94 161
59 94 159
95 104 110
98 98 70
117 116 76
85 86 59
110 109 73
95 96 64
90 92 64
88 91 66
106 107 74
91 93 62
91 95 66
109 108 74
101 102 74
102 103 74
104 106 75
104 105 74
111 112 79
108 109 78
106 108 78
114 116 83
112 113 78
117 117 81
124 124 85
112 114 82
115 118 82
127 128 88
129 128 86
120 122 85
135 134 91
127 127 86
127 127 86
127 128 87
143 141 95
134 134 92
142 140 95
138 137 92
132 133 86
139 138 91
137 137 90
146 144 96
146 144 93
154 151 97
153 150 97
144 142 90
154 151 98
155 153 101
145 144 93
157 154 100
155 153 99
154 152 95
158 155 100
162 158 101
160 157 100
157 155 99
160 157 99
163 159 97
168 163 103
167 163 104
162 158 97
165 161 101
163 159 102
170 165 103
167 163 105
167 163 100
167 163 99
171 166 100
168 164 103
169 164 102
171 166 105
169 165 103
170 166 104
170 166 102
173 167 98
172 166 98
171 166 103
175 170 104
172 167 100
174 169 105
177 171 108
173 168 103
169 164 99
171 166 101
175 168 101
172 166 102
172 167 102
175 169 103
169 164 97
171 165 100
176 170 101
171 166 103
171 165 99
174 167 104
172 167 99
169 163 99
176 170 104
173 166 101
171 164 99
173 167 103
169 164 100
167 163 96
169 164 98
172 166 100
170 165 100
174 167 99
168 161 92
172 166 94
168 162 97
169 162 96
167 160 95
167 161 92
169 163 93
160 155 90
167 161 95
159 154 87
166 159 88
163 158 89
160 156 85
165 159 90
161 156 88
161 156 87
164 158 89
161 156 91
160 154 87
163 157 93
157 151 87
164 158 90
158 152 84
155 150 80
155 150 83
155 149 80
155 149 80
161 154 85
157 151 72
153 147 77
152 146 74
140 136 66
147 141 75
146 140 75
147 140 75
140 133 68
137 132 62
143 139 65
139 140 56
148 151 60
149 157 45
148 158 44
158 169 41
158 171 37
158 175 25
167 186 30
169 188 19
171 193 16
175 198 0
171 195 0
172 196 0
173 197 0
171 195 0
172 196 0
174 197 0
172 195 0
173 197 0
171 195 0
174 197 0
172 196 0
170 194 0
174 198 0
171 194 0
170 195 0
171 195 0
174 197 0
171 195 0
175 198 0
172 195 0
172 196 0
174 196 0
175 198 0
174 197 0
173 196 0
175 198 0
174 196 0
172 196 0
172 196 0
170 194 0
174 198 0
171 195 0
170 193 0
171 195 0
173 196 0
172 195 0
174 197 0
173 196 0
171 195 0
173 196 0
171 195 0
172 196 0
171 195 0
173 195 0
173 197 0
173 196 0
173 195 0
172 195 0
173 196 0
171 194 0
174 197 0
170 193 0
170 193 0
173 196 0
173 196 0
170 193 0
173 197 0
172 195 0
171 195 0
173 196 0
172 195 0
170 194 0
172 195 0
170 193 0
172 196 0
170 194 0
171 194 0
171 195 0
172 196 0
170 194 0
173 196 0
173 196 0
171 194 0
174 197 0
173 195 0
172 196 0
171 195 0
171 195 0
170 193 0
169 192 0
172 194 0
170 194 0
173 196 0
173 196 0
171 195 0
171 195 0
169 192 0
167 190 0
171 194 0
171 194 0
171 194 0
171 194 0
171 195 0
171 194 0
171 195 0
173 196 0
171 194 0
167 190 18
121 147 126
62 98 167
62 98 170
62 99 171
62 98 165
62 98 170
63 99 174
63 99 174
63 99 177
62 99 173
62 99 173
62 98 169
62 99 173
62 99 173
62 99 176
62 99 175
62 99 177
62 99 179
62 99 179
62 99 177
63 99 176
63 99 177
63 100 179
62 99 177
63 99 178
62 99 180
62 99 176
62 99 177
62 99 179
63 100 178
62 99 175
61 98 173
61 99 177
62 99 180
62 99 180
63 100 178
62 99 179
62 99 179
62 99 180
62 99 176
63 100 181
61 99 179
62 99 181
62 99 178
62 99 181
62 99 178
62 99 179
62 99 179
63 100 180
62 99 180
63 99 175
61 98 179
62 99 179
62 99 180
62 99 180
62 99 179
63 100 179
62 99 178
62 99 180
62 99 181
62 99 180
62 99 181
62 99 179
62 99 178
61 99 180
62 99 180
62 99 179
62 99 180
62 99 181
61 98 178
62 99 181
62 99 181
62 99 179
62 99 177
61 98 179
62 99 176
62 99 181
62 99 180
61 99 179
62 99 180
62 99 177
61 98 178
62 99 179
62 99 177
62 99 179
62 99 178
62 99 177
61 98 180
62 99 179
62 99 180
62 99 179
62 99 179
62 99 178
62 99 180
63 100 179
62 99 178
62 99 179
62 99 179
62 99 173
62 99 180
62 99 178
62 99 179
62 99 178
61 98 173
62 99 179
62 99 180
62 99 174
62 99 177
62 99 179
61 98 179
62 99 175
62 99 177
63 100 179
62 99 174
62 99 176
62 99 175
62 99 180
62 98 175
62 99 177
62 99 177
63 99 178
61 98 171
62 99 172
62 99 176
61 98 175
62 99 176
62 99 178
62 99 176
62 98 174
61 98 171
62 99 177
61 98 173
63 100 179
61 98 176
62 98 170
61 97 168
62 98 174
61 97 170
63 99 173
61 97 164
61 98 174
61 96 166
61 98 169
62 98 176
62 98 172
61 97 168
62 97 166
59 93 160
59 94 162
64 90 136
98 105 105
105 105 71
100 101 66
94 95 66
108 108 71
95 97 68
93 95 65
98 97 65
113 114 78
86 90 66
95 98 68
105 107 76
103 105 74
98 100 71
95 100 75
107 109 77
97 101 74
109 111 78
107 109 77
115 115 81
113 114 81
116 117 81
112 114 78
115 117 83
109 112 80
119 121 84
123 124 85
126 127 86
134 133 90
128 128 84
131 131 88
128 128 87
145 143 94
144 142 97
145 144 96
140 139 89
132 133 89
134 134 94
142 141 92
145 143 94
146 145 98
145 144 95
154 151 99
153 151 98
154 151 101
157 153 96
159 156 97
157 154 95
156 153 95
159 156 99
159 156 103
157 153 96
158 156 101
164 160 97
153 151 99
163 160 101
167 162 101
163 159 99
168 164 105
158 156 99
167 162 103
165 161 102
175 169 105
168 164 102
168 164 104
169 164 102
174 168 108
174 168 105
171 166 100
169 165 99
174 168 106
175 169 105
174 168 105
172 168 101
175 169 102
173 167 102
170 166 104
174 168 101
175 169 101
179 172 107
174 168 102
178 171 104
173 168 103
175 170 104
176 169 102
173 167 101
172 167 101
173 166 102
173 167 101
175 169 102
176 169 104
173 167 98
169 164 97
171 165 101
175 168 101
171 165 98
171 164 99
173 167 99
174 167 99
173 167 100
171 165 99
174 168 101
169 164 98
164 158 92
168 163 95
172 166 98
167 161 93
168 161 93
163 158 93
171 165 95
165 159 93
162 156 92
166 160 94
170 163 97
167 161 94
165 158 93
166 160 90
165 159 90
161 155 87
161 155 89
158 153 87
169 161 92
159 154 84
168 162 95
159 152 85
160 154 80
160 154 84
156 150 80
153 148 75
154 148 84
155 148 80
143 137 75
151 145 73
153 147 80
149 143 75
153 148 77
142 135 71
143 138 69
151 145 78
150 144 69
140 139 59
138 138 59
145 150 49
146 152 51
148 156 49
158 170 44
159 174 36
167 184 30
167 186 19
173 194 16
169 191 0
174 197 0
173 197 0
174 198 0
175 196 0
174 197 0
172 196 0
173 197 0
174 197 0
173 196 0
172 196 0
173 197 0
172 196 0
172 195 0
171 195 0
172 195 0
172 195 0
172 196 0
173 197 0
173 196 0
171 195 0
174 197 0
173 197 0
173 197 0
173 196 0
173 196 0
173 196 0
172 195 0
174 197 0
173 196 0
171 194 0
173 197 0
174 197 0
171 195 0
172 196 0
174 196 0
174 197 0
172 196 0
174 198 0
170 193 0
171 194 0
173 197 0
174 197 0
170 193 0
174 197 0
172 196 0
172 195 0
172 196 0
172 196 0
172 195 0
172 194 0
171 195 0
172 195 0
171 195 0
174 197 0
169 194 0
173 196 0
172 195 0
172 196 0
174 196 0
171 194 0
173 196 0
171 194 0
172 195 0
171 194 0
174 197 0
170 193 0
171 195 0
171 194 0
167 191 0
174 197 0
172 196 0
171 194 0
172 195 0
172 196 0
173 196 0
170 193 0
173 196 0
172 195 0
172 195 0
173 196 0
169 194 0
170 193 0
171 195 0
169 192 0
169 193 0
172 195 0
172 195 0
165 190 0
169 192 0
173 196 0
170 194 0
166 190 0
171 195 0
171 195 0
170 193 0
170 193 0
172 195 0
174 197 0
143 167 99
66 102 166
62 98 165
62 99 169
63 99 174
62 98 172
62 98 169
63 100 176
62 99 174
62 99 170
62 98 168
62 99 173
62 99 175
62 99 177
62 99 172
62 99 177
62 99 175
62 99 173
62 99 176
62 99 174
62 99 179
62 99 175
62 99 178
62 99 177
62 99 177
61 98 173
62 99 179
61 99 177
62 99 178
62 99 177
62 99 177
62 99 177
62 99 179
62 99 176
62 99 178
62 99 180
62 99 177
62 99 178
63 99 178
62 99 180
62 99 178
62 99 179
62 99 178
62 99 181
62 99 178
62 99 177
62 99 180
62 99 180
62 99 179
62 99 180
62 99 179
61 98 178
61 99 178
62 99 181
63 99 178
62 99 180
62 99 180
62 99 181
62 99 181
62 99 178
62 99 178
62 99 180
62 99 179
62 99 180
62 98 175
62 99 178
62 99 180
62 99 178
62 99 180
62 99 178
63 99 178
61 99 179
63 99 179
62 99 180
62 99 175
62 99 179
62 99 178
62 99 180
62 99 180
62 99 178
62 99 178
62 99 178
62 99 177
61 98 175
62 99 180
61 98 178
62 99 178
62 99 179
62 99 180
62 99 180
62 99 177
62 99 175
62 99 175
62 99 177
61 99 180
62 99 179
63 99 177
62 99 177
61 99 177
62 99 180
62 99 176
63 100 181
62 99 177
62 99 174
62 99 176
62 99 181
62 99 179
62 99 178
62 99 180
61 99 178
62 99 178
62 99 181
62 99 176
62 99 178
62 99 178
62 99 178
61 99 179
61 98 175
63 99 177
62 99 178
63 99 177
61 97 174
63 99 177
62 99 173
62 98 176
63 99 175
62 99 173
63 99 175
62 99 173
62 98 168
61 98 169
61 98 172
61 98 175
62 98 175
63 99 177
62 99 173
62 98 171
62 99 173
61 98 173
61 98 170
62 98 170
62 98 174
61 97 170
62 98 169
61 97 171
62 97 165
61 97 167
61 97 168
61 96 167
60 96 165
59 92 157
74 95 140
89 92 68
94 94 58
104 105 67
99 100 69
93 94 63
82 86 60
82 86 61
89 90 65
96 99 72
101 102 70
100 102 73
89 93 66
102 104 74
105 108 76
103 105 75
100 102 74
101 105 77
94 97 69
111 112 79
105 109 79
112 114 81
114 116 80
115 116 81
118 119 84
118 121 86
124 125 85
113 115 80
132 132 89
127 126 84
142 141 93
130 129 84
122 124 87
132 131 90
129 128 87
137 136 90
142 140 94
139 137 90
134 133 85
149 146 97
136 136 90
148 146 93
146 145 96
147 145 95
153 149 96
149 147 96
155 152 99
149 147 96
160 156 97
153 151 96
159 156 101
161 158 99
160 157 102
154 152 98
167 162 99
163 159 98
168 163 99
167 162 104
163 159 96
169 163 101
164 160 98
164 160 98
167 162 99
167 163 101
161 158 101
169 164 101
167 163 100
168 162 97
172 167 103
170 165 99
173 168 103
173 168 102
174 168 101
168 163 98
172 166 102
171 166 97
172 167 100
173 166 100
175 169 100
173 168 99
173 167 106
174 167 102
174 167 101
176 169 101
172 167 96
171 166 99
175 168 102
174 168 100
174 168 105
174 168 103
176 169 101
174 168 103
171 165 98
175 168 102
174 168 99
173 167 99
170 164 99
172 165 98
175 169 105
169 163 95
172 166 99
170 164 96
174 167 103
168 162 97
165 160 95
171 165 94
170 164 95
168 162 92
166 160 95
161 155 87
169 162 91
166 160 93
165 159 89
167 160 89
162 157 90
160 154 88
159 154 84
158 152 88
161 155 84
160 154 87
168 160 88
164 159 86
159 154 88
162 155 85
160 155 86
162 155 84
153 147 78
161 154 87
155 148 84
150 144 79
154 148 82
142 137 73
153 147 75
148 141 75
142 137 72
145 139 66
144 139 68
146 140 66
150 144 74
143 138 68
135 131 66
148 147 64
142 146 52
151 155 53
149 158 45
155 169 32
168 181 44
164 182 25
163 182 11
171 192 0
173 196 0
169 193 0
173 196 0
174 198 0
173 196 0
173 196 0
173 197 0
171 194 0
174 197 0
172 195 0
173 197 0
173 196 0
171 194 0
171 195 0
173 196 0
170 194 0
172 196 0
173 197 0
172 196 0
174 198 0
171 195 0
173 196 0
172 196 0
175 198 0
173 196 0
173 196 0
173 197 0
172 195 0
173 196 0
172 195 0
174 198 0
172 196 0
171 195 0
173 196 0
173 196 0
169 193 0
172 196 0
174 197 0
172 194 0
173 196 0
172 196 0
173 196 0
172 196 0
172 196 0
173 197 0
173 196 0
174 196 0
171 194 0
173 196 0
174 197 0
173 197 0
173 196 0
171 194 0
173 195 0
173 196 0
172 196 0
167 191 0
173 196 0
171 195 0
172 196 0
172 196 0
170 194 0
173 197 0
174 196 0
171 195 0
171 194 0
173 196 0
172 195 0
168 193 0
170 193 0
170 193 0
173 196 0
169 192 0
172 195 0
169 193 0
172 195 0
172 196 0
172 195 0
170 193 0
172 195 0
173 197 0
170 194 0
173 197 0
171 195 0
171 194 0
173 196 0
173 196 0
171 195 0
172 196 0
169 193 0
171 194 0
174 197 0
171 194 0
174 197 0
173 196 0
171 194 0
170 193 0
171 194 0
161 185 47
92 122 154
62 98 167
62 98 163
62 98 162
61 98 168
62 98 168
62 99 175
62 98 169
62 98 169
62 99 173
62 98 171
62 99 177
62 99 172
62 99 174
63 100 174
62 99 174
62 98 171
63 99 177
62 99 176
62 99 179
62 99 175
62 99 176
62 99 176
62 99 178
62 99 176
62 99 180
62 99 177
62 99 180
62 99 178
62 99 176
62 99 177
62 99 178
62 99 177
63 100 179
62 99 178
62 99 176
62 99 180
62 99 180
62 99 177
63 100 181
62 99 180
62 99 175
62 99 180
62 99 179
62 99 181
63 100 180
62 99 178
62 99 178
62 99 181
62 99 178
62 99 178
62 99 179
62 99 178
62 99 180
62 99 180
61 99 180
62 99 181
62 99 179
62 99 180
62 99 181
63 100 180
62 99 180
62 99 180
62 99 181
62 99 181
62 99 178
62 99 181
62 99 179
62 99 178
62 99 179
62 99 180
62 99 177
61 99 180
62 99 178
62 99 179
62 99 178
62 99 179
62 99 176
61 98 180
62 99 178
62 99 181
61 98 175
62 99 175
62 99 180
62 99 181
62 99 178
62 99 179
62 99 178
62 99 179
62 99 179
62 99 178
62 99 180
62 99 178
62 99 179
62 99 176
62 99 180
62 99 176
62 99 178
62 99 180
62 99 179
62 99 178
63 99 177
62 99 177
62 99 179
61 98 174
61 98 176
62 99 179
62 99 177
62 99 176
62 99 176
62 99 176
62 99 177
61 98 172
63 99 175
62 99 176
61 98 175
62 99 177
62 99 176
62 99 178
62 99 176
61 97 174
62 99 176
63 100 179
61 98 176
62 98 172
63 99 175
61 98 173
61 98 174
62 98 172
62 98 173
62 98 171
61 98 172
62 98 174
62 98 170
61 98 174
62 99 175
62 98 175
61 98 175
62 98 169
62 98 172
62 99 173
62 99 174
60 96 166
61 96 165
61 97 165
61 97 169
61 97 169
60 94 162
61 95 163
61 96 160
60 94 158
64 95 152
85 97 111
87 90 67
96 96 64
85 86 58
96 97 66
93 95 65
90 92 66
94 97 70
88 90 62
74 78 58
85 88 63
83 88 68
103 105 73
108 110 77
95 98 72
112 115 84
102 105 75
100 104 74
110 113 80
107 111 81
101 104 78
119 120 83
112 115 80
116 118 84
131 130 86
120 120 82
116 117 81
132 132 89
131 130 86
134 134 91
126 127 83
128 128 85
128 129 84
134 133 89
132 132 88
140 139 89
147 144 90
145 143 92
140 139 95
149 146 96
146 145 93
138 136 89
154 151 95
153 150 96
158 155 99
161 157 101
150 148 94
150 147 94
159 156 100
161 158 100
163 159 98
157 154 96
157 154 97
160 157 94
161 157 97
164 159 96
161 157 98
168 163 103
166 161 99
162 158 98
163 159 98
176 170 104
167 163 99
170 165 104
170 165 101
171 166 99
170 165 99
171 166 103
173 167 101
164 160 95
169 164 99
174 169 103
174 169 101
175 170 105
169 165 98
171 165 96
174 168 105
173 168 99
172 167 102
169 164 97
172 167 101
175 169 103
171 166 95
175 169 99
176 170 103
174 168 102
168 163 94
171 165 96
176 169 104
167 162 93
169 164 94
172 166 99
173 166 95
170 164 98
173 168 98
175 168 96
172 165 97
173 167 101
167 161 95
172 166 97
169 163 97
173 166 99
171 165 97
156 150 87
166 161 95
169 162 95
170 164 96
169 163 95
171 164 95
169 163 90
168 161 93
172 166 95
162 156 87
166 159 95
165 159 86
167 160 93
167 160 94
160 154 84
157 151 85
160 154 87
165 158 88
158 152 87
163 157 89
160 154 82
165 160 89
155 149 80
161 154 87
158 152 84
159 152 83
158 151 86
157 151 80
149 144 71
148 141 73
148 143 76
147 141 77
148 141 76
142 137 70
146 140 65
130 125 62
136 134 57
145 145 61
144 148 51
151 156 53
156 163 54
149 161 39
155 170 25
167 183 32
170 190 22
169 190 16
173 194 0
173 196 0
175 198 0
172 195 0
173 197 0
174 198 0
176 198 0
173 197 0
174 196 0
166 190 0
172 195 0
170 194 0
171 193 0
174 197 0
173 197 0
171 195 0
172 195 0
172 194 0
174 197 0
173 196 0
173 197 0
173 196 0
175 197 0
171 194 0
172 196 0
173 197 0
170 194 0
170 194 0
173 197 0
175 197 0
172 196 0
172 196 0
168 192 0
173 197 0
173 196 0
173 197 0
174 197 0
171 194 0
174 197 0
173 197 0
170 194 0
169 192 0
174 197 0
171 194 0
170 194 0
174 197 0
171 194 0
171 194 0
173 197 0
174 197 0
172 195 0
172 196 0
172 195 0
170 192 0
172 195 0
173 197 0
171 195 0
172 196 0
172 196 0
172 195 0
170 194 0
170 193 0
174 198 0
171 195 0
171 194 0
171 194 0
171 194 0
173 196 0
172 194 0
172 196 0
171 194 0
171 195 0
173 196 0
174 197 0
168 191 0
171 195 0
174 197 0
172 195 0
174 197 0
173 197 0
171 194 0
171 195 0
173 196 0
172 196 0
171 195 0
172 195 0
172 195 0
170 194 0
170 192 0
169 191 0
171 194 0
171 193 0
167 190 0
168 192 0
172 196 0
171 195 0
171 194 0
170 193 18
108 135 133
62 99 169
62 99 167
62 99 171
62 98 164
61 98 165
61 97 165
61 97 164
62 98 171
62 99 174
62 98 168
62 99 173
62 99 175
62 99 173
62 99 175
63 100 178
62 99 176
62 99 174
62 99 173
62 99 178
62 99 172
62 99 173
62 99 178
62 99 173
61 98 177
62 99 178
62 99 178
62 99 178
62 99 177
63 99 179
63 99 178
63 100 181
63 99 177
63 100 179
61 98 177
62 99 174
61 98 177
62 99 179
62 99 177
62 99 178
62 99 178
62 99 177
62 99 179
62 99 181
62 99 176
62 99 177
62 99 178
62 99 180
62 99 176
62 99 178
62 99 176
62 99 181
62 99 181
62 99 181
62 99 180
62 99 179
62 99 177
62 99 181
62 99 179
62 99 180
62 99 180
62 99 179
62 99 179
62 99 180
62 99 179
62 99 179
63 100 181
62 99 178
62 99 181
62 99 179
62 99 180
62 99 178
62 99 180
62 99 181
61 99 178
62 99 177
62 99 179
62 99 179
62 99 179
62 99 179
61 99 176
62 99 179
62 99 180
62 99 179
62 99 180
62 99 178
62 99 179
62 99 178
62 99 177
62 99 176
61 99 178
62 99 176
61 99 180
62 99 175
62 99 177
62 99 179
62 99 179
62 99 180
62 99 174
62 99 177
62 99 177
61 98 174
62 99 179
62 99 179
62 99 175
63 99 178
62 99 179
62 99 177
63 99 177
62 99 176
62 99 177
62 99 178
62 99 175
61 98 179
62 99 175
63 99 175
62 99 177
62 99 176
62 99 178
62 99 178
62 99 175
62 99 176
62 99 178
62 99 176
62 98 173
61 98 173
62 98 174
61 98 173
62 98 173
63 99 174
62 99 176
61 97 170
62 98 173
62 98 170
62 98 171
61 98 170
62 98 169
61 98 170
61 96 167
62 98 175
61 98 170
63 99 174
61 97 168
62 98 170
61 97 168
61 98 171
61 97 167
61 96 166
61 96 169
61 96 165
61 95 165
60 95 158
60 93 159
77 100 151
77 85 84
87 89 64
87 88 59
70 75 57
79 84 62
92 94 65
93 94 65
90 93 65
89 92 63
107 108 73
96 100 73
91 95 70
98 102 73
88 92 68
97 99 70
96 99 71
98 101 70
90 95 70
111 112 78
103 107 75
115 117 81
122 123 85
114 115 78
109 110 78
119 121 83
119 121 83
122 123 86
124 124 84
138 137 91
122 123 84
121 122 82
130 131 88
140 139 91
128 129 84
138 137 91
143 142 93
148 146 97
144 141 91
141 140 91
144 141 91
153 151 96
156 152 98
150 147 93
158 154 95
149 146 94
158 154 94
153 150 95
154 151 96
157 153 96
161 157 97
162 158 99
159 156 96
167 162 102
162 158 98
165 162 101
160 157 97
169 164 104
167 163 99
168 163 93
165 161 97
163 159 98
166 162 100
169 164 97
164 161 105
167 162 99
169 164 94
171 165 101
172 166 98
170 165 102
173 168 102
170 165 98
173 168 101
169 164 96
172 167 102
174 168 103
174 168 100
174 168 103
176 170 106
175 169 101
173 168 103
174 168 102
173 167 99
174 168 99
170 165 97
178 171 104
176 170 104
170 165 95
169 164 99
169 164 94
172 166 99
173 167 97
171 164 97
173 166 101
177 170 103
176 169 101
171 164 94
172 166 97
171 165 95
171 164 96
173 167 99
166 160 87
173 166 97
165 159 93
173 166 98
168 161 90
168 161 95
170 163 95
165 160 92
166 160 93
166 159 90
164 158 90
168 161 91
164 158 88
164 158 93
163 155 89
167 160 91
161 154 85
157 152 83
157 152 81
159 154 85
156 150 84
154 148 84
162 156 87
154 148 79
157 151 77
162 155 84
153 147 80
156 150 84
161 154 81
153 146 81
151 145 77
147 141 75
149 143 75
148 142 75
143 137 68
144 139 65
144 139 69
135 130 64
139 136 58
128 132 48
151 152 60
148 156 48
154 164 49
153 167 30
164 181 34
160 176 30
163 182 19
171 192 0
174 195 16
173 197 0
169 193 0
172 196 0
172 196 0
172 195 0
170 194 0
173 196 0
173 196 0
171 194 0
173 197 0
168 192 0
170 194 0
171 195 0
172 195 0
174 197 0
172 197 0
174 197 0
171 195 0
173 196 0
173 197 0
174 197 0
174 197 0
173 196 0
171 194 0
171 195 0
172 196 0
175 198 0
174 197 0
172 196 0
173 196 0
172 196 0
170 193 0
172 195 0
170 194 0
171 194 0
173 196 0
173 196 0
174 196 0
173 196 0
170 194 0
173 196 0
170 194 0
171 194 0
174 198 0
175 198 0
171 195 0
171 195 0
172 196 0
173 196 0
167 191 0
170 193 0
172 195 0
170 193 0
171 195 0
173 196 0
173 195 0
168 192 0
174 196 0
172 195 0
171 194 0
173 196 0
171 194 0
172 195 0
173 196 0
172 195 0
172 195 0
171 194 0
172 196 0
172 195 0
172 195 0
172 195 0
173 197 0
171 195 0
171 194 0
171 195 0
172 196 0
173 196 0
168 191 0
174 196 0
168 191 0
173 197 0
173 195 0
168 191 0
171 195 0
171 194 0
172 195 0
172 195 0
172 195 0
166 189 0
169 192 0
171 195 0
170 192 0
170 193 0
171 194 0
172 195 0
173 196 0
156 180 72
76 109 160
62 98 167
62 98 165
63 99 167
62 99 174
62 99 174
63 99 171
63 99 176
63 100 177
63 99 177
62 99 172
61 98 166
62 99 175
63 100 175
62 99 175
62 99 172
62 99 174
62 99 175
62 99 175
62 99 173
62 99 177
62 99 178
62 99 171
62 99 175
63 99 178
62 99 175
62 99 178
62 99 176
61 98 173
62 99 179
62 99 175
62 99 176
62 99 178
62 99 180
62 99 178
63 99 176
62 99 175
62 99 179
62 99 178
62 99 179
62 99 178
62 99 181
62 99 178
62 99 178
62 99 180
63 100 180
62 99 176
62 99 180
62 99 180
62 99 179
61 99 180
62 99 177
63 99 179
62 99 177
62 99 179
62 99 177
62 99 181
62 99 178
62 99 179
62 99 179
62 99 179
62 99 180
62 99 181
62 99 179
62 99 179
61 99 181
61 99 180
62 99 181
62 99 180
61 99 176
62 99 178
62 99 179
62 99 180
61 99 180
63 100 180
62 99 179
62 99 179
61 98 178
62 99 176
63 100 181
62 99 179
62 99 177
62 99 178
62 99 177
61 99 178
62 99 178
62 99 178
62 99 179
62 99 179
63 99 178
62 99 178
63 100 179
62 99 180
62 99 177
62 99 178
62 99 178
62 99 180
62 99 178
62 99 180
62 99 180
61 98 175
62 99 177
62 99 180
62 99 179
62 99 177
61 98 175
63 99 177
62 99 177
62 99 177
61 98 175
62 99 178
62 99 177
62 99 175
63 100 178
63 99 177
62 99 177
62 99 174
62 99 176
62 99 180
62 99 176
61 98 175
62 99 176
61 98 172
62 99 172
62 99 174
62 99 173
62 99 175
62 98 174
62 99 179
62 98 176
62 98 173
63 99 174
62 99 175
61 98 169
62 99 178
61 98 172
62 98 174
62 99 170
62 99 176
62 98 173
62 98 172
61 97 168
62 98 170
62 99 176
62 97 168
62 98 173
61 96 160
60 95 163
61 96 166
61 96 164
61 96 168
60 96 168
59 93 160
59 93 154
72 90 124
85 89 76
89 90 62
84 86 59
65 70 54
86 88 61
94 95 69
80 84 61
96 98 68
91 94 68
82 86 64
86 89 64
86 91 67
92 95 67
111 112 80
102 104 74
98 101 74
108 110 77
99 101 70
104 107 77
117 117 80
110 112 79
110 111 79
121 121 83
108 111 77
114 117 83
115 118 83
110 112 76
129 129 88
124 125 85
135 135 90
124 125 81
132 131 85
129 130 87
146 144 92
137 136 87
137 137 88
150 147 96
139 138 87
144 142 92
146 144 93
145 143 90
151 148 95
150 148 97
146 144 88
154 151 96
153 151 93
156 153 93
155 152 97
161 157 96
151 149 91
165 162 100
159 155 95
163 159 98
162 158 97
164 160 100
171 166 100
164 160 96
166 161 97
167 163 101
160 156 93
162 159 97
166 162 96
176 169 104
171 166 104
167 163 98
168 164 99
167 162 100
169 165 101
169 164 103
171 165 96
176 169 104
168 164 97
174 167 100
173 168 101
175 168 102
173 167 100
172 166 97
171 165 94
175 169 101
168 162 95
176 170 103
173 167 101
172 167 97
172 165 92
169 163 97
168 162 96
172 166 100
173 167 100
173 167 95
175 168 99
173 167 97
173 166 97
172 167 95
171 165 97
175 169 96
172 166 95
171 165 93
170 163 95
166 160 94
168 161 90
170 164 97
169 163 94
170 164 98
176 169 100
168 162 93
164 158 92
162 157 87
166 159 95
165 158 86
163 157 83
161 156 87
161 155 84
166 159 93
163 157 86
168 162 95
158 152 82
156 150 84
163 157 87
158 152 85
161 155 87
157 150 79
157 151 83
160 153 85
153 147 79
148 142 71
155 149 80
159 152 84
148 142 75
142 137 69
154 147 80
142 137 72
152 146 77
135 130 61
145 139 66
140 135 67
139 133 66
142 137 65
135 131 64
141 141 53
140 141 51
148 156 45
153 162 44
155 166 41
155 172 25
166 184 34
164 182 25
168 189 16
172 196 0
172 196 0
171 194 0
175 198 0
174 197 0
172 196 0
171 193 0
173 197 0
175 198 0
173 197 0
175 198 0
172 196 0
173 197 0
171 195 0
174 197 0
173 196 0
171 195 0
173 196 0
171 195 0
173 197 0
174 198 0
175 198 0
174 197 0
171 194 0
174 197 0
171 194 0
172 196 0
172 196 0
173 196 0
171 196 0
171 195 0
173 195 0
173 197 0
172 196 0
171 195 0
171 194 0
173 197 0
173 195 0
172 196 0
174 196 0
172 195 0
175 198 0
170 193 0
171 195 0
172 195 0
170 193 0
173 197 0
173 196 0
170 194 0
171 194 0
174 197 0
173 196 0
171 195 0
171 195 0
171 194 0
172 196 0
173 197 0
173 196 0
170 193 0
173 196 0
173 196 0
170 194 0
172 195 0
172 195 0
170 193 0
174 197 0
170 193 0
173 196 0
175 198 0
170 194 0
173 196 0
171 193 0
170 193 0
169 193 0
172 196 0
174 197 0
170 194 0
173 195 0
171 194 0
172 195 0
169 193 0
172 195 0
172 195 0
172 195 0
167 192 0
170 193 0
170 194 0
173 196 0
173 195 0
170 193 0
172 196 0
171 195 0
171 193 0
172 195 0
171 195 0
170 194 0
166 190 40
116 143 126
62 98 164
62 99 168
62 98 170
62 99 166
62 99 169
63 99 175
62 99 170
63 99 172
62 98 168
63 99 175
62 99 170
61 98 173
61 98 169
63 99 174
62 99 175
62 99 177
62 99 176
63 99 177
62 98 171
63 99 175
62 99 175
62 99 175
62 99 179
63 99 178
62 99 176
62 99 180
62 99 180
62 99 177
62 99 174
62 99 178
62 99 176
62 99 180
62 99 176
62 99 177
61 98 176
62 99 176
63 100 177
61 98 177
62 99 179
62 99 180
62 99 177
62 99 179
62 99 181
62 99 181
62 99 178
63 100 180
63 99 178
62 99 179
62 99 178
62 99 181
63 100 181
62 99 179
61 98 176
62 99 179
62 99 180
62 99 178
62 99 178
63 100 181
62 99 177
62 99 179
63 100 181
62 99 177
62 99 178
62 99 179
63 99 180
62 99 181
62 99 173
62 99 177
61 99 179
62 99 179
62 99 181
63 100 180
62 99 176
62 99 175
62 99 179
62 99 175
62 99 179
62 99 177
62 99 179
62 99 179
62 99 176
62 99 178
62 99 179
62 99 180
62 99 179
62 99 176
62 99 180
62 99 180
63 100 177
62 99 179
62 99 179
62 99 178
62 99 178
62 99 181
62 99 175
62 99 180
63 100 179
62 99 177
62 99 179
62 99 175
62 99 179
61 99 179
62 99 175
62 99 175
62 99 177
63 99 178
61 98 178
62 99 179
62 99 176
63 100 178
62 99 175
61 98 177
62 99 176
63 99 175
62 99 177
61 99 179
62 99 179
62 99 178
62 98 175
62 99 175
62 99 175
61 98 170
61 98 175
62 99 172
62 98 172
62 99 174
61 97 170
62 99 176
61 98 172
62 99 177
62 99 173
62 99 174
62 99 175
62 98 175
62 99 173
62 98 173
62 98 170
61 98 171
62 98 172
62 99 174
62 98 170
63 99 173
61 97 168
61 98 174
61 97 167
60 96 166
61 96 168
62 98 173
61 96 162
61 96 164
62 98 172
60 94 160
58 91 156
59 93 155
64 94 152
71 82 100
70 73 49
89 91 63
78 81 58
91 92 62
83 85 60
86 88 63
85 89 63
91 94 65
86 88 62
82 86 61
99 100 70
92 96 70
91 96 69
88 92 68
101 103 71
104 106 75
111 111 77
102 105 75
95 99 70
115 117 81
111 114 81
101 104 73
115 116 78
119 120 82
117 118 79
123 124 85
131 130 86
131 130 89
129 129 85
125 125 85
137 136 90
124 124 82
139 137 89
147 145 94
140 138 85
144 142 90
141 140 90
148 147 95
150 148 93
140 139 89
154 150 94
156 153 97
154 151 93
153 150 94
158 155 98
154 150 94
163 158 99
160 156 97
161 157 102
156 152 94
159 155 95
156 153 97
162 159 99
164 159 100
163 159 95
156 154 93
161 158 98
172 167 101
166 162 99
168 163 99
168 163 99
166 162 94
172 166 103
169 163 100
169 164 97
175 169 103
168 163 97
171 165 97
168 163 95
171 165 99
172 167 96
171 165 97
170 164 93
175 169 100
171 165 102
176 169 104
175 168 97
175 169 99
171 165 94
176 169 102
171 165 97
171 166 96
173 167 99
169 165 95
173 166 96
172 165 100
172 167 99
171 165 92
174 167 98
174 167 95
174 167 97
175 167 97
175 168 99
169 164 90
174 167 99
170 165 93
172 166 97
168 162 94
172 165 96
169 163 92
168 163 97
168 162 93
167 161 94
176 168 103
166 159 90
164 157 91
160 155 84
164 159 92
168 160 92
165 159 90
166 159 86
164 157 90
159 152 85
159 152 85
161 155 86
162 156 87
164 158 92
158 152 81
155 149 83
157 151 84
163 155 87
165 157 84
158 151 84
152 146 79
157 151 80
161 153 82
152 146 77
153 146 71
156 149 81
149 142 75
147 141 70
148 142 70
138 132 66
146 140 73
138 131 63
135 131 61
136 133 60
148 149 57
147 152 51
157 164 52
156 166 51
154 168 34
156 172 25
162 180 25
165 183 22
171 192 22
171 193 11
173 197 0
171 195 0
173 197 0
172 195 0
172 195 0
174 198 0
174 198 0
175 198 0
173 197 0
173 197 0
170 194 0
173 196 0
173 195 0
174 197 0
171 194 0
170 194 0
172 195 0
172 195 0
170 194 0
169 193 0
172 195 0
170 193 0
173 196 0
172 196 0
173 196 0
176 198 0
171 195 0
170 194 0
172 196 0
171 195 0
171 195 0
166 190 0
172 195 0
171 195 0
174 197 0
172 195 0
173 195 0
174 197 0
175 198 0
169 192 0
172 195 0
172 195 0
173 196 0
174 197 0
172 195 0
172 196 0
172 194 0
171 195 0
174 197 0
170 194 0
174 197 0
172 196 0
169 192 0
174 196 0
171 195 0
171 195 0
171 195 0
171 194 0
172 195 0
171 194 0
172 195 0
171 194 0
173 196 0
174 198 0
173 196 0
172 194 0
172 194 0
171 194 0
172 195 0
168 191 0
168 191 0
172 196 0
171 194 0
175 197 0
172 195 0
172 195 0
172 196 0
174 196 0
170 194 0
171 194 0
172 196 0
170 193 0
168 192 0
174 197 0
172 195 0
170 194 0
170 194 0
172 196 0
170 194 0
172 195 0
170 194 0
169 192 0
165 188 0
170 193 0
170 193 18
149 173 84
64 100 167
62 98 167
62 99 169
62 98 170
61 98 167
62 99 173
61 98 168
62 98 170
63 100 173
62 99 170
62 99 170
62 99 175
62 99 173
63 99 170
63 99 174
62 99 174
62 99 177
62 99 176
61 98 171
62 99 176
62 99 177
63 99 172
63 100 177
63 100 179
62 99 180
62 99 177
62 99 177
62 99 178
62 99 176
62 99 175
62 99 178
62 99 176
63 100 177
62 99 174
62 99 175
62 99 177
62 99 178
62 99 179
63 100 179
62 99 180
62 99 180
62 99 178
63 99 178
62 99 178
62 99 180
61 98 177
62 99 180
62 99 179
61 99 177
62 99 179
62 99 180
62 99 181
62 99 179
62 99 179
62 99 181
62 99 180
62 99 180
63 100 180
62 99 178
62 99 178
62 99 180
62 99 179
61 98 179
62 99 179
62 99 180
62 99 179
62 99 179
62 99 179
62 99 179
61 99 177
62 99 180
62 99 180
62 99 174
62 99 176
62 99 180
62 99 180
62 99 178
62 99 179
61 98 178
62 99 179
62 99 178
61 99 178
62 99 174
62 99 179
62 99 178
62 99 179
62 99 178
62 99 179
63 100 178
62 99 179
62 99 176
61 98 177
62 99 178
62 99 178
62 99 173
62 99 180
62 99 177
62 99 176
63 100 180
62 99 180
63 100 179
62 99 176
62 99 178
62 99 177
61 98 175
62 99 179
62 99 176
62 99 177
62 99 175
62 99 173
62 99 176
62 100 181
61 98 171
62 99 176
62 99 177
62 99 175
62 99 173
62 99 179
62 99 177
62 99 177
62 99 175
62 99 178
62 98 176
62 99 176
62 99 175
62 98 175
62 99 173
62 99 178
62 99 174
62 99 176
62 98 169
62 98 174
62 98 174
62 99 171
61 98 173
62 98 170
62 99 171
61 98 173
61 97 171
62 98 174
62 98 170
62 99 174
62 99 173
62 98 164
62 98 171
60 96 164
61 97 164
61 98 168
62 97 166
61 97 166
59 94 160
61 96 167
60 95 160
60 94 160
60 95 167
60 94 158
72 92 130
84 89 82
73 76 57
75 79 55
74 79 58
81 85 62
84 89 67
71 77 60
89 91 64
82 86 65
83 87 63
88 92 67
83 87 62
87 91 65
87 91 67
92 96 70
100 102 71
106 107 73
93 97 72
106 108 73
114 116 81
109 111 77
124 125 85
117 117 80
123 123 83
116 117 82
126 128 86
115 116 75
127 127 84
129 129 88
135 135 89
139 137 89
131 131 86
131 130 86
130 129 84
144 142 93
144 143 94
142 141 88
141 139 87
156 152 98
150 147 92
156 153 97
138 137 87
152 150 93
148 145 91
152 150 96
157 154 100
158 155 95
159 154 95
152 149 94
164 160 100
163 159 99
161 156 98
165 160 97
159 156 97
159 155 93
162 159 97
156 153 93
166 161 100
162 158 99
166 162 97
165 161 98
168 163 100
170 165 99
167 162 97
172 166 102
166 162 97
169 164 100
172 166 97
169 164 99
173 166 94
174 168 99
171 166 97
171 165 96
177 170 103
167 162 92
174 168 103
175 168 100
170 165 91
174 168 100
175 169 98
173 167 97
172 166 97
171 165 96
171 165 96
173 166 97
173 167 95
173 167 99
173 166 93
171 165 95
171 165 97
172 166 96
172 166 94
166 161 90
172 165 95
166 160 90
168 163 94
172 166 93
169 163 92
170 163 94
170 164 86
166 160 84
165 160 91
169 162 89
164 159 82
166 160 84
172 166 97
167 160 90
172 164 92
169 162 92
166 160 90
165 158 89
168 160 91
169 162 94
163 157 84
160 154 89
161 154 84
162 155 87
163 156 89
162 156 82
164 157 85
161 154 84
152 146 72
163 157 90
156 149 78
157 151 80
158 152 80
152 146 75
147 141 67
146 140 70
147 142 64
145 138 74
155 148 75
141 136 70
145 139 64
136 131 66
142 138 60
142 141 64
142 143 59
146 150 51
147 152 42
152 163 42
152 163 39
162 176 36
165 183 30
166 186 19
171 192 11
171 193 0
169 193 0
174 198 0
173 197 0
174 198 0
170 194 0
173 197 0
171 195 0
174 197 0
173 197 0
172 195 0
172 195 0
173 195 0
175 197 0
171 196 0
172 196 0
173 196 0
171 195 0
173 196 0
172 196 0
171 195 0
171 193 0
171 195 0
173 195 0
171 195 0
172 196 0
171 195 0
168 192 0
174 197 0
173 197 0
172 195 0
170 193 0
172 194 0
173 195 0
173 196 0
171 195 0
173 196 0
170 194 0
174 196 0
173 196 0
174 197 0
172 195 0
172 195 0
172 195 0
172 194 0
171 196 0
173 197 0
172 196 0
171 194 0
176 198 0
172 195 0
170 194 0
171 194 0
172 196 0
171 194 0
174 197 0
171 195 0
173 195 0
171 195 0
171 195 0
170 193 0
171 193 0
171 194 0
171 194 0
170 193 0
173 196 0
172 196 0
170 194 0
172 196 0
171 194 0
173 196 0
171 195 0
172 195 0
173 196 0
172 194 0
171 196 0
173 196 0
169 193 0
170 193 0
173 196 0
172 195 0
173 196 0
173 196 0
173 196 0
171 194 0
173 196 0
171 194 0
171 193 0
168 192 0
172 196 0
172 194 0
170 193 0
171 194 0
169 191 0
170 193 0
165 188 44
99 127 144
62 98 168
63 99 171
63 99 167
62 99 174
63 99 170
62 99 172
63 99 175
62 99 171
62 99 172
62 99 176
63 99 175
62 99 177
62 98 172
62 99 178
63 99 175
63 99 172
62 99 175
61 98 174
62 99 177
62 99 170
62 99 176
63 99 178
62 99 172
61 98 174
62 99 173
62 99 178
62 99 174
62 99 174
62 99 178
62 99 176
62 99 178
62 99 178
62 99 180
62 99 176
62 99 175
62 99 178
62 99 177
62 99 180
61 98 179
62 99 179
62 99 177
62 99 180
62 99 176
62 99 179
62 99 176
62 99 176
62 99 179
62 99 178
63 99 177
62 99 180
61 98 177
62 99 179
62 99 179
62 99 178
62 99 180
62 99 178
62 99 179
62 99 178
62 99 179
62 99 180
62 99 176
62 99 180
61 98 177
62 99 179
62 99 178
62 99 178
62 99 179
62 99 179
62 99 179
62 99 180
62 99 180
63 100 180
63 100 179
62 99 178
62 99 179
62 99 177
62 99 180
62 99 178
62 99 180
63 99 179
62 99 178
62 99 179
62 99 177
61 98 178
62 98 173
62 99 175
62 99 178
62 99 178
62 99 180
62 99 176
62 99 177
62 99 178
62 99 180
61 98 175
62 99 178
62 99 178
62 99 179
62 99 179
62 99 177
62 99 177
62 99 175
61 98 173
62 99 178
62 99 178
62 99 177
62 99 180
62 99 180
62 99 179
61 99 179
62 99 177
62 99 176
61 98 176
63 100 179
61 98 174
62 99 179
61 98 168
62 99 175
62 99 177
62 99 176
62 99 175
62 98 174
62 99 175
62 98 170
62 99 176
61 98 175
62 98 170
63 99 171
62 98 171
62 99 176
62 99 178
62 98 170
62 99 172
62 99 172
62 99 173
62 99 174
61 97 166
62 98 175
62 99 169
63 100 173
61 98 169
62 98 171
62 98 171
62 98 169
62 98 171
61 98 170
62 98 167
62 98 173
61 97 168
62 97 171
61 96 162
62 97 166
60 96 164
61 97 168
61 96 169
61 96 163
60 94 155
61 93 155
76 90 112
71 76 58
76 79 56
83 84 57
84 87 60
78 82 61
79 82 60
77 81 58
84 86 60
70 76 59
83 87 63
89 92 66
90 94 70
79 83 60
96 99 70
98 101 73
102 104 70
105 107 74
107 109 77
116 117 79
113 114 78
105 108 78
114 116 78
118 118 79
127 127 82
121 121 79
133 133 89
123 124 81
122 123 81
124 124 82
143 141 92
130 129 85
136 134 88
133 134 89
138 136 86
137 136 88
135 134 86
146 144 94
149 146 92
139 137 88
145 143 87
150 147 94
147 144 91
149 147 94
153 151 96
151 148 94
161 157 99
157 153 96
154 151 88
158 155 93
147 145 85
161 156 94
163 159 96
165 160 95
165 162 99
167 162 101
163 159 96
167 161 96
171 165 97
165 160 93
167 162 93
159 155 93
171 165 99
169 164 95
171 165 97
172 167 103
166 162 93
172 167 100
171 166 99
169 163 97
172 166 97
169 164 94
170 164 96
174 167 99
172 167 100
169 164 90
169 164 96
171 165 96
173 167 95
177 170 99
168 162 93
174 167 97
176 169 101
170 165 98
173 167 93
171 165 96
170 164 94
167 161 90
172 166 97
172 166 99
171 165 96
175 168 96
170 164 93
173 165 93
172 165 95
173 166 94
172 165 98
162 156 87
168 163 92
170 164 90
167 162 90
164 158 89
165 159 85
168 162 95
167 161 93
170 163 90
165 161 90
165 159 88
169 162 90
169 162 92
163 157 86
173 165 98
159 153 89
165 158 90
165 159 86
167 160 93
159 154 84
167 160 88
157 151 82
154 148 80
162 155 84
161 155 76
150 144 77
160 153 79
161 153 86
151 145 75
158 152 80
155 148 79
144 140 68
157 150 75
146 140 64
145 140 70
136 130 60
149 143 66
141 135 69
147 143 66
146 144 60
144 142 65
146 150 57
149 158 42
156 166 44
154 166 36
164 179 39
160 178 25
173 192 19
170 190 16
168 191 0
174 197 0
171 194 0
171 196 0
172 196 0
174 197 0
172 196 0
172 196 0
173 196 0
174 196 0
171 193 0
172 196 0
172 195 0
175 197 0
172 196 0
176 198 0
174 197 0
173 196 0
171 195 0
174 198 0
171 194 0
173 196 0
170 193 0
173 196 0
172 196 0
171 195 0
171 195 0
173 196 0
174 197 0
171 193 0
174 198 0
168 191 0
173 197 0
173 196 0
173 196 0
171 195 0
171 194 0
172 195 0
172 195 0
175 198 0
173 196 0
172 194 0
173 196 0
174 197 0
174 197 0
174 197 0
174 197 0
171 194 0
172 196 0
172 196 0
169 193 0
171 194 0
173 197 0
173 196 0
173 197 0
172 196 0
173 197 0
172 195 0
173 196 0
172 196 0
172 196 0
174 196 0
172 196 0
173 196 0
169 192 0
169 193 0
169 192 0
171 194 0
169 193 0
170 193 0
173 196 0
168 192 0
170 192 0
171 194 0
169 192 0
172 195 0
174 197 0
172 196 0
174 196 0
173 196 0
171 195 0
171 195 0
169 193 0
171 195 0
168 191 0
171 195 0
173 196 0
173 196 0
173 197 0
172 196 0
171 195 0
169 193 0
171 193 0
173 196 0
171 195 0
143 167 99
62 98 161
62 98 166
63 99 168
62 98 163
62 98 164
62 98 168
62 99 171
62 98 167
62 98 168
63 99 173
62 99 170
62 99 169
62 99 172
62 99 170
63 99 173
61 98 171
62 99 171
62 98 170
62 99 171
63 99 176
62 99 173
62 99 178
62 99 176
62 99 175
62 99 177
62 99 178
62 98 174
62 99 175
62 99 171
62 99 177
63 100 177
62 99 174
61 98 171
62 99 177
62 99 178
62 99 180
61 98 177
62 99 178
62 99 177
63 100 180
62 99 177
63 100 176
63 99 176
63 100 180
62 99 175
62 99 177
62 99 179
62 99 177
62 99 180
62 99 179
61 98 175
61 98 174
62 99 178
62 99 177
62 99 180
62 99 179
61 98 177
62 99 177
62 99 179
62 99 177
62 99 180
63 100 181
62 99 179
62 99 181
63 99 178
62 99 177
61 98 178
62 99 178
62 99 178
62 99 177
61 98 176
62 99 176
62 99 178
62 99 178
63 99 178
62 99 179
62 99 179
62 99 179
62 99 179
63 100 179
62 99 177
61 99 177
62 99 177
62 99 178
61 98 175
62 99 179
62 99 175
63 100 178
63 100 178
62 99 180
62 99 179
62 99 179
62 99 179
62 99 178
62 99 177
61 98 176
62 99 176
62 99 176
62 99 176
62 99 175
62 99 177
62 99 179
62 99 176
62 98 172
61 98 175
62 99 177
62 99 176
62 99 177
61 98 177
63 100 175
62 99 177
63 99 173
62 99 177
64 100 178
63 99 178
61 98 175
62 99 178
62 99 179
63 99 177
61 98 171
62 99 177
62 99 174
63 99 175
62 99 177
62 98 175
62 99 174
62 98 174
62 98 173
62 98 174
63 99 174
63 99 175
61 98 170
61 98 170
62 99 171
62 99 175
61 98 168
61 98 170
62 99 172
62 99 173
62 99 175
62 98 174
62 98 166
62 98 167
62 98 169
62 98 170
62 98 171
61 97 169
62 97 167
62 98 169
62 97 166
60 95 162
60 95 161
60 96 164
60 95 161
61 96 167
60 94 158
61 95 162
61 95 166
68 91 134
85 92 85
63 68 48
63 66 48
73 76 55
80 84 61
90 93 65
78 83 61
77 81 58
72 78 59
86 90 67
84 88 64
88 92 67
91 95 67
93 96 67
93 97 68
107 109 74
107 107 75
98 101 71
103 105 72
104 106 75
102 105 76
107 108 71
128 129 84
119 120 84
111 113 73
128 128 81
130 129 81
125 126 85
125 125 85
133 132 85
126 127 85
124 125 82
137 134 82
133 132 85
133 133 86
144 142 91
148 146 91
149 146 93
147 144 95
142 141 92
152 149 89
147 145 90
143 142 89
147 145 85
157 153 92
150 148 90
158 154 94
155 151 96
156 152 96
162 158 94
156 152 92
160 155 93
161 157 95
164 160 94
163 159 97
165 160 97
164 160 97
171 165 99
165 161 98
167 162 95
166 161 96
168 163 97
170 164 98
169 164 99
169 164 99
166 162 93
169 164 98
174 168 99
167 162 93
168 163 96
175 168 99
173 167 100
173 167 99
169 165 93
170 164 94
169 164 93
172 167 100
173 166 98
175 169 99
169 163 91
174 167 98
174 168 99
176 169 102
174 167 96
169 164 94
172 165 100
171 165 95
172 166 94
171 165 93
173 166 101
172 167 96
171 164 91
165 160 86
168 162 90
170 163 93
171 164 94
170 164 92
170 164 93
169 163 90
160 156 85
171 164 92
163 157 87
167 160 87
172 165 96
171 164 92
167 161 91
166 159 88
152 146 76
168 161 87
165 159 84
162 156 86
163 158 87
158 152 78
167 161 81
160 155 78
161 155 79
166 160 87
155 149 77
159 153 81
155 149 79
158 152 83
160 153 80
157 152 74
153 148 75
151 145 73
151 145 75
154 147 75
141 135 65
152 146 72
148 141 70
154 148 75
143 138 62
146 140 72
131 126 58
141 138 63
149 149 60
148 146 61
149 152 56
149 159 39
153 162 41
157 171 32
161 175 37
167 185 30
167 188 0
166 187 0
169 189 16
172 195 0
173 197 0
174 197 0
174 196 0
173 197 0
173 196 0
172 195 0
173 196 0
174 197 0
173 196 0
172 196 0
171 194 0
174 197 0
171 195 0
175 198 0
173 197 0
173 196 0
170 194 0
172 196 0
172 195 0
172 195 0
174 197 0
170 193 0
169 193 0
172 195 0
171 195 0
174 197 0
172 196 0
172 195 0
173 196 0
170 194 0
172 195 0
172 196 0
173 196 0
169 192 0
170 193 0
173 195 0
173 196 0
169 193 0
172 196 0
169 193 0
173 196 0
170 193 0
175 198 0
167 190 0
174 197 0
171 194 0
173 197 0
171 194 0
172 196 0
174 197 0
173 196 0
172 194 0
172 196 0
171 194 0
171 194 0
173 196 0
171 195 0
166 190 0
168 191 0
173 197 0
170 194 0
173 196 0
171 194 0
170 193 0
168 192 0
169 192 0
172 195 0
172 195 0
171 194 0
172 196 0
174 196 0
173 197 0
172 195 0
171 195 0
167 190 0
171 195 0
171 195 0
170 194 0
171 194 0
172 196 0
170 194 0
173 197 0
169 192 0
169 192 0
172 195 0
170 194 0
171 194 0
172 196 0
168 191 0
171 194 0
171 194 0
170 194 0
165 188 40
76 108 152
62 99 169
62 99 174
62 98 165
62 98 168
63 99 167
61 98 170
63 99 171
63 99 173
62 98 171
63 99 175
61 98 170
61 98 168
62 99 173
63 99 173
61 98 173
62 99 171
62 99 177
61 98 172
62 99 177
62 99 177
62 99 177
62 99 173
62 99 177
63 99 175
62 99 180
63 99 176
62 99 176
62 99 172
62 99 176
63 100 179
62 99 178
62 99 175
62 99 174
62 99 175
63 100 180
62 99 178
63 99 177
63 100 179
62 99 174
62 99 177
62 99 176
62 99 178
62 99 179
63 100 179
61 99 180
62 99 176
63 100 181
62 99 179
62 99 177
62 99 175
62 99 176
62 99 181
63 100 179
62 99 177
63 100 180
62 99 179
62 99 179
62 99 178
62 99 179
62 99 181
62 99 180
62 99 176
62 99 180
63 100 181
62 99 178
63 100 179
62 99 178
61 98 176
63 100 180
62 99 181
63 99 178
62 99 179
61 99 180
62 99 177
62 99 177
62 99 180
63 99 179
62 99 177
62 99 180
62 99 176
62 99 176
62 99 179
62 99 179
62 99 177
62 99 173
62 98 175
62 99 177
62 99 178
63 100 177
62 99 176
62 99 181
61 98 174
62 99 180
61 98 175
62 99 173
62 99 176
62 99 178
62 99 176
62 99 176
61 98 175
62 99 179
62 99 176
62 99 178
62 99 178
62 99 177
62 99 176
62 99 172
62 99 177
62 99 178
62 99 173
61 98 176
62 98 173
61 98 172
61 98 172
62 99 175
63 100 176
62 99 175
62 99 178
62 99 175
62 98 172
62 99 175
62 99 175
61 98 173
62 99 175
61 98 169
62 99 177
62 99 169
62 99 175
63 100 178
62 99 176
62 99 173
62 98 174
62 99 171
62 99 172
62 99 175
61 98 171
62 98 173
61 98 171
62 98 170
63 99 172
62 98 172
62 99 173
62 98 167
62 99 173
62 99 174
61 97 170
61 97 166
62 98 165
62 98 171
61 96 162
62 97 165
62 97 169
62 98 169
60 95 160
61 97 163
59 93 152
59 94 159
60 94 156
59 92 152
78 90 100
65 69 53
56 61 44
69 73 52
66 71 55
75 79 55
80 84 62
86 89 64
81 86 64
71 77 59
76 81 60
106 107 74
79 82 59
74 81 62
87 90 62
92 96 66
97 99 68
106 107 71
113 115 79
99 102 68
120 121 82
114 115 78
107 108 73
119 119 78
116 118 79
124 124 82
126 126 79
122 122 79
135 132 84
118 121 80
132 131 80
126 127 79
128 128 86
133 132 84
138 136 86
134 134 88
142 141 88
143 141 90
146 143 91
147 144 89
152 149 92
139 138 86
154 150 95
157 154 97
152 150 91
137 136 84
154 150 89
160 156 97
158 155 93
159 155 94
163 158 95
162 158 95
158 155 93
159 155 98
160 155 92
165 160 95
163 159 93
168 162 95
164 159 98
166 162 95
160 156 86
172 166 98
167 162 94
167 162 97
171 165 98
170 164 96
174 168 100
167 163 91
167 161 96
170 164 92
171 165 96
173 168 95
172 166 99
173 166 98
171 166 97
164 159 88
173 167 97
177 170 99
171 165 94
169 164 92
167 162 90
169 164 94
175 168 98
174 168 95
168 162 90
174 167 96
170 163 93
176 168 101
171 164 98
171 165 97
172 165 93
174 167 96
168 162 93
168 161 87
173 166 93
169 164 96
174 166 95
166 160 87
174 167 90
172 164 91
166 160 90
166 160 87
170 163 94
158 152 81
170 163 95
163 156 83
163 157 83
168 162 91
166 160 89
162 156 86
169 162 89
161 156 87
162 156 86
163 156 86
162 155 83
163 157 87
153 148 75
153 147 78
154 148 73
154 148 77
149 143 74
146 141 71
155 149 83
148 143 72
150 145 75
150 144 69
144 139 68
149 143 74
145 140 68
146 140 70
144 137 66
146 141 66
145 139 71
133 128 56
144 140 65
141 141 59
144 149 45
147 149 52
146 156 37
156 167 44
159 173 37
160 176 28
167 186 25
168 190 11
171 192 11
172 196 0
172 195 0
172 196 0
173 197 0
174 197 0
171 196 0
173 196 0
174 197 0
174 197 0
171 195 0
172 196 0
171 195 0
170 194 0
171 195 0
174 196 0
174 197 0
174 197 0
174 196 0
171 195 0
174 197 0
172 196 0
173 196 0
173 196 0
170 194 0
170 194 0
175 197 0
173 196 0
172 195 0
172 195 0
174 197 0
173 196 0
173 196 0
171 195 0
172 195 0
174 197 0
172 195 0
170 193 0
170 193 0
172 196 0
171 194 0
173 196 0
174 197 0
173 196 0
171 195 0
172 196 0
173 197 0
171 195 0
168 192 0
171 195 0
173 196 0
169 192 0
171 194 0
172 195 0
172 197 0
171 194 0
170 192 0
173 196 0
174 197 0
172 195 0
172 195 0
170 193 0
172 195 0
171 194 0
172 196 0
172 195 0
168 191 0
172 195 0
171 195 0
170 192 0
171 194 0
170 193 0
173 196 0
173 196 0
172 195 0
170 193 0
169 192 0
173 196 0
173 196 0
172 196 0
173 196 0
174 197 0
173 196 0
172 196 0
172 195 0
172 196 0
171 194 0
172 195 0
171 194 0
172 196 0
173 195 0
170 193 0
170 193 0
168 191 0
167 190 0
133 159 111
62 98 160
62 98 165
61 98 166
62 98 165
62 98 165
63 99 167
63 99 166
63 99 172
62 99 174
62 99 170
62 99 174
62 98 168
62 99 174
62 99 172
62 98 170
61 98 172
62 99 174
62 99 173
62 99 177
63 99 175
62 99 172
62 99 178
62 99 171
62 99 178
62 99 176
61 98 173
62 99 174
63 100 178
61 98 176
62 99 174
62 99 174
62 99 173
62 99 177
62 99 177
62 99 178
62 99 175
63 100 179
62 99 176
62 99 180
62 99 177
62 99 175
62 99 179
62 99 180
62 99 179
62 99 176
62 99 179
62 99 176
62 99 178
62 99 176
62 99 179
62 99 177
62 99 178
62 99 177
63 100 180
62 99 179
62 99 180
62 99 179
62 99 180
62 99 179
62 99 179
61 98 175
62 99 179
63 100 179
62 99 180
62 99 177
62 99 179
62 99 178
61 98 176
62 99 175
63 100 179
63 100 180
62 99 178
63 100 181
62 99 175
63 100 180
63 100 180
62 99 177
62 99 179
62 99 176
62 99 176
62 99 175
62 99 178
61 98 175
61 99 178
62 99 177
62 99 180
62 99 179
62 99 177
62 99 176
62 99 180
61 98 177
62 99 179
62 99 177
62 99 178
62 99 178
62 99 178
62 99 179
62 99 176
62 99 176
61 98 176
62 99 175
62 99 176
62 99 174
62 99 177
62 99 178
62 99 175
63 99 178
62 99 178
63 99 176
62 99 175
61 98 176
62 99 175
62 99 177
62 99 179
62 99 179
62 99 177
62 99 175
62 99 177
62 99 176
63 100 179
63 100 177
62 99 175
62 99 173
62 99 172
62 99 172
62 99 174
62 99 177
63 99 174
61 98 176
63 99 173
62 99 176
63 100 176
62 99 176
62 99 172
62 99 172
62 99 177
61 98 171
62 98 172
62 99 171
62 98 173
63 99 170
62 98 174
62 98 172
62 98 172
62 98 170
62 98 170
61 97 168
61 97 168
62 98 170
60 96 161
61 97 169
61 97 165
60 96 167
61 96 164
59 93 156
60 94 158
60 94 153
61 97 170
60 94 157
59 92 152
70 93 139
68 77 82
50 57 43
83 84 56
73 77 54
73 76 52
59 68 53
79 83 57
69 73 56
66 72 53
72 77 56
83 88 65
103 105 72
87 91 64
92 95 65
102 105 70
102 106 70
111 113 76
112 114 73
87 92 66
106 109 74
113 114 77
115 116 76
114 116 75
112 113 77
106 109 75
128 128 79
127 128 83
131 130 82
132 133 86
129 129 81
130 129 79
131 131 85
145 142 90
147 144 93
136 135 86
148 145 89
140 138 86
144 141 85
141 140 81
140 138 85
153 150 88
153 150 94
151 149 87
158 154 89
155 152 89
160 155 97
151 149 91
160 155 89
152 150 90
162 158 96
164 159 94
157 154 94
160 156 91
166 161 99
165 160 97
167 162 94
164 160 93
162 158 90
166 161 94
166 160 99
168 163 94
166 160 93
165 160 97
167 161 92
169 163 93
167 162 97
168 162 95
173 167 96
165 160 93
171 165 93
170 164 97
173 167 98
171 165 95
174 168 98
166 161 90
168 163 90
171 165 92
172 165 95
172 167 96
167 161 88
174 168 98
168 162 95
172 166 99
172 165 95
172 165 97
171 165 91
171 164 95
176 169 98
169 162 90
173 165 91
171 165 95
173 166 94
168 162 90
169 163 93
171 164 91
167 160 90
171 165 90
165 160 92
166 159 87
168 162 91
166 160 87
172 164 95
172 165 93
165 159 87
161 155 86
161 155 84
163 155 88
160 154 79
164 158 90
162 156 84
158 152 73
157 151 80
166 159 85
163 157 80
164 156 86
164 157 83
155 149 78
149 143 79
155 149 75
153 147 74
156 150 78
162 154 85
158 151 82
147 142 74
162 154 79
150 145 76
149 143 73
148 142 70
146 140 71
147 142 69
152 145 70
135 129 65
142 136 62
136 132 52
137 137 47
144 146 52
144 148 52
145 154 45
153 164 41
157 172 28
161 176 32
166 184 34
165 183 11
168 189 11
173 194 0
170 194 0
173 197 0
173 196 0
170 195 0
173 196 0
174 197 0
169 193 0
172 196 0
171 195 0
174 197 0
173 196 0
173 196 0
173 196 0
172 195 0
172 195 0
171 196 0
173 196 0
171 195 0
172 196 0
172 196 0
173 196 0
174 196 0
171 195 0
172 195 0
175 196 0
172 195 0
170 193 0
172 195 0
173 197 0
169 193 0
169 192 0
171 195 0
171 196 0
174 198 0
170 193 0
170 194 0
169 193 0
171 194 0
173 195 0
172 195 0
172 195 0
170 193 0
171 195 0
168 191 0
173 196 0
173 196 0
174 197 0
170 194 0
171 194 0
171 195 0
168 191 0
174 198 0
169 193 0
172 196 0
170 194 0
175 198 0
169 193 0
171 194 0
175 198 0
172 194 0
174 197 0
173 196 0
171 194 0
170 193 0
171 195 0
172 196 0
171 194 0
174 197 0
172 195 0
172 196 0
170 194 0
170 195 0
171 194 0
171 194 0
168 192 0
172 195 0
174 196 0
169 192 0
173 196 0
170 192 0
170 193 0
168 192 0
173 196 0
172 196 0
171 194 0
173 195 0
173 196 0
173 195 0
171 194 0
173 195 0
169 193 0
169 192 0
163 187 51
80 112 153
62 98 163
62 98 165
63 100 174
62 99 168
62 99 169
61 98 169
63 99 172
63 99 173
62 98 167
62 99 173
63 100 173
63 99 176
62 99 169
63 99 169
62 98 168
62 99 177
62 99 177
62 99 173
62 99 173
62 99 174
62 98 170
62 99 173
62 98 175
62 99 175
62 99 176
63 99 179
62 99 174
62 99 178
63 100 178
62 99 176
63 99 177
62 99 177
62 99 173
62 99 174
62 99 178
62 99 174
62 99 178
62 99 180
62 98 176
63 99 178
62 99 177
62 99 177
62 99 175
62 99 176
62 99 180
62 99 180
62 99 175
62 99 178
62 99 180
62 99 178
63 100 180
63 100 180
62 99 177
62 99 176
62 99 177
62 99 178
62 99 179
61 99 180
62 99 177
62 99 178
62 99 176
62 99 174
62 99 178
62 99 176
62 99 176
62 99 179
62 99 178
63 100 177
62 99 178
62 99 177
62 99 179
62 99 174
62 99 177
62 99 179
62 99 178
62 99 180
62 99 177
62 99 176
62 99 176
62 99 177
62 99 179
62 99 179
62 99 177
62 99 172
62 99 175
63 100 179
62 99 176
61 98 174
62 99 176
62 99 175
62 99 178
62 99 176
62 99 174
62 99 177
63 99 176
62 99 179
61 99 178
62 99 173
63 100 180
61 98 172
62 99 179
62 99 177
62 99 176
62 99 176
62 98 175
62 99 177
62 99 178
62 99 177
61 99 177
62 99 176
62 99 174
62 99 177
62 99 176
61 98 175
61 98 172
62 99 178
62 99 174
62 99 176
62 99 172
62 99 176
62 99 174
62 99 173
62 98 169
63 100 178
62 98 171
62 99 176
62 99 173
62 99 174
61 98 170
61 98 172
62 99 175
62 99 171
62 99 175
62 99 172
61 98 172
61 98 165
62 99 174
62 98 169
63 100 174
63 99 171
62 99 174
62 98 167
63 99 169
62 98 171
62 98 167
62 98 170
62 98 168
62 98 169
62 98 170
62 98 168
62 97 164
61 96 162
62 98 168
61 97 165
61 96 159
61 96 164
61 96 163
61 96 166
60 94 163
60 94 158
61 93 153
62 79 105
73 78 69
68 73 54
60 64 46
78 82 58
70 75 55
77 81 59
72 77 55
82 86 65
70 77 56
75 81 62
90 94 66
88 92 65
83 88 65
98 100 68
92 95 67
95 98 67
100 103 73
104 106 67
113 114 74
107 109 73
100 103 73
102 107 73
125 125 83
110 111 74
122 121 81
125 127 84
114 116 79
125 125 81
129 128 82
127 127 84
136 135 87
130 128 79
131 131 78
135 135 88
143 141 88
138 137 86
148 144 87
145 142 91
149 146 91
152 148 92
152 148 90
146 143 88
155 151 95
158 153 92
155 152 96
153 151 94
156 152 91
157 153 96
151 148 91
164 160 95
165 160 98
170 164 97
164 159 94
158 154 87
162 157 93
166 161 96
163 159 90
162 159 91
168 163 99
166 161 94
164 159 92
171 165 97
169 163 97
168 162 96
169 163 96
171 165 96
168 163 92
170 163 95
167 161 89
169 163 92
171 164 95
172 166 95
174 167 94
171 165 95
169 163 91
171 166 93
171 165 94
175 168 97
175 168 97
169 163 90
171 164 91
172 166 96
170 164 91
169 163 87
168 162 91
173 167 98
175 168 96
170 163 93
168 162 93
170 164 92
173 166 97
172 166 95
167 161 87
172 166 94
166 160 89
170 164 93
167 160 90
170 163 95
166 160 84
165 159 85
165 158 86
168 162 87
165 160 88
165 158 88
164 157 84
160 154 83
164 158 85
165 158 85
154 148 79
162 156 86
159 152 76
164 158 80
158 152 79
159 153 84
161 155 80
160 153 82
159 153 80
157 151 77
160 154 80
157 150 75
150 145 75
150 144 74
149 144 70
156 150 80
146 140 69
152 145 75
153 145 82
152 145 75
139 134 60
150 145 69
148 142 67
140 135 64
144 141 58
135 136 47
140 145 37
146 154 47
150 161 34
158 169 39
159 174 28
164 182 22
166 187 16
170 191 22
168 190 0
170 192 0
174 197 0
171 195 0
172 195 0
175 198 0
173 197 0
170 194 0
171 194 0
172 196 0
172 196 0
173 197 0
173 196 0
173 196 0
171 195 0
175 198 0
174 197 0
172 195 0
174 197 0
171 194 0
173 197 0
171 195 0
171 194 0
174 197 0
174 197 0
173 196 0
173 196 0
169 194 0
170 194 0
172 196 0
171 195 0
172 196 0
171 194 0
170 194 0
174 197 0
173 197 0
176 199 0
172 196 0
171 194 0
173 196 0
170 194 0
173 196 0
171 195 0
171 194 0
171 194 0
172 196 0
171 194 0
172 195 0
172 195 0
174 197 0
171 195 0
171 195 0
170 194 0
170 194 0
172 195 0
171 195 0
175 198 0
171 195 0
171 193 0
172 195 0
171 195 0
172 194 0
170 193 0
172 195 0
171 193 0
168 191 0
173 197 0
169 192 0
171 194 0
172 195 0
170 194 0
171 194 0
172 196 0
173 196 0
167 191 0
170 194 0
169 192 0
172 196 0
171 195 0
171 195 0
169 192 0
170 193 0
167 190 0
169 192 0
170 193 0
169 193 0
171 195 0
174 197 0
171 194 0
173 196 0
172 195 0
169 192 0
170 193 0
170 193 0
138 163 108
62 98 162
62 99 163
62 98 166
62 98 165
62 99 169
62 98 165
62 99 169
62 99 174
63 99 176
62 98 172
62 99 171
62 99 168
62 99 169
62 98 172
62 99 173
62 99 173
62 99 174
62 99 176
63 100 177
62 99 171
62 99 176
61 98 168
63 99 173
63 99 176
62 99 176
62 99 173
62 99 178
61 98 171
61 98 174
62 99 174
62 99 178
62 99 178
63 100 179
62 99 173
62 99 177
62 99 177
62 99 176
62 99 174
63 99 177
62 99 179
62 99 179
63 99 178
62 99 177
62 99 171
62 99 179
62 99 175
62 99 178
63 99 178
62 99 175
62 99 179
62 99 178
62 99 178
62 99 179
62 99 174
62 99 172
62 99 178
62 99 180
62 99 180
63 100 178
62 99 177
63 100 179
62 99 179
62 99 178
62 99 179
63 99 179
62 99 178
62 99 179
62 99 179
62 99 174
62 99 178
62 99 175
62 99 179
62 99 175
62 99 174
62 99 176
62 99 176
62 99 176
62 99 178
61 98 175
62 99 174
62 99 180
62 99 177
62 99 179
63 99 177
62 99 176
62 99 178
61 98 174
62 99 180
62 99 176
62 99 178
62 99 180
63 99 179
61 98 173
62 99 178
61 98 175
62 99 177
61 98 172
62 99 177
62 99 179
62 99 175
62 99 177
62 99 174
63 100 177
61 98 169
62 99 178
62 99 176
62 98 167
62 99 175
62 99 175
62 99 176
62 99 176
63 99 178
62 99 179
62 99 170
61 98 175
62 99 175
62 99 176
62 99 176
62 99 176
62 99 173
61 98 172
62 99 176
61 98 175
63 100 179
62 99 171
62 99 173
61 98 169
63 100 180
62 98 170
62 99 172
62 99 172
62 98 172
62 98 168
62 98 172
62 98 173
62 99 172
61 98 172
62 99 174
62 98 167
61 98 167
62 98 172
62 98 170
61 98 169
62 99 174
61 97 170
62 98 169
61 98 173
62 98 169
62 98 170
62 98 168
62 98 171
61 97 167
61 97 168
61 97 166
63 99 173
61 97 164
62 97 167
62 97 165
61 97 162
60 95 158
61 96 166
58 91 145
55 82 131
81 87 83
74 78 56
72 75 53
60 66 51
77 82 61
73 78 56
68 73 54
77 81 57
77 81 61
67 74 55
87 89 62
88 92 64
96 99 67
86 90 67
98 98 64
95 97 66
105 108 75
99 102 72
108 110 73
106 108 72
96 99 64
112 115 76
106 107 71
126 126 81
120 120 76
116 118 77
128 128 81
129 129 82
132 131 80
132 131 80
131 130 83
138 137 88
130 130 79
136 134 85
149 145 91
138 136 84
140 139 84
144 142 89
146 144 90
147 144 92
149 146 91
149 146 89
151 148 89
157 154 93
155 152 95
154 151 93
153 151 91
152 148 90
151 148 89
155 151 90
155 150 90
163 158 94
159 155 84
166 161 96
159 155 87
164 159 93
161 157 91
164 158 97
168 163 95
162 158 87
167 162 94
169 163 96
164 160 95
169 163 94
174 167 98
168 162 95
170 164 93
166 160 88
170 164 91
175 167 100
169 163 89
171 165 97
168 162 89
172 166 97
170 164 93
168 163 93
172 166 91
164 160 85
168 162 90
171 165 91
173 165 97
173 166 92
172 166 90
168 162 90
171 164 91
172 165 93
171 165 93
165 158 83
170 165 93
173 166 93
168 162 88
169 163 91
163 157 83
172 166 92
168 162 89
169 162 90
169 161 87
171 163 90
167 160 85
168 161 85
165 159 90
169 162 87
162 156 87
163 158 89
158 153 77
162 156 83
165 158 87
158 152 80
163 157 87
161 156 80
159 153 75
168 161 87
156 149 79
161 154 82
168 160 88
155 149 75
160 154 77
152 146 75
153 147 75
152 146 77
150 144 73
151 145 74
158 152 80
157 150 77
148 142 71
149 142 73
145 139 67
149 143 75
141 136 70
139 134 63
137 132 57
133 128 58
144 142 59
138 139 51
147 152 52
156 162 52
153 163 41
161 172 32
154 170 25
158 175 19
169 188 25
172 194 0
172 195 11
173 195 0
173 197 0
173 197 0
173 196 0
172 195 0
171 195 0
174 198 0
173 196 0
173 197 0
169 193 0
172 196 0
171 194 0
171 195 0
173 197 0
173 196 0
170 194 0
172 196 0
173 196 0
175 197 0
173 196 0
173 197 0
173 196 0
174 197 0
172 196 0
173 196 0
173 197 0
173 196 0
172 196 0
172 195 0
171 195 0
170 194 0
172 195 0
173 196 0
174 197 0
171 195 0
173 196 0
171 194 0
170 194 0
169 192 0
173 196 0
173 196 0
172 196 0
170 194 0
172 195 0
171 195 0
169 192 0
173 197 0
170 193 0
173 196 0
171 195 0
171 195 0
172 196 0
169 193 0
173 196 0
173 197 0
173 196 0
172 196 0
172 196 0
172 195 0
173 197 0
172 195 0
173 196 0
174 197 0
167 190 0
171 194 0
169 193 0
169 193 0
172 196 0
171 194 0
172 195 0
169 192 0
169 193 0
171 194 0
172 196 0
171 195 0
174 197 0
168 191 0
171 194 0
171 194 0
172 196 0
172 195 0
166 190 0
173 196 0
172 194 0
170 192 0
170 193 0
171 194 0
172 195 0
169 192 0
171 194 0
171 194 0
171 194 0
163 187 47
84 115 151
62 98 165
62 98 165
62 98 169
62 99 168
62 98 165
63 99 171
62 98 169
62 99 172
62 98 169
62 98 168
62 99 173
62 98 169
61 98 170
63 99 173
62 99 173
62 98 169
62 99 172
63 99 178
62 99 177
63 100 177
63 99 174
62 99 179
62 99 173
61 98 168
63 100 179
63 100 176
63 99 180
61 98 171
62 99 171
61 98 172
62 99 175
62 99 174
62 99 178
62 99 176
62 99 171
63 100 178
63 99 177
62 98 172
61 98 176
62 99 177
62 99 175
61 98 177
62 99 177
62 99 178
62 99 177
62 99 176
62 99 178
62 99 174
61 98 178
62 99 178
61 98 178
62 99 175
63 100 178
62 99 180
62 99 177
62 99 177
63 99 177
62 99 178
62 99 179
63 100 180
63 100 179
62 99 178
62 99 180
62 99 177
62 99 174
62 99 178
62 99 176
61 99 177
62 99 176
62 99 178
62 99 178
62 99 175
62 99 177
63 100 180
62 99 177
62 99 179
62 99 180
62 99 175
62 99 176
62 99 174
62 99 176
61 99 177
63 100 180
61 98 173
62 99 179
61 98 175
62 99 179
62 99 177
62 99 176
62 99 174
62 98 174
62 99 175
62 99 174
62 99 177
62 99 179
62 99 173
62 99 175
63 99 177
62 99 177
63 100 178
62 99 176
62 99 175
63 99 176
62 99 177
62 99 174
62 99 173
62 99 176
62 99 175
62 99 174
61 98 173
63 99 177
62 99 178
62 99 175
62 99 175
63 100 178
63 100 176
62 99 175
62 99 177
62 99 178
62 99 175
62 99 176
62 99 172
63 99 175
61 98 173
62 98 174
61 98 175
62 99 175
62 99 174
63 100 178
62 98 170
62 99 175
62 99 169
62 99 173
63 99 174
62 99 174
62 99 175
62 98 163
62 99 172
62 99 176
62 99 169
62 98 170
62 98 174
62 98 171
62 98 171
62 98 171
62 98 169
61 98 163
62 98 168
62 98 170
60 96 165
61 97 169
62 97 161
61 97 169
62 98 172
62 98 168
62 98 167
61 97 168
61 96 159
60 93 154
60 94 161
60 95 160
60 94 157
61 91 146
54 73 103
59 66 55
61 66 49
59 64 46
44 52 42
59 66 52
77 82 61
82 86 60
78 81 58
79 84 60
80 85 60
82 86 60
76 81 57
89 93 65
88 94 68
96 100 67
93 97 65
103 104 70
103 104 68
102 105 71
102 106 72
124 123 80
107 108 68
108 110 71
118 118 75
115 117 76
129 128 82
118 120 76
118 120 80
128 128 79
127 127 79
135 135 86
137 135 84
142 140 87
134 132 83
143 140 83
142 140 85
146 143 89
138 137 85
139 138 82
140 139 84
150 147 90
137 135 78
153 150 89
156 152 88
150 147 87
149 145 89
150 148 86
167 161 99
163 158 96
156 152 89
168 162 100
164 159 88
165 160 92
161 156 88
165 160 94
158 155 81
161 157 92
168 164 96
169 163 92
162 157 92
168 162 94
169 163 94
163 158 87
167 162 91
168 163 94
167 162 88
168 162 89
170 163 93
170 164 95
171 165 91
166 161 92
173 166 91
169 163 95
168 162 89
169 164 88
173 167 97
172 166 97
173 166 96
172 166 96
171 164 91
169 163 90
170 163 90
170 165 93
171 165 90
173 166 93
173 166 91
168 163 90
167 162 84
170 164 93
165 159 84
170 164 87
167 162 89
167 161 91
165 158 87
170 163 91
168 162 90
164 158 86
168 162 85
168 162 87
164 158 83
173 166 93
167 161 88
158 152 80
166 159 84
160 154 84
164 157 84
159 153 82
167 160 83
162 156 83
156 150 72
150 143 76
159 153 80
149 143 72
155 150 75
151 146 70
152 147 77
155 148 77
160 153 80
154 148 73
157 151 75
152 146 77
148 143 70
148 143 74
146 140 65
142 137 62
149 143 72
142 137 65
143 137 66
140 134 58
139 133 64
141 139 59
138 135 52
142 146 42
148 153 48
155 164 47
142 151 45
155 166 45
158 173 34
165 182 25
168 188 16
168 189 0
168 189 0
168 191 0
173 196 0
171 195 0
173 197 0
171 194 0
172 196 0
173 196 0
172 195 0
170 193 0
174 196 0
171 195 0
173 197 0
172 196 0
172 196 0
171 195 0
172 195 0
171 196 0
170 194 0
174 196 0
171 195 0
170 194 0
174 197 0
171 195 0
170 193 0
169 193 0
171 195 0
172 195 0
171 195 0
172 196 0
172 195 0
171 194 0
172 196 0
172 196 0
172 195 0
174 197 0
173 196 0
168 192 0
173 196 0
174 197 0
169 193 0
172 196 0
172 195 0
171 194 0
172 195 0
172 196 0
173 197 0
173 196 0
169 193 0
171 195 0
170 194 0
172 195 0
170 194 0
171 194 0
174 196 0
174 197 0
171 194 0
171 194 0
169 193 0
170 193 0
172 196 0
172 195 0
171 194 0
170 193 0
168 190 0
168 192 0
169 193 0
170 193 0
171 195 0
170 194 0
171 194 0
171 195 0
169 193 0
171 194 0
168 192 0
171 194 0
170 194 0
173 196 0
172 195 0
171 195 0
172 195 0
170 193 0
172 196 0
174 197 0
171 195 0
173 196 0
170 193 0
171 195 0
168 192 0
168 191 0
169 192 0
170 192 0
171 194 0
138 162 99
61 98 161
63 99 173
62 98 167
63 99 166
61 98 169
62 98 164
63 99 166
62 99 168
62 98 163
61 98 162
62 98 168
62 98 167
63 99 172
62 99 171
62 99 172
63 99 172
62 99 169
63 100 176
61 98 171
62 99 173
62 99 171
62 99 169
62 98 169
62 99 173
62 99 172
62 99 178
62 99 173
62 99 175
62 99 172
61 98 172
62 99 172
62 99 174
62 99 177
63 100 175
62 99 174
62 99 178
62 99 178
62 99 173
62 99 175
62 99 179
63 99 175
63 99 177
62 99 178
62 99 178
62 99 176
62 99 177
63 99 175
62 99 178
62 99 178
61 98 178
62 99 177
63 99 176
62 99 179
62 99 179
62 99 179
63 100 179
62 99 175
62 99 179
62 99 177
62 99 176
62 99 178
62 99 179
61 98 178
62 99 176
62 99 176
63 100 179
62 99 178
62 99 179
62 99 174
62 99 176
62 99 179
62 99 174
62 99 178
62 99 178
62 98 175
62 99 178
62 99 178
62 98 174
62 99 178
62 99 178
62 99 177
62 99 179
62 99 178
62 99 175
61 98 170
62 98 172
62 99 178
63 100 176
63 99 178
62 99 178
62 99 175
62 99 174
62 99 177
62 99 174
63 100 178
62 99 179
63 99 176
62 99 177
62 99 176
61 98 171
62 99 177
62 99 180
62 99 180
63 99 177
62 99 175
62 98 173
62 99 174
62 99 176
61 98 174
62 99 176
62 99 177
61 98 172
62 99 178
63 100 178
62 99 178
62 99 175
62 99 175
62 99 174
62 99 176
62 99 173
62 99 173
62 99 174
62 99 176
62 99 176
62 98 168
62 99 179
62 99 172
62 99 178
62 98 174
62 99 177
62 99 172
62 99 171
62 98 170
62 98 170
61 98 167
61 97 162
62 98 166
62 99 168
62 99 168
61 97 162
62 98 172
62 99 173
63 99 172
61 97 164
62 98 168
62 98 171
62 99 173
61 98 169
61 97 169
61 96 169
61 97 168
62 98 173
61 97 168
61 97 164
62 97 167
61 96 165
61 95 158
62 97 168
60 96 161
61 97 160
60 95 158
60 94 153
59 93 152
59 92 154
59 87 136
68 75 62
51 57 40
60 65 49
60 66 46
72 77 56
68 71 50
76 80 55
67 72 53
84 89 59
72 78 57
74 79 53
78 83 60
86 89 58
103 104 66
82 87 61
99 101 68
104 106 65
106 109 72
93 96 60
111 112 77
109 111 71
117 118 76
115 115 74
122 122 78
123 123 76
129 128 84
125 124 79
126 126 82
121 123 73
128 128 78
129 128 82
144 142 88
121 122 76
134 133 87
134 133 81
142 139 82
143 141 87
146 143 86
139 138 80
155 151 90
150 146 90
145 143 86
150 147 91
157 153 91
147 144 86
155 152 90
150 147 85
165 159 93
155 151 90
155 152 82
155 152 84
161 157 92
161 156 92
162 158 94
164 158 91
169 163 95
163 159 87
163 158 88
173 166 96
169 163 95
166 161 93
170 163 91
168 163 90
170 164 95
169 163 93
169 163 92
169 163 94
167 162 91
174 167 92
169 163 93
167 161 93
174 167 98
168 162 85
171 164 93
170 163 87
166 161 91
169 163 90
167 161 93
172 165 94
173 166 97
173 166 92
169 163 90
170 163 92
173 167 94
168 161 84
168 162 87
168 162 93
172 165 91
172 165 92
173 166 88
176 168 97
170 164 94
167 161 87
170 163 90
166 159 87
165 158 88
162 155 84
166 160 92
167 160 87
166 159 84
163 157 88
163 157 82
166 159 81
162 156 86
165 159 87
158 152 78
163 156 86
155 149 75
154 149 75
158 152 78
162 155 80
167 159 86
152 147 71
157 151 76
163 156 85
154 148 76
157 150 75
153 147 74
156 149 74
153 146 71
145 140 69
142 137 70
144 138 65
140 135 64
149 144 68
140 136 59
147 142 65
142 136 69
141 136 61
140 135 63
146 140 66
135 133 52
142 143 48
149 154 53
153 160 44
153 164 37
161 173 41
159 171 34
163 181 19
165 183 22
166 188 0
169 191 11
172 194 0
173 197 0
174 197 0
173 196 0
171 194 0
175 198 0
172 196 0
175 198 0
175 198 0
173 196 0
174 197 0
172 196 0
169 193 0
171 196 0
172 195 0
175 198 0
172 195 0
171 194 0
172 196 0
172 196 0
172 195 0
172 195 0
171 195 0
169 193 0
174 196 0
173 196 0
173 197 0
172 195 0
170 193 0
172 195 0
169 193 0
170 194 0
173 197 0
173 196 0
170 194 0
174 198 0
172 196 0
171 195 0
173 196 0
173 196 0
172 196 0
171 196 0
173 197 0
171 195 0
171 195 0
174 197 0
172 195 0
175 197 0
170 194 0
167 191 0
172 195 0
170 194 0
173 197 0
171 195 0
172 196 0
170 194 0
171 194 0
173 196 0
167 191 0
174 196 0
175 198 0
170 193 0
171 194 0
172 196 0
168 191 0
169 193 0
170 193 0
169 193 0
171 194 0
171 194 0
170 194 0
171 194 0
171 195 0
171 194 0
169 192 0
172 195 0
173 196 0
170 193 0
171 194 0
172 195 0
168 191 0
169 193 0
168 191 0
172 195 0
166 190 0
172 195 0
171 194 0
173 196 0
167 191 0
170 193 0
167 190 0
170 194 25
111 138 126
62 98 159
63 99 163
62 99 167
62 98 161
63 99 163
62 99 169
62 99 167
62 98 165
63 99 171
63 99 172
62 99 171
62 98 167
62 99 172
62 99 177
62 98 172
62 98 172
62 99 172
62 99 170
61 98 169
63 100 176
62 99 173
62 99 172
62 98 169
63 99 178
62 99 176
62 98 172
62 99 177
61 98 166
63 100 175
62 99 174
62 98 175
63 99 175
62 99 179
62 99 180
61 98 173
62 99 179
62 99 172
62 99 172
62 99 177
63 100 176
63 99 177
63 100 177
61 98 175
63 99 178
62 99 177
61 99 177
62 99 176
63 100 178
63 99 176
63 100 175
62 99 180
62 99 177
62 99 178
61 98 174
62 99 175
62 99 177
61 98 176
62 99 180
62 99 178
62 99 178
62 99 177
62 99 175
62 99 177
62 99 179
62 99 176
62 99 178
62 99 176
63 99 177
62 99 175
62 99 177
62 99 175
62 99 178
62 99 177
62 99 175
62 99 175
61 98 173
62 98 173
63 100 177
62 99 176
62 99 176
62 99 180
62 99 176
62 99 179
62 99 173
62 99 177
63 100 178
62 99 177
62 99 179
61 98 174
63 99 179
62 99 177
62 99 173
63 99 175
62 99 176
62 99 174
62 99 178
63 100 179
61 98 175
62 99 174
63 99 177
62 99 176
63 100 177
61 98 174
61 98 178
62 99 174
61 98 174
62 99 178
62 99 176
62 99 179
62 99 173
62 99 176
62 99 176
62 99 176
63 99 174
63 100 178
62 99 175
62 99 174
63 99 174
62 99 176
62 99 173
62 99 176
62 99 176
63 99 176
62 99 175
63 99 174
63 99 173
62 99 175
61 97 165
62 99 172
62 98 172
63 99 175
61 97 167
62 98 168
62 99 173
63 99 174
62 99 171
62 99 174
62 98 173
62 98 165
62 98 168
62 99 175
62 98 170
62 98 171
63 99 171
63 99 171
62 98 168
62 98 163
62 98 167
62 98 171
62 98 169
62 98 169
62 98 171
62 98 172
62 98 169
60 96 162
61 97 165
60 96 160
61 96 158
60 96 159
60 94 155
61 96 161
59 93 150
60 95 163
59 92 148
61 90 143
63 79 98
49 56 43
60 67 50
69 72 46
74 77 55
67 72 54
75 80 57
71 75 54
64 71 51
69 75 53
85 87 58
82 87 61
84 88 54
98 100 65
91 94 63
93 97 66
104 105 69
97 100 68
81 85 60
107 110 76
110 113 73
115 117 72
107 109 72
117 118 71
115 116 69
117 117 72
121 120 76
130 128 82
126 126 76
123 123 74
135 134 81
134 133 84
129 127 82
134 133 81
134 133 79
141 140 83
144 143 88
145 143 87
146 143 81
149 146 86
138 135 79
148 145 87
144 143 86
155 151 88
156 151 90
161 156 95
158 153 90
152 149 84
163 158 96
159 154 86
156 152 85
163 158 90
156 152 91
161 156 91
153 148 84
159 155 88
159 155 84
168 163 97
167 162 96
162 157 82
164 158 86
169 163 87
169 163 97
171 164 97
165 160 91
170 163 92
171 165 93
170 164 90
169 163 90
175 167 97
167 161 92
171 164 92
171 164 96
170 165 93
172 166 94
169 163 89
170 163 92
169 162 92
171 165 90
166 161 88
170 164 92
171 165 93
165 158 88
176 168 97
168 162 90
170 162 90
168 161 93
171 164 89
167 161 87
173 166 91
170 163 93
172 166 96
166 159 89
168 161 91
164 158 82
168 161 84
169 162 87
164 158 83
162 156 80
167 160 84
166 160 85
170 163 90
160 154 80
156 150 75
162 156 80
159 153 74
165 158 85
162 155 78
160 154 78
161 155 80
165 159 83
158 152 76
161 155 84
155 148 80
157 150 78
154 148 75
153 148 68
143 137 65
158 152 76
152 146 74
146 141 71
155 149 70
158 152 71
147 141 63
148 142 65
149 142 66
143 136 62
142 138 57
144 137 71
130 126 56
141 138 56
150 149 63
143 145 48
152 160 42
148 158 39
154 167 32
163 176 42
164 182 34
160 178 16
167 186 19
170 191 11
172 193 0
173 194 0
169 193 0
173 197 0
173 196 0
172 194 0
173 196 0
172 196 0
174 196 0
171 194 0
172 196 0
173 196 0
170 193 0
174 197 0
170 193 0
172 195 0
170 193 0
171 195 0
173 196 0
174 197 0
173 196 0
174 197 0
174 198 0
174 197 0
173 196 0
172 196 0
171 195 0
170 194 0
172 196 0
172 195 0
172 195 0
174 197 0
173 197 0
170 194 0
171 194 0
171 195 0
169 193 0
173 196 0
171 195 0
174 197 0
170 193 0
171 195 0
170 193 0
172 195 0
175 197 0
172 196 0
170 193 0
172 195 0
173 196 0
170 194 0
172 196 0
171 194 0
172 195 0
168 191 0
172 195 0
169 194 0
172 195 0
171 195 0
172 196 0
172 195 0
172 195 0
174 197 0
173 195 0
170 193 0
171 195 0
172 196 0
170 192 0
169 193 0
173 196 0
169 192 0
171 194 0
170 193 0
167 191 0
171 194 0
172 196 0
166 191 0
172 195 0
172 195 0
173 196 0
174 197 0
168 191 0
172 195 0
170 194 0
172 194 0
170 192 0
170 193 0
171 194 0
170 194 0
167 190 0
169 193 0
169 193 0
168 191 0
158 181 70
64 100 163
62 98 164
62 98 163
63 99 166
62 98 162
62 98 167
61 98 167
61 98 162
62 99 172
62 98 166
63 99 169
62 98 167
62 98 164
62 98 169
63 100 176
63 99 172
63 99 170
62 99 172
62 99 173
63 100 176
63 99 176
62 99 176
62 99 175
62 99 173
63 99 176
63 99 177
62 98 172
62 99 174
62 99 175
63 100 178
62 99 176
62 99 176
62 99 176
62 98 174
62 98 170
62 99 177
62 99 175
63 99 175
62 99 175
62 99 175
63 99 177
62 99 175
62 99 178
63 100 177
62 99 176
62 99 177
62 99 178
63 100 181
62 99 174
62 99 177
62 99 176
62 99 180
63 99 178
63 100 180
62 99 179
62 99 178
62 99 176
62 99 175
62 99 177
62 99 173
62 99 176
62 98 173
63 100 179
61 98 174
62 99 176
62 99 175
63 99 177
62 99 178
61 98 175
62 99 173
62 99 178
61 98 178
63 100 178
62 99 175
62 99 172
62 98 172
62 99 176
62 99 177
62 99 177
63 100 178
62 99 174
62 99 175
62 99 175
61 98 176
61 98 175
62 99 177
63 100 178
62 99 178
61 98 172
62 99 178
61 98 174
62 99 176
62 99 173
62 99 173
62 99 175
62 99 174
62 98 174
61 98 175
61 98 173
62 99 176
62 99 174
62 99 175
62 99 174
62 99 179
62 99 173
62 99 174
62 99 174
63 99 178
62 99 177
62 99 177
62 99 173
62 99 173
63 100 179
62 99 176
62 99 175
63 99 176
62 99 175
62 99 174
62 99 174
62 99 177
62 99 176
63 99 173
61 98 176
61 98 172
62 98 174
62 99 173
62 99 177
62 99 170
62 99 174
62 99 176
62 98 168
62 99 173
61 98 167
62 99 175
62 99 175
62 99 176
62 98 174
62 99 173
62 98 165
62 99 172
63 99 172
62 99 169
61 98 175
63 99 174
61 97 170
62 99 171
62 98 168
62 98 170
61 97 163
62 98 169
62 98 165
60 97 166
62 98 170
62 97 163
62 98 170
62 98 165
62 97 166
61 96 158
62 98 168
62 97 167
61 97 160
61 96 164
59 93 154
60 95 157
59 93 153
60 94 157
54 80 128
49 59 61
47 53 37
60 66 47
57 62 44
58 65 46
54 63 50
61 68 52
70 74 46
79 83 56
68 74 54
74 80 55
84 88 58
84 88 59
86 90 57
90 94 62
86 91 61
92 94 64
111 111 71
107 108 72
104 104 64
114 115 71
116 116 71
105 108 68
114 115 76
122 123 76
120 120 78
128 127 76
121 121 76
133 131 78
135 134 80
129 127 75
133 131 81
129 128 80
147 144 87
143 140 80
139 137 84
141 139 80
142 140 83
145 142 86
147 144 84
143 140 80
141 139 83
152 149 84
154 149 89
149 145 81
150 146 80
155 151 81
159 155 88
159 156 89
156 151 84
163 158 87
162 157 93
161 156 89
162 158 91
164 159 91
163 158 92
168 162 91
168 162 81
166 161 94
164 158 87
168 163 93
166 161 90
166 161 95
173 166 98
169 163 90
167 162 94
168 162 93
165 160 86
169 164 90
162 157 86
163 158 87
165 160 90
167 160 91
168 162 91
170 164 88
167 161 89
175 168 97
172 165 93
169 162 91
161 156 82
172 165 94
171 164 88
172 165 94
166 160 84
168 161 87
167 160 85
164 157 90
172 164 93
167 161 84
166 159 87
168 162 87
169 163 92
171 164 87
169 162 92
165 160 84
165 159 83
164 158 87
172 165 92
167 161 87
164 158 81
164 158 80
166 160 84
157 152 75
162 155 84
159 153 76
159 154 75
157 151 79
167 160 83
155 148 77
163 157 84
157 151 75
153 147 75
162 155 79
155 149 75
157 151 76
160 153 73
156 149 79
152 146 73
154 148 74
153 147 73
146 140 64
147 141 63
148 142 68
144 138 60
144 139 60
146 140 66
149 143 70
140 135 59
133 128 59
136 133 53
147 148 57
142 147 42
145 149 45
150 162 34
154 164 34
158 172 32
165 183 22
168 184 28
168 188 16
172 192 0
172 194 0
171 192 0
173 196 0
174 196 0
171 195 0
173 196 0
172 195 0
175 198 0
171 195 0
173 195 0
172 196 0
172 195 0
172 196 0
171 195 0
174 198 0
170 194 0
173 196 0
172 196 0
173 197 0
173 196 0
170 194 0
168 193 0
172 195 0
170 193 0
173 196 0
172 196 0
173 197 0
171 195 0
173 196 0
171 194 0
172 196 0
167 191 0
174 197 0
170 194 0
171 194 0
170 193 0
173 196 0
171 194 0
170 194 0
172 196 0
172 195 0
169 193 0
169 194 0
169 192 0
168 192 0
171 195 0
172 196 0
171 195 0
171 194 0
172 195 0
171 194 0
171 193 0
174 197 0
169 192 0
172 195 0
174 196 0
171 194 0
170 194 0
171 195 0
171 195 0
171 194 0
170 193 0
169 193 0
168 191 0
170 193 0
171 194 0
172 195 0
172 195 0
170 193 0
173 196 0
170 193 0
172 196 0
170 194 0
171 195 0
172 196 0
171 194 0
169 192 0
168 192 0
172 195 0
170 193 0
170 194 0
172 195 0
166 190 0
169 193 0
168 192 0
169 192 0
171 194 0
172 194 0
169 192 0
175 197 0
170 193 0
171 195 18
129 154 120
62 98 164
62 98 155
62 98 164
62 99 165
63 99 167
62 98 163
62 99 169
63 99 167
62 98 171
63 99 167
62 99 171
62 98 168
62 99 173
61 98 166
62 98 170
63 99 173
62 98 164
62 98 172
62 99 172
62 99 172
62 99 175
62 99 171
62 98 170
62 99 175
62 99 170
61 98 173
63 100 176
62 99 171
63 100 177
62 99 176
63 100 175
62 98 170
62 99 177
61 98 171
62 99 176
63 99 177
62 99 175
62 99 175
62 99 173
63 99 174
62 99 171
63 100 178
62 99 177
62 99 175
62 99 177
62 99 176
62 99 173
62 99 175
62 99 176
62 99 178
62 99 175
63 100 180
62 99 177
62 99 176
62 99 176
62 99 180
62 99 173
62 99 176
62 99 177
62 99 179
62 99 177
62 99 179
62 99 179
62 99 177
62 99 179
62 99 178
62 99 173
62 99 176
63 100 177
62 99 178
62 99 180
62 99 179
62 99 178
62 99 175
62 99 174
62 99 175
62 99 178
62 99 176
63 100 178
62 99 176
62 99 176
62 99 177
62 99 177
62 99 175
63 99 179
62 99 178
62 99 175
61 98 172
62 99 175
62 99 177
63 99 177
62 99 175
63 99 177
62 98 174
62 99 177
63 100 178
62 99 177
63 99 177
63 99 169
63 100 178
62 99 177
62 99 173
63 99 177
63 99 175
63 100 177
61 98 174
63 99 174
62 99 171
61 98 170
61 98 175
62 99 176
62 99 176
62 99 174
62 98 170
63 99 175
62 99 174
62 98 170
62 99 172
62 99 175
62 99 174
61 99 176
62 99 176
62 99 172
63 99 177
62 99 173
63 99 176
63 99 172
62 98 174
61 98 171
63 99 170
62 99 172
62 99 175
62 98 171
62 99 173
61 98 172
62 99 174
62 98 165
63 99 174
62 98 170
62 98 172
62 99 173
61 98 173
62 99 166
63 99 173
62 98 166
62 98 171
62 98 174
62 99 172
62 98 170
62 98 169
62 99 169
62 98 165
61 96 164
62 98 169
61 96 159
61 96 163
61 97 167
62 98 167
61 96 163
61 97 163
61 97 165
60 95 157
61 96 161
60 94 158
60 94 155
58 92 154
63 92 146
57 71 88
58 61 41
71 74 48
59 64 45
64 69 50
68 74 53
67 73 53
62 69 53
78 85 63
61 68 46
76 81 54
85 88 60
103 104 66
87 90 62
84 87 62
93 96 64
111 111 67
94 97 62
95 98 63
104 106 69
111 113 71
103 105 71
107 109 64
118 117 71
115 116 73
120 120 75
128 128 78
129 128 81
116 117 70
123 123 75
135 133 82
130 129 77
131 130 80
138 137 76
132 131 74
144 141 83
142 140 82
136 135 81
150 147 89
147 144 84
144 142 83
152 148 85
153 149 89
152 149 87
150 145 82
159 155 91
163 158 92
150 146 85
154 150 86
159 155 91
156 152 86
160 156 86
161 156 86
164 158 88
162 157 86
160 155 87
156 151 88
157 152 81
160 156 87
169 164 93
167 161 92
169 162 93
168 161 95
171 165 94
173 167 96
167 161 90
169 163 87
165 159 88
172 165 93
172 165 91
170 163 91
166 159 87
167 162 91
168 163 90
166 160 88
169 163 85
167 161 91
169 162 89
170 164 87
168 161 88
165 160 82
170 164 87
169 163 87
171 164 87
165 159 83
170 163 86
164 158 87
169 162 90
164 158 80
167 160 82
168 161 87
168 161 84
166 160 85
171 164 87
168 160 90
161 155 81
168 161 89
165 159 84
158 152 82
167 160 88
163 157 79
164 158 79
156 151 75
168 160 87
162 156 83
157 150 76
156 150 79
156 150 79
162 155 82
167 161 79
158 152 75
154 149 78
153 147 70
154 147 72
151 145 71
152 146 69
151 146 65
155 148 77
149 143 69
151 145 68
150 145 74
146 141 68
145 140 63
146 141 65
145 140 65
145 140 65
147 140 62
147 140 67
139 134 62
144 142 63
139 140 49
154 159 51
150 157 48
146 156 34
152 167 25
157 170 32
161 177 36
166 183 25
167 188 0
169 190 16
169 192 0
171 194 0
174 197 0
171 195 0
170 194 0
173 196 0
171 194 0
173 197 0
172 195 0
173 196 0
172 195 0
172 195 0
172 195 0
172 196 0
174 197 0
173 196 0
171 194 0
173 197 0
172 195 0
172 195 0
172 195 0
171 194 0
173 196 0
170 194 0
170 194 0
172 195 0
168 190 0
171 195 0
173 197 0
169 193 0
172 196 0
173 197 0
172 195 0
175 197 0
171 194 0
170 195 0
174 196 0
172 196 0
172 195 0
170 193 0
173 196 0
170 193 0
169 192 0
169 193 0
172 196 0
173 196 0
169 193 0
171 194 0
171 194 0
170 193 0
174 198 0
170 194 0
168 192 0
172 195 0
172 196 0
172 195 0
171 194 0
171 194 0
174 197 0
170 193 0
171 195 0
172 195 0
170 194 0
171 194 0
172 195 0
170 194 0
170 193 0
171 194 0
169 192 0
173 196 0
171 194 0
170 193 0
173 197 0
169 192 0
170 193 0
169 192 0
166 189 0
173 195 0
171 193 0
168 190 0
169 192 0
170 195 0
171 195 0
171 194 0
170 193 0
172 195 0
170 194 0
167 190 0
169 193 0
170 194 0
167 190 0
168 192 40
67 102 158
61 97 162
62 98 158
62 98 161
62 98 166
62 98 167
62 99 168
62 99 169
61 97 164
62 98 164
62 98 169
62 99 169
62 98 167
61 98 167
62 99 173
61 98 163
62 99 171
63 99 171
62 98 164
62 99 174
62 99 171
62 99 171
62 99 172
61 98 169
62 99 176
62 99 172
63 99 176
62 99 171
62 99 173
62 99 172
62 99 178
62 98 167
62 99 176
62 99 176
63 99 176
63 99 170
63 99 177
63 99 175
63 99 177
63 100 178
62 99 175
62 99 173
62 99 175
62 99 175
62 99 175
62 99 178
62 99 178
62 98 174
62 99 178
62 99 177
63 100 180
62 99 178
63 100 178
62 99 172
62 99 176
61 98 176
62 99 177
62 99 173
62 99 174
62 99 175
62 98 173
62 99 179
62 99 175
63 99 178
62 99 178
62 99 174
62 99 176
62 99 179
63 99 175
62 99 177
62 99 176
62 99 174
62 99 175
62 99 177
62 99 175
63 100 180
61 98 173
62 99 176
62 99 175
62 99 172
63 99 178
62 99 173
62 99 175
62 99 179
62 99 174
61 98 176
62 99 175
62 99 172
62 99 177
61 98 177
62 99 174
62 99 177
62 99 176
62 98 175
62 99 175
63 100 178
62 99 174
62 99 176
62 99 174
62 99 178
62 99 175
62 99 177
63 100 179
62 99 176
62 99 175
62 99 175
62 99 175
62 99 177
62 99 174
63 99 176
61 98 167
63 99 173
61 98 173
62 99 172
63 100 175
62 99 172
63 99 175
63 99 176
62 99 169
61 98 166
63 99 176
62 99 177
62 99 176
62 99 172
62 99 174
62 98 171
62 99 172
62 99 176
62 98 165
62 99 177
62 99 176
61 98 172
62 99 176
62 99 173
62 98 170
62 99 173
62 99 172
62 99 174
62 99 176
62 99 174
62 99 171
62 98 171
62 98 168
61 98 168
63 99 173
61 98 169
61 98 166
62 98 169
62 98 166
61 98 168
61 98 169
61 97 163
61 97 164
61 97 164
61 97 162
61 97 165
63 98 166
60 96 161
62 98 163
62 98 165
61 97 163
61 97 163
61 96 158
61 96 160
61 96 162
60 94 155
60 93 153
57 90 149
51 73 105
52 59 54
58 63 44
62 69 52
62 68 53
65 69 47
62 68 51
67 72 52
74 79 56
67 75 51
70 74 51
85 87 55
83 87 59
79 84 57
96 98 66
91 94 60
95 98 68
92 95 55
101 102 65
92 94 61
104 106 66
109 111 71
120 119 70
118 120 70
123 123 76
125 124 75
121 121 76
113 114 72
125 125 79
124 125 73
123 124 74
129 128 78
131 131 72
140 138 85
140 137 83
134 133 79
141 139 83
141 139 77
142 139 77
138 135 79
154 150 88
142 139 84
144 141 78
153 149 86
145 142 79
154 149 82
156 152 88
151 148 82
158 154 85
156 151 87
162 156 87
158 153 79
154 150 81
160 156 85
159 155 90
159 155 88
159 155 87
168 162 87
166 161 94
166 160 91
161 157 86
164 159 91
165 159 87
168 162 94
165 160 85
171 165 91
171 165 95
170 163 88
169 163 88
168 162 90
169 163 90
168 162 79
165 160 84
168 162 87
163 158 84
166 160 84
167 161 88
163 158 83
167 161 86
168 161 88
172 165 87
166 160 84
170 163 87
168 161 90
168 162 85
169 164 92
168 161 89
171 164 91
168 162 91
156 151 75
171 164 93
162 156 83
168 161 90
164 158 80
164 159 82
160 154 85
170 163 90
161 155 79
164 159 82
165 158 86
163 157 81
162 155 80
159 152 79
156 150 75
161 155 78
154 148 75
159 152 69
159 153 77
153 147 72
158 151 79
154 147 74
157 150 75
155 149 72
153 147 69
151 145 71
151 145 69
151 145 66
151 145 70
150 145 62
152 146 67
145 138 63
149 142 73
140 133 64
143 137 65
148 142 67
133 128 60
131 126 63
135 131 54
144 139 62
139 138 56
149 152 49
145 154 39
147 155 45
151 162 37
156 170 32
152 167 25
159 175 19
163 179 22
170 189 11
173 195 0
170 192 0
171 192 0
170 194 0
171 194 0
173 196 0
171 194 0
173 197 0
174 196 0
172 196 0
173 196 0
176 199 0
172 196 0
169 193 0
172 196 0
172 196 0
175 198 0
169 193 0
173 196 0
168 192 0
172 196 0
171 195 0
172 196 0
171 194 0
170 193 0
172 196 0
170 193 0
173 197 0
173 197 0
172 196 0
167 191 0
172 195 0
170 193 0
172 194 0
173 197 0
170 194 0
174 197 0
169 192 0
173 196 0
171 195 0
173 196 0
173 197 0
171 194 0
171 195 0
168 192 0
169 193 0
172 195 0
172 195 0
169 193 0
169 193 0
170 194 0
173 196 0
171 193 0
170 194 0
172 195 0
173 197 0
171 194 0
173 196 0
168 192 0
172 195 0
168 192 0
169 193 0
173 197 0
169 193 0
173 196 0
171 193 0
170 194 0
168 192 0
171 194 0
168 192 0
168 192 0
171 194 0
172 195 0
170 194 0
170 193 0
170 194 0
168 191 0
172 195 0
173 196 0
168 192 0
170 193 0
171 194 0
167 190 0
173 196 0
172 195 0
167 191 0
166 190 0
170 194 0
170 194 0
167 190 0
166 189 0
169 193 18
136 160 103
63 99 168
62 99 168
61 98 161
61 97 159
62 98 164
62 98 163
62 99 166
62 98 166
62 99 171
62 98 165
63 99 165
62 99 172
62 99 170
62 99 171
62 98 169
62 99 169
62 99 169
63 99 175
63 99 169
62 99 168
62 99 169
62 99 175
62 99 173
62 99 169
63 99 173
62 99 175
63 100 176
62 99 171
62 98 171
62 98 175
62 99 175
62 99 174
62 99 172
62 99 170
63 99 172
62 99 176
63 100 177
62 99 174
63 99 177
62 99 172
62 99 177
62 99 175
63 99 174
63 99 173
62 99 176
61 98 174
62 99 177
62 99 175
62 99 177
62 99 176
63 99 176
62 99 175
62 99 176
62 99 178
62 99 178
62 99 176
63 99 177
62 99 176
63 99 175
62 99 174
62 99 179
62 99 177
62 99 173
62 99 177
62 99 176
62 99 179
62 99 175
63 99 179
62 98 174
63 100 178
62 99 177
62 99 175
62 99 176
63 99 175
62 98 173
61 98 177
62 99 178
61 98 173
62 99 179
62 99 173
62 99 175
63 100 180
62 98 171
62 99 172
62 99 176
62 99 175
62 99 175
62 99 177
62 99 174
62 99 174
62 99 177
62 99 179
61 98 173
62 99 177
62 99 178
62 99 176
62 99 177
62 99 175
62 99 174
62 99 175
62 99 177
62 99 179
62 99 177
63 100 177
62 99 175
62 99 176
63 99 174
63 99 175
63 99 175
62 98 170
62 99 172
61 98 170
62 99 173
62 99 175
62 99 174
62 99 174
62 99 172
62 99 175
62 99 172
62 99 173
61 98 174
62 99 178
61 98 166
62 99 176
62 99 172
62 99 173
62 99 171
63 99 176
63 99 175
62 99 172
62 99 176
62 99 176
62 98 168
62 99 173
62 99 172
62 98 166
63 99 173
62 99 175
62 99 168
63 99 170
63 99 176
61 97 165
62 98 170
61 98 163
63 99 171
62 98 166
62 98 167
63 99 171
62 99 171
62 98 167
61 97 167
61 97 163
62 97 167
61 96 158
61 97 162
61 96 165
61 98 168
62 98 163
61 96 160
60 96 162
62 98 166
60 95 158
60 95 159
60 94 155
59 93 157
59 92 145
61 95 149
60 94 156
53 80 123
59 67 68
49 55 39
62 65 45
65 70 51
70 75 51
67 70 47
62 67 44
81 85 57
66 72 52
85 89 59
74 79 54
83 86 51
89 92 57
80 85 57
94 97 64
104 106 66
102 103 64
103 105 65
110 112 68
108 110 66
106 108 67
109 110 66
106 108 62
122 122 70
107 109 63
126 125 75
115 116 69
126 126 75
128 127 72
136 135 79
135 134 80
134 132 80
124 124 76
134 132 80
139 138 81
137 136 74
142 141 83
136 135 75
137 135 78
155 150 87
156 152 90
145 142 87
144 141 81
153 149 86
148 145 83
154 150 81
156 151 87
156 151 87
161 156 88
166 160 92
157 153 83
156 152 85
159 154 90
165 159 87
166 159 93
158 154 82
159 154 86
164 159 90
164 158 90
165 160 90
164 159 87
166 160 84
169 163 90
160 155 83
173 165 95
165 159 91
174 166 92
168 162 89
168 163 90
175 167 98
172 165 89
169 162 90
167 162 87
169 162 94
166 160 84
167 161 88
172 165 92
170 164 91
165 159 87
164 159 83
168 162 82
168 161 86
168 162 84
169 162 81
167 160 87
171 164 88
168 161 90
166 160 85
169 161 86
171 164 94
166 160 82
166 159 84
164 157 86
170 163 84
167 160 87
169 163 82
166 160 85
164 158 79
159 153 79
164 158 83
163 157 80
163 154 80
159 153 79
165 159 75
159 153 77
158 152 77
156 150 77
156 149 75
151 145 71
157 151 75
154 149 72
156 150 74
157 151 75
162 155 71
147 141 71
146 141 69
152 146 65
155 148 73
152 146 74
151 145 62
150 143 67
143 136 66
140 135 58
142 136 60
148 142 70
144 138 64
152 147 67
135 131 58
135 133 52
151 152 49
143 147 45
150 158 37
155 164 39
152 167 30
164 183 19
161 180 0
164 183 19
169 191 11
171 193 0
171 193 0
168 192 0
172 197 0
173 195 0
169 193 0
173 196 0
172 195 0
171 195 0
172 195 0
170 193 0
171 195 0
175 198 0
173 196 0
171 195 0
168 192 0
173 196 0
172 195 0
170 194 0
172 195 0
171 195 0
171 195 0
175 198 0
172 194 0
171 195 0
173 197 0
173 197 0
171 194 0
171 194 0
173 196 0
172 196 0
170 194 0
173 197 0
170 193 0
173 197 0
169 192 0
172 196 0
171 194 0
170 194 0
170 193 0
172 194 0
172 195 0
171 195 0
171 195 0
172 195 0
172 197 0
170 194 0
173 197 0
171 195 0
171 195 0
171 194 0
173 196 0
168 192 0
173 196 0
170 195 0
169 192 0
171 195 0
174 197 0
172 194 0
168 192 0
172 196 0
172 196 0
170 193 0
170 193 0
168 192 0
169 193 0
168 191 0
168 191 0
168 190 0
172 194 0
170 194 0
170 195 0
170 194 0
172 196 0
172 195 0
173 196 0
167 190 0
172 195 0
170 193 0
170 193 0
170 193 0
170 194 0
172 194 0
171 195 0
168 191 0
168 190 0
173 195 0
167 190 0
169 192 0
171 195 0
168 191 0
172 195 0
121 146 121
62 98 162
61 98 159
61 97 157
62 98 165
63 99 166
63 99 164
62 98 167
62 98 165
62 99 171
61 97 160
62 98 171
63 99 169
62 98 165
62 98 166
62 98 169
62 99 170
62 99 171
62 99 174
63 99 173
61 98 168
61 98 164
62 98 169
63 99 174
62 99 172
62 99 172
62 99 170
62 99 174
62 99 175
62 99 174
62 98 169
61 98 168
62 99 178
62 99 173
62 99 172
63 99 175
63 99 176
63 99 176
62 99 178
62 99 173
62 99 175
62 99 175
62 99 175
63 99 174
62 99 179
62 99 176
62 99 177
62 99 176
62 99 174
62 99 171
62 98 173
63 99 177
62 99 176
62 99 177
63 99 176
62 99 178
61 99 176
62 99 175
62 99 177
62 99 176
62 99 173
61 98 173
62 99 175
61 98 174
62 99 179
62 99 177
63 100 179
62 99 175
62 99 178
62 98 168
62 98 173
63 100 175
63 99 179
63 99 178
62 99 175
61 98 171
62 99 171
62 99 177
62 99 174
61 98 171
62 99 176
62 99 175
62 99 176
62 99 177
63 99 178
63 99 178
62 98 172
63 99 175
63 100 178
63 100 175
62 99 174
62 99 176
62 99 174
63 100 178
62 99 174
62 99 174
62 99 173
62 98 172
62 99 172
62 99 175
62 99 177
61 98 173
62 99 177
61 98 173
62 99 174
62 99 175
62 98 171
62 98 169
62 99 175
62 99 176
62 99 172
62 99 174
61 98 170
62 99 175
62 98 172
62 99 174
62 99 173
63 99 178
62 98 173
61 98 173
62 99 173
62 99 170
63 99 174
62 98 172
62 99 171
62 98 170
63 99 177
62 99 175
62 99 174
63 99 173
62 99 172
63 99 175
62 99 172
62 98 171
63 99 174
62 99 173
62 99 170
60 96 162
62 99 171
62 98 167
61 98 165
61 98 166
62 99 173
62 99 173
62 98 170
62 99 173
62 98 166
62 98 169
62 98 169
62 97 164
61 97 158
61 98 170
60 96 163
62 97 163
62 99 172
61 96 159
62 97 165
62 97 162
62 97 162
62 97 159
61 95 162
60 95 156
61 96 161
60 94 158
61 96 159
60 95 159
60 95 158
59 93 150
60 94 154
61 90 138
54 69 86
60 64 47
56 59 34
57 61 39
57 63 39
55 63 46
56 63 43
81 84 53
60 68 50
82 87 60
71 74 51
72 75 47
92 94 60
98 101 63
94 95 61
91 93 54
95 96 58
105 106 63
102 104 62
109 111 69
102 102 65
119 118 73
110 111 68
122 121 71
127 126 73
107 109 67
114 114 69
137 136 80
127 125 74
127 127 77
129 128 72
131 130 76
135 133 78
132 130 75
130 129 71
149 145 85
136 134 75
139 136 76
140 137 77
148 144 84
132 131 71
145 142 81
143 140 80
152 148 81
153 149 81
149 145 83
149 147 86
157 152 83
159 153 87
158 153 85
156 151 85
158 154 82
164 158 91
153 149 83
159 154 85
157 152 85
164 158 90
164 158 84
164 158 84
168 162 94
164 158 88
164 159 87
163 157 86
165 159 87
166 161 87
161 156 78
169 162 92
169 162 90
173 165 90
164 158 82
172 165 94
165 159 77
165 160 86
167 160 90
168 162 82
165 159 84
165 159 78
173 165 89
167 159 90
174 167 96
172 165 91
163 156 80
173 166 91
169 163 84
164 157 79
170 163 86
168 162 79
169 162 87
159 153 73
163 156 84
165 159 84
164 158 80
164 158 83
167 160 84
162 155 87
159 153 79
161 155 76
166 160 84
168 161 91
160 153 78
163 157 81
148 143 72
157 150 74
161 154 81
163 156 76
158 152 81
159 153 76
156 149 66
158 153 77
148 143 68
155 149 70
156 150 68
157 150 74
152 147 69
149 143 72
147 140 66
147 142 62
152 146 73
157 151 72
154 147 69
152 146 70
148 141 68
134 129 53
147 141 63
144 138 68
135 130 60
135 131 52
144 142 52
135 133 49
141 143 49
151 158 39
141 150 32
153 166 30
159 173 32
159 174 22
159 175 22
164 184 16
167 187 0
168 189 0
170 192 0
169 192 0
174 197 0
174 197 0
170 194 0
173 196 0
173 196 0
173 197 0
173 196 0
172 196 0
172 196 0
169 192 0
172 195 0
173 196 0
172 195 0
171 195 0
170 193 0
174 196 0
171 195 0
170 194 0
170 194 0
171 195 0
171 195 0
172 195 0
170 193 0
173 196 0
171 195 0
173 195 0
172 195 0
171 194 0
172 196 0
172 196 0
173 196 0
171 194 0
173 196 0
167 190 0
172 196 0
171 194 0
170 194 0
173 197 0
167 190 0
173 197 0
171 195 0
170 195 0
170 193 0
169 193 0
169 193 0
173 195 0
171 195 0
175 197 0
165 189 0
169 193 0
171 194 0
171 195 0
171 194 0
172 195 0
170 194 0
170 194 0
172 196 0
172 195 0
169 192 0
169 193 0
173 197 0
169 193 0
168 192 0
170 193 0
170 193 0
166 190 0
171 195 0
171 195 0
172 195 0
172 195 0
174 197 0
168 191 0
169 192 0
170 194 0
170 193 0
170 193 0
167 190 0
172 194 0
171 196 0
170 194 0
167 191 0
169 193 0
173 196 0
171 194 0
170 193 0
170 194 0
170 194 0
170 194 0
164 187 47
75 108 157
62 98 160
62 98 159
61 97 164
62 99 164
63 100 175
62 98 164
62 98 162
62 99 169
61 97 159
61 97 165
62 99 166
62 99 169
63 99 171
62 98 170
62 98 167
62 98 167
63 99 173
62 99 168
62 98 169
62 98 173
63 99 176
62 98 169
63 99 174
63 100 175
63 100 175
63 99 171
62 99 167
62 98 170
63 99 176
62 98 168
62 99 170
62 99 171
62 98 166
62 99 173
62 99 171
62 99 173
62 99 171
62 99 175
63 100 177
62 98 173
63 99 175
63 100 176
61 98 172
62 99 174
62 99 170
62 99 176
62 99 175
63 100 178
62 98 170
62 99 171
62 99 178
62 99 172
62 99 173
62 99 177
63 99 176
62 99 178
63 100 179
62 99 179
62 99 178
62 99 173
62 99 176
62 99 179
62 99 173
62 99 173
62 99 179
62 99 178
62 99 176
62 99 179
62 99 176
62 99 179
62 99 174
62 99 176
62 98 174
62 99 176
63 100 176
62 99 174
62 99 177
64 100 179
62 99 175
62 99 170
63 100 180
62 99 174
62 99 176
62 99 172
63 99 175
63 99 177
62 99 178
61 98 174
62 98 172
62 99 176
62 99 173
62 99 173
62 99 177
61 98 171
62 99 172
62 99 174
62 99 174
63 99 173
61 98 176
63 100 173
62 99 177
62 99 174
63 99 172
62 99 174
62 99 172
62 99 176
63 99 177
63 99 175
62 99 172
62 99 175
62 99 172
63 100 176
62 99 170
63 99 173
62 99 176
62 99 178
63 100 174
62 98 167
63 99 177
62 98 170
62 98 171
62 99 172
61 97 164
62 99 173
62 99 175
62 99 175
62 99 174
62 99 171
62 99 176
62 98 170
62 99 173
62 99 173
63 99 174
62 98 166
62 98 170
62 98 164
63 99 166
62 98 168
62 98 165
62 98 165
62 98 167
62 98 163
61 98 167
62 98 165
62 99 170
63 99 172
62 98 168
61 98 169
62 98 170
62 98 171
62 98 164
62 98 163
61 97 163
63 99 170
61 97 169
62 98 167
62 98 164
61 97 169
62 97 161
61 96 160
61 96 158
61 96 157
61 97 162
59 94 153
60 95 154
61 96 156
60 94 155
59 92 146
59 94 155
57 77 105
55 61 40
56 62 43
49 56 39
59 66 43
58 65 47
74 77 51
76 80 51
68 72 46
81 84 47
70 74 41
84 86 49
87 90 57
88 92 60
96 97 57
87 92 61
94 97 62
98 100 59
108 110 70
110 110 64
106 107 64
110 111 68
126 124 76
110 111 66
107 109 68
123 122 70
122 123 74
124 123 70
122 120 67
124 124 73
131 128 71
129 127 74
130 129 72
125 124 71
133 132 74
133 131 77
142 139 81
135 133 72
146 143 83
150 146 81
149 146 82
155 150 82
158 152 87
154 149 84
146 144 76
151 147 81
150 146 83
153 150 81
152 148 81
156 152 86
157 153 84
156 152 78
163 157 88
166 161 89
159 155 77
153 150 83
159 154 88
167 160 86
163 157 85
163 158 83
168 162 87
162 157 83
165 160 87
167 162 91
167 161 84
159 154 82
167 161 91
165 160 86
168 162 86
164 159 87
170 164 88
164 158 80
166 159 88
165 158 77
170 163 93
167 161 86
168 161 83
170 163 87
168 161 89
166 159 81
168 160 87
166 160 84
170 163 84
169 162 89
169 162 88
168 161 87
167 161 89
166 160 88
166 159 83
166 160 87
163 156 82
161 156 80
157 150 75
165 159 80
165 158 82
164 157 77
158 152 77
164 156 80
161 155 79
164 158 78
165 158 84
161 154 76
166 159 82
159 153 79
164 158 85
157 150 75
158 152 78
161 154 79
152 147 71
162 155 82
157 151 75
154 148 68
138 133 62
154 148 67
145 139 62
149 143 62
151 144 66
142 136 60
144 138 60
152 146 68
150 144 69
141 135 65
153 147 67
131 126 53
143 137 62
128 123 53
140 137 54
149 147 57
136 137 45
144 147 51
152 156 45
156 166 32
155 169 30
156 172 16
163 180 22
161 181 11
169 190 22
170 190 11
165 186 0
167 188 0
169 190 0
171 195 0
170 194 0
173 196 0
171 194 0
170 194 0
171 194 0
174 197 0
171 194 0
173 196 0
173 197 0
170 194 0
171 194 0
171 194 0
172 195 0
174 197 0
173 196 0
173 197 0
171 195 0
172 194 0
168 193 0
172 195 0
171 195 0
172 195 0
175 198 0
171 195 0
171 194 0
169 192 0
172 195 0
173 196 0
167 191 0
170 194 0
174 197 0
172 196 0
170 194 0
174 197 0
173 196 0
172 195 0
169 192 0
172 196 0
171 195 0
170 193 0
172 195 0
170 193 0
172 195 0
170 194 0
174 197 0
171 194 0
171 193 0
168 191 0
174 198 0
170 193 0
169 193 0
170 193 0
169 193 0
169 193 0
171 194 0
170 193 0
168 191 0
169 193 0
169 192 0
171 195 0
171 194 0
173 196 0
171 195 0
166 189 0
170 194 0
171 195 0
170 194 0
170 194 0
170 193 0
171 193 0
167 191 0
169 192 0
171 195 0
168 191 0
170 193 0
168 191 0
170 193 0
173 195 0
171 195 0
169 192 0
169 193 0
169 192 0
170 194 0
169 193 0
169 192 0
167 191 0
170 194 0
140 164 97
61 97 160
62 98 162
62 98 162
62 99 164
62 98 168
62 98 163
62 98 166
63 99 167
63 99 171
63 99 168
62 98 165
62 99 176
62 98 166
62 99 167
62 98 169
62 99 175
62 99 173
62 99 171
62 99 171
62 99 169
62 98 167
62 99 172
62 98 169
62 99 173
62 99 174
62 99 171
62 99 172
62 99 174
62 99 172
62 99 173
62 99 174
62 99 173
62 99 170
62 98 172
61 98 172
62 99 173
62 99 172
61 98 169
62 99 178
63 99 177
62 99 178
63 100 178
62 99 176
63 100 179
62 99 180
62 99 173
63 99 177
61 98 168
61 98 173
62 99 177
62 99 177
62 98 172
62 99 176
63 99 174
62 99 179
62 99 173
63 99 173
62 99 175
62 99 177
62 99 179
62 98 175
62 99 174
62 99 176
62 99 178
63 100 178
61 98 172
62 99 180
62 99 178
62 99 174
62 99 177
62 99 174
62 99 173
62 99 173
62 98 171
62 99 176
62 99 174
62 99 177
63 99 174
62 99 175
62 99 177
62 99 172
62 98 175
62 99 177
62 99 173
62 99 175
62 99 175
62 99 177
62 99 177
62 99 177
62 99 173
63 99 175
63 100 178
62 99 174
62 99 172
62 99 177
62 99 172
62 99 176
62 99 179
62 99 174
62 99 175
61 98 175
62 99 174
62 99 171
62 99 174
62 99 175
62 99 176
62 99 171
62 99 172
61 98 172
61 98 171
62 99 173
62 99 177
63 100 180
61 98 174
62 99 175
62 99 174
62 99 173
62 99 177
61 98 170
63 99 176
62 99 174
62 99 176
62 99 172
61 98 168
62 98 170
62 98 169
63 99 175
62 99 175
62 99 173
62 98 166
62 99 172
63 99 171
63 99 173
62 98 170
63 99 172
62 98 171
62 99 174
61 98 169
62 99 173
62 98 171
63 99 174
61 97 171
61 98 167
62 99 171
62 98 168
61 98 166
62 99 171
62 98 166
62 98 166
62 98 166
62 98 166
61 97 167
63 99 171
61 97 165
61 98 166
62 98 166
62 98 169
61 97 161
60 96 166
62 98 161
62 97 159
60 95 163
61 96 161
61 97 164
62 97 166
61 96 161
59 93 156
61 95 158
60 94 153
57 91 144
51 78 115
42 51 51
45 50 30
55 60 39
58 63 45
59 65 36
60 65 43
55 61 37
64 70 46
70 76 48
73 79 50
76 81 50
80 82 55
84 88 57
82 86 54
87 91 57
98 100 63
93 95 58
110 111 67
102 105 63
101 104 63
105 108 62
113 115 67
108 110 69
123 121 73
112 112 61
121 119 65
126 126 78
117 118 63
129 128 69
115 116 68
132 130 74
121 121 66
130 129 75
140 137 74
133 132 75
130 129 74
142 139 80
149 146 79
147 144 81
149 144 85
147 143 78
143 140 78
152 148 88
152 148 85
148 144 77
159 154 85
153 149 84
156 152 83
164 157 85
158 153 89
152 149 87
163 157 85
167 161 90
160 155 80
162 157 82
162 156 85
168 161 89
165 161 80
163 157 90
165 160 89
169 163 92
166 161 88
166 160 87
166 159 86
163 157 86
166 160 84
166 161 84
165 159 84
165 160 79
170 164 87
167 160 80
168 161 82
167 161 88
170 163 87
165 160 80
167 160 91
167 161 88
168 162 84
170 162 93
161 156 83
171 163 84
165 159 77
168 162 84
162 156 80
170 162 87
161 155 76
167 161 89
169 162 87
165 158 87
167 160 87
168 161 86
162 156 75
165 159 80
161 154 75
163 157 80
168 160 84
162 155 79
159 153 76
166 160 85
160 154 76
151 145 72
167 159 84
160 154 75
152 145 65
164 156 81
157 151 75
156 150 68
157 151 74
156 149 72
160 154 79
158 150 81
157 150 77
155 149 69
147 142 54
147 141 63
150 145 65
145 140 65
148 142 67
143 138 60
151 144 72
144 138 60
144 139 57
139 134 59
139 133 62
139 135 54
135 133 53
145 146 48
158 160 52
152 157 49
154 162 48
148 156 42
152 164 32
159 174 22
164 179 28
171 191 19
168 188 0
174 193 19
173 195 0
172 194 0
169 190 0
175 198 0
172 196 0
169 193 0
172 196 0
170 193 0
173 196 0
173 196 0
171 195 0
172 196 0
174 198 0
173 196 0
169 192 0
172 194 0
173 196 0
170 194 0
174 196 0
172 195 0
171 195 0
169 193 0
172 196 0
172 195 0
173 197 0
173 197 0
172 196 0
167 191 0
171 195 0
170 193 0
172 196 0
171 194 0
170 194 0
175 198 0
171 195 0
169 192 0
171 194 0
172 196 0
174 196 0
172 195 0
170 194 0
173 195 0
170 193 0
166 189 0
168 192 0
171 195 0
171 194 0
172 193 0
174 197 0
170 193 0
172 195 0
175 197 0
171 193 0
172 195 0
172 195 0
172 196 0
170 193 0
168 191 0
169 191 0
169 192 0
171 194 0
171 194 0
169 192 0
170 193 0
169 193 0
167 190 0
170 194 0
170 193 0
171 194 0
169 193 0
171 195 0
169 192 0
170 194 0
169 192 0
171 194 0
168 190 0
169 193 0
169 192 0
166 189 0
174 196 0
171 194 0
170 194 0
169 192 0
167 189 0
172 195 0
170 193 0
168 191 0
166 190 0
171 195 0
170 194 0
169 192 18
110 137 131
61 97 157
61 97 153
62 99 167
61 97 161
62 98 165
62 98 164
62 98 168
63 99 165
62 98 168
63 99 172
62 98 168
63 99 172
62 99 168
61 98 166
62 98 168
62 98 165
63 99 172
62 98 165
62 99 174
62 99 171
62 98 167
62 99 173
61 98 173
62 99 177
63 99 169
63 100 177
62 99 173
62 99 175
62 98 170
62 99 173
62 99 174
62 99 171
62 99 173
62 99 173
62 99 177
62 99 175
62 99 173
63 100 177
62 99 174
63 99 177
62 98 175
62 99 174
61 98 172
63 99 177
62 99 175
63 99 177
62 99 174
62 99 175
63 100 180
61 98 171
62 99 176
63 100 179
62 99 174
62 99 175
63 99 178
61 98 171
61 98 175
62 99 175
62 99 175
62 99 175
62 99 174
63 100 178
62 99 177
62 99 174
62 99 175
62 99 176
63 100 178
62 99 175
63 99 173
62 99 176
62 99 174
62 100 181
62 99 174
62 98 174
62 99 171
62 99 174
62 99 177
61 98 172
62 99 174
63 99 176
62 99 175
62 99 177
61 98 175
62 99 176
62 99 175
62 99 175
61 98 177
62 99 175
62 99 175
62 99 177
62 98 170
62 98 171
62 99 179
61 98 173
62 99 175
62 99 171
61 98 172
63 100 178
62 99 174
62 99 173
63 100 177
63 100 178
62 99 177
62 98 169
62 99 172
62 99 177
62 99 171
62 99 171
62 99 174
62 99 173
62 98 169
62 99 172
62 99 172
63 99 175
62 99 172
61 98 171
62 99 170
62 98 170
62 99 174
62 99 175
61 98 164
62 99 173
62 99 171
62 99 173
62 98 168
62 99 171
62 98 170
61 98 168
63 100 178
62 98 170
63 99 171
62 99 169
62 99 174
61 98 173
62 99 171
62 98 167
62 98 169
62 99 173
62 98 169
61 98 164
62 99 175
62 99 175
62 98 169
61 98 170
61 98 166
63 99 171
62 98 164
62 98 171
61 97 164
62 98 162
62 98 165
62 97 163
62 98 164
61 97 166
61 97 168
60 96 162
61 97 166
63 99 173
62 99 172
61 97 160
62 98 165
61 97 163
62 98 167
60 95 152
60 94 154
60 96 153
59 93 149
60 95 154
60 93 150
60 94 156
55 86 129
55 68 79
51 55 31
44 52 34
61 65 37
62 66 39
77 81 46
66 71 46
67 72 39
65 70 44
71 73 43
77 82 55
76 79 47
88 91 58
78 81 50
90 92 53
103 104 62
90 94 62
93 95 59
102 102 63
103 105 60
102 105 65
100 103 66
106 107 69
107 108 60
112 111 67
115 116 71
127 126 75
121 122 74
122 122 70
121 121 66
132 130 72
124 123 74
120 119 67
135 132 75
134 132 73
134 132 80
144 141 79
145 142 81
139 137 80
156 152 87
146 142 80
149 146 82
148 144 88
147 144 76
157 151 82
147 144 79
156 152 85
151 146 79
147 143 79
153 149 81
154 150 82
157 153 86
154 150 74
163 157 85
160 154 82
159 154 86
164 159 84
157 152 82
160 156 84
164 158 85
167 161 85
162 157 83
165 159 88
165 159 85
166 160 86
171 164 87
164 158 79
164 157 80
169 162 88
166 160 80
172 164 89
166 160 83
167 161 86
172 165 87
166 160 80
164 158 75
165 159 83
161 155 76
168 161 84
164 158 81
169 163 87
168 161 81
165 159 80
165 158 80
171 164 87
166 160 84
165 158 89
169 162 84
166 160 81
165 159 80
159 154 78
162 156 81
165 158 77
160 154 80
159 153 75
163 157 75
156 150 75
162 154 83
158 152 73
162 156 74
162 156 78
162 154 75
158 152 76
159 152 74
158 152 73
156 149 74
155 148 75
157 150 72
162 155 82
154 147 71
161 154 80
149 143 67
153 146 73
144 140 60
146 141 63
153 146 72
148 142 57
147 141 69
151 145 68
143 138 63
145 139 61
141 136 60
139 134 54
137 131 56
142 138 58
140 139 51
141 139 56
154 158 57
147 152 47
146 153 36
147 156 37
161 177 25
159 175 28
167 183 30
165 183 16
167 188 11
169 191 0
169 191 0
172 193 0
174 196 0
172 197 0
170 193 0
171 195 0
174 198 0
173 197 0
172 195 0
172 195 0
172 196 0
171 195 0
172 195 0
172 196 0
172 195 0
171 195 0
171 195 0
172 195 0
171 194 0
170 194 0
172 195 0
171 194 0
170 193 0
172 194 0
172 196 0
169 193 0
172 196 0
174 197 0
169 192 0
174 196 0
175 198 0
167 190 0
173 196 0
171 195 0
173 196 0
171 194 0
172 195 0
167 190 0
171 193 0
171 194 0
172 194 0
172 196 0
172 195 0
170 193 0
173 197 0
172 195 0
171 195 0
174 196 0
170 193 0
173 197 0
169 192 0
169 191 0
168 191 0
169 192 0
172 196 0
166 190 0
169 192 0
174 197 0
173 196 0
169 193 0
170 193 0
167 191 0
171 194 0
169 192 0
171 194 0
168 191 0
168 192 0
171 194 0
168 192 0
171 194 0
169 192 0
171 195 0
165 189 0
166 189 0
170 194 0
169 192 0
171 194 0
171 194 0
171 193 0
172 194 0
168 191 0
168 192 0
169 192 0
169 194 0
169 192 0
169 192 0
167 190 0
169 193 0
168 192 0
170 193 0
165 188 47
83 113 143
61 97 158
61 97 162
62 98 160
62 98 162
62 98 164
61 98 161
63 99 170
62 98 163
62 99 168
62 99 167
62 98 169
63 99 174
63 99 171
62 98 171
62 99 168
63 99 171
63 99 171
62 99 172
62 98 167
62 99 175
63 100 173
62 98 168
62 99 177
61 98 169
62 99 173
62 99 174
62 98 169
62 99 173
62 99 173
62 99 174
62 98 169
62 99 175
62 99 171
62 98 170
62 98 170
62 99 173
62 99 175
63 99 176
62 98 168
62 99 172
63 100 178
63 99 178
62 99 175
63 100 178
62 99 173
62 98 171
61 98 172
63 99 173
62 99 178
62 99 173
63 99 177
62 99 176
63 99 176
62 99 177
63 99 175
62 99 175
62 99 179
62 99 175
62 99 178
62 99 174
63 100 178
62 99 176
61 98 171
62 99 175
63 99 175
63 99 175
62 99 173
62 99 172
61 98 172
61 98 177
62 99 175
62 99 175
62 99 175
62 99 177
63 99 172
62 99 173
62 98 172
62 99 177
62 99 174
62 99 176
62 99 171
63 99 174
62 99 175
62 98 170
62 99 177
62 99 174
62 98 174
62 99 177
63 99 176
62 99 174
62 98 172
62 99 173
61 98 172
62 99 173
62 99 174
62 99 174
61 98 170
63 100 177
63 100 175
62 99 176
62 99 174
62 99 178
62 99 177
62 99 174
62 98 173
62 98 170
62 99 173
63 99 175
62 99 172
62 98 173
62 99 174
62 99 175
62 98 172
62 99 170
61 98 170
62 99 174
62 99 173
63 100 175
63 99 174
62 98 172
62 98 169
62 98 168
62 99 170
62 99 174
61 98 164
62 99 172
62 99 171
61 98 172
61 98 172
62 98 173
62 99 169
62 99 172
62 98 170
61 98 167
62 98 170
63 99 173
62 98 170
63 99 171
62 99 170
62 99 172
62 99 167
62 99 176
62 99 168
62 98 166
61 97 159
63 99 171
62 98 169
62 99 172
62 99 173
62 99 169
62 98 164
62 98 166
62 99 169
62 98 167
61 98 166
61 97 166
62 97 162
62 98 168
61 96 159
61 97 163
60 96 163
61 96 149
61 96 159
61 96 159
60 95 151
61 97 160
60 95 154
59 93 154
60 95 153
59 92 149
59 93 155
47 71 106
58 63 47
47 51 31
45 52 31
49 57 38
68 74 41
72 76 46
64 68 38
64 70 43
78 82 55
83 86 52
78 82 48
81 84 53
84 87 51
90 92 60
88 90 56
81 83 52
98 99 61
77 83 51
110 111 66
122 121 62
109 110 61
105 107 63
115 117 65
110 111 69
117 118 66
123 123 68
120 120 69
124 124 68
126 125 70
133 131 73
140 137 81
131 130 71
144 141 82
147 143 75
138 135 78
136 134 73
133 131 71
145 141 71
154 149 85
144 141 80
144 141 73
145 141 76
157 152 87
151 147 79
152 147 77
163 158 86
161 155 82
157 153 84
160 155 78
154 150 78
158 153 83
165 159 87
171 164 90
158 154 78
154 149 79
162 157 84
163 157 85
163 158 83
165 160 77
165 159 83
165 159 85
171 164 87
170 164 88
161 156 80
164 158 77
163 157 83
164 158 82
164 158 87
165 158 78
166 160 83
163 157 75
169 162 89
167 160 85
169 162 83
163 156 83
166 159 85
168 163 78
161 155 81
169 161 82
168 161 85
169 162 83
164 158 83
164 159 87
164 158 83
160 155 75
168 161 85
164 158 75
165 158 84
162 157 80
166 159 80
164 158 75
162 156 75
166 160 81
163 156 76
163 157 80
155 150 75
159 153 71
161 155 73
158 152 75
162 156 78
152 147 75
163 157 79
161 155 75
152 146 72
162 156 82
152 147 68
155 149 75
153 147 71
156 150 73
150 145 67
147 142 62
147 142 63
150 143 61
146 140 66
145 140 66
142 136 61
149 142 68
140 134 59
148 141 65
145 140 65
147 142 63
137 133 51
138 133 57
137 133 52
145 144 51
140 141 47
144 148 41
145 154 34
150 160 36
156 167 36
158 174 25
161 177 22
165 183 22
169 189 19
170 191 11
173 195 0
172 194 0
173 195 0
170 192 0
173 197 0
169 193 0
171 195 0
170 194 0
171 194 0
174 196 0
173 196 0
172 196 0
172 195 0
173 196 0
170 193 0
172 196 0
174 197 0
169 192 0
172 195 0
172 196 0
173 197 0
173 196 0
172 195 0
171 195 0
166 190 0
174 197 0
172 196 0
171 195 0
171 194 0
171 195 0
173 197 0
172 195 0
171 194 0
174 197 0
173 197 0
172 195 0
169 193 0
172 195 0
170 193 0
169 192 0
170 194 0
169 193 0
172 195 0
173 196 0
173 196 0
171 194 0
175 197 0
171 194 0
170 194 0
173 197 0
171 195 0
171 194 0
171 194 0
165 188 0
170 193 0
173 196 0
173 196 0
168 192 0
171 194 0
171 195 0
170 193 0
167 190 0
168 191 0
169 192 0
167 190 0
170 193 0
172 195 0
172 196 0
173 196 0
171 194 0
169 193 0
170 192 0
168 190 0
171 194 0
168 191 0
170 194 0
169 193 0
165 189 0
168 191 0
168 190 0
173 196 0
172 196 0
169 192 0
170 193 0
166 189 0
173 195 0
171 195 0
170 192 0
169 193 0
168 191 0
164 188 0
144 169 80
62 98 161
62 98 160
62 97 156
63 99 165
61 97 160
62 99 170
62 99 167
62 98 170
62 98 168
62 99 166
61 98 160
62 98 161
63 99 161
62 98 165
62 99 170
61 98 167
62 98 164
62 99 170
62 98 169
63 100 176
63 99 171
62 98 170
63 99 168
62 98 167
62 98 172
62 99 170
63 99 172
62 98 170
63 99 170
62 99 172
63 100 177
62 99 173
62 99 175
62 99 170
62 99 172
62 99 169
62 98 168
62 99 174
63 99 176
62 99 171
62 99 173
62 99 178
61 98 173
62 99 173
62 99 176
62 99 176
62 99 169
62 99 174
62 98 170
62 99 174
62 99 174
63 100 177
61 98 175
61 98 170
62 99 176
62 99 174
62 99 175
62 99 172
62 99 174
63 99 175
63 100 176
62 99 176
63 99 175
62 99 173
62 99 173
62 98 170
63 100 177
63 99 174
62 99 175
62 99 174
62 99 175
62 98 170
63 99 175
62 99 176
62 98 170
63 99 177
62 99 170
63 100 179
62 99 172
63 99 175
62 99 175
62 99 176
62 99 174
62 99 170
62 99 177
62 99 174
63 99 175
61 98 171
62 99 174
61 98 173
62 98 169
62 99 172
62 98 171
61 98 172
62 99 176
62 99 171
62 99 176
62 99 174
62 98 170
62 99 174
62 99 171
62 99 173
62 99 172
61 98 172
62 99 179
62 99 177
62 98 167
62 99 173
62 98 172
62 99 172
62 99 173
62 99 174
61 98 171
62 99 173
62 98 174
62 99 173
62 99 173
62 98 171
62 99 172
62 99 172
62 98 170
62 99 173
62 98 169
62 98 170
62 98 166
62 99 174
62 98 165
63 99 171
62 99 170
62 99 172
62 98 167
62 99 171
62 99 170
63 99 170
62 99 167
62 99 169
62 99 172
62 98 166
62 98 167
62 99 177
61 98 169
62 98 164
62 98 166
62 98 170
61 98 169
62 99 171
62 98 170
63 99 175
61 97 165
62 99 170
63 99 168
62 98 169
62 98 166
62 98 160
62 98 168
62 98 167
61 97 165
62 98 164
62 98 164
62 98 162
61 97 159
61 97 156
61 96 158
62 97 163
62 97 162
61 96 158
61 97 160
61 95 155
59 93 152
62 96 159
60 93 150
59 91 146
56 80 117
55 67 71
52 59 38
54 60 43
65 70 43
61 65 33
65 71 43
74 79 41
61 66 43
72 77 47
90 91 48
69 74 45
87 89 54
82 85 48
88 90 48
80 83 45
93 95 57
100 101 56
103 103 54
106 108 64
107 109 66
111 113 65
111 112 66
103 104 62
124 123 71
121 121 70
114 114 67
117 116 67
114 115 64
127 126 68
131 129 71
132 131 73
131 129 73
123 122 72
138 135 79
140 137 71
129 127 67
139 137 79
146 142 76
148 144 82
138 135 79
151 147 83
149 145 80
143 140 82
150 146 74
150 147 81
146 143 76
155 150 87
147 144 78
157 152 77
162 156 86
149 145 76
150 147 75
159 154 84
161 155 85
152 148 79
160 154 82
161 157 84
164 159 80
161 155 89
156 152 78
166 159 87
169 162 87
168 161 86
164 158 82
168 161 84
169 161 89
161 155 74
162 156 79
164 159 83
165 159 84
165 158 79
173 166 87
160 155 75
167 161 86
164 158 84
169 161 82
166 159 81
167 161 84
167 160 84
162 156 81
160 154 77
168 160 82
163 157 82
163 157 79
165 159 85
162 156 78
164 158 78
162 156 77
165 158 77
166 159 80
161 155 73
157 151 73
164 158 80
160 154 72
158 151 74
161 155 78
160 154 78
161 154 73
160 154 75
160 154 77
156 151 71
155 148 72
156 149 72
158 152 70
156 150 70
144 139 62
154 149 68
156 150 73
153 147 69
151 145 72
144 139 62
143 139 53
154 148 65
148 143 62
140 136 58
147 141 68
140 135 60
142 137 58
148 142 59
143 138 60
142 137 60
146 140 54
132 126 54
135 131 48
142 139 57
138 138 48
152 159 36
155 164 44
142 154 19
159 170 41
162 176 22
161 177 28
168 187 19
167 187 0
169 191 0
171 192 0
171 192 0
170 192 0
169 190 0
171 195 0
172 195 0
173 196 0
169 193 0
174 197 0
173 197 0
170 194 0
172 196 0
171 195 0
170 193 0
170 195 0
174 198 0
173 196 0
171 195 0
172 195 0
171 194 0
170 194 0
171 194 0
170 193 0
171 195 0
172 196 0
171 195 0
173 196 0
175 198 0
171 194 0
169 193 0
171 193 0
172 195 0
171 194 0
171 195 0
168 191 0
170 195 0
170 194 0
168 192 0
171 194 0
171 195 0
171 195 0
170 193 0
170 194 0
173 196 0
170 194 0
173 196 0
172 196 0
173 196 0
170 194 0
170 193 0
173 196 0
172 195 0
169 193 0
173 195 0
172 195 0
169 192 0
171 195 0
171 194 0
169 192 0
169 193 0
169 193 0
167 190 0
166 189 0
169 194 0
172 195 0
168 192 0
170 193 0
173 196 0
168 191 0
171 195 0
169 193 0
171 195 0
169 192 0
173 196 0
173 196 0
174 197 0
167 190 0
172 196 0
175 198 0
169 193 0
167 191 0
173 196 0
167 189 0
168 191 0
172 195 0
167 190 0
167 190 0
170 194 0
173 195 0
168 190 0
171 194 0
119 145 118
62 98 155
62 98 164
62 98 159
62 99 166
62 98 162
62 99 166
62 98 161
62 98 166
62 98 160
62 99 170
62 99 170
62 99 171
63 99 171
61 98 165
62 99 171
62 98 167
61 98 170
61 98 165
61 98 164
62 98 164
62 98 170
62 99 172
62 98 167
62 98 166
63 99 173
62 98 170
62 99 174
62 99 174
62 98 173
62 99 172
62 98 170
62 99 171
62 99 174
62 98 169
62 99 171
62 98 171
61 98 170
62 99 175
62 99 173
62 99 174
62 99 179
63 100 177
62 99 174
61 98 177
63 99 171
62 99 175
62 99 178
62 98 173
63 99 176
62 99 177
62 99 171
62 99 175
63 99 178
62 99 171
63 99 177
62 99 176
63 100 178
62 99 176
62 99 175
61 98 174
62 99 175
62 99 173
63 100 179
62 99 172
62 99 174
62 99 174
62 99 176
62 99 176
63 100 177
63 99 172
62 98 172
62 99 173
63 99 177
62 99 175
62 99 172
62 98 170
62 99 177
63 100 177
62 99 175
63 99 175
63 99 175
62 99 177
62 99 175
62 99 178
63 99 177
62 98 169
62 99 175
61 98 169
62 98 173
62 99 171
62 99 178
62 98 172
62 99 177
63 99 177
62 98 170
63 100 177
62 99 179
63 99 171
62 99 173
62 99 176
62 99 175
62 99 176
62 99 175
62 99 173
63 99 177
62 99 172
63 99 174
62 99 173
62 99 172
62 99 173
61 98 170
62 98 169
62 99 176
61 98 168
62 98 168
62 99 174
62 98 171
62 99 169
63 99 174
62 98 170
62 98 169
63 99 171
62 99 171
62 99 173
62 99 171
62 99 171
62 98 172
62 99 169
62 99 173
62 99 173
62 99 174
62 99 170
62 98 170
62 98 169
63 99 172
62 99 168
62 99 170
62 99 170
62 99 172
62 98 170
62 99 169
62 98 166
62 98 164
63 99 172
62 99 172
63 99 170
62 98 166
62 98 169
62 99 170
62 99 169
62 98 166
63 99 172
61 97 160
61 98 165
62 99 170
61 97 161
62 97 160
63 99 171
62 98 165
62 97 167
61 97 157
61 97 166
62 98 170
61 97 159
61 96 159
61 95 150
61 96 151
60 95 156
59 94 153
59 93 153
60 94 151
59 92 154
57 85 131
49 62 64
50 56 31
55 60 35
53 60 37
60 65 39
72 74 42
67 72 43
64 70 42
73 78 44
74 78 51
81 85 48
75 78 39
72 75 42
85 88 48
94 96 57
87 90 55
95 97 61
97 99 57
107 108 61
104 105 59
105 107 59
112 112 65
106 107 62
116 116 63
107 108 61
117 118 62
117 117 67
126 125 73
122 121 65
127 126 72
129 127 68
133 131 69
132 130 75
129 128 71
138 135 74
140 138 78
138 134 73
137 134 72
150 146 78
142 139 71
141 137 70
146 142 75
146 142 77
154 150 80
157 152 83
156 151 81
154 149 83
154 150 81
158 152 83
156 152 77
153 148 75
153 148 74
158 154 81
161 155 84
163 157 80
158 152 82
162 156 81
165 159 86
159 154 75
160 154 75
162 157 83
162 156 86
163 156 82
161 156 82
169 162 85
161 155 78
164 158 80
163 158 86
159 153 74
165 158 82
163 157 77
172 165 87
165 159 84
169 162 78
161 156 81
166 160 80
164 158 80
165 158 77
165 159 77
170 164 82
165 159 83
161 156 75
168 161 81
160 154 70
160 154 79
165 158 84
161 154 79
161 155 76
162 156 75
162 156 78
162 156 75
161 154 78
158 152 73
157 151 78
157 151 70
158 152 72
161 156 75
162 155 80
164 158 80
164 156 86
147 142 72
156 149 72
160 153 75
151 146 65
159 152 74
159 152 73
144 138 65
147 141 64
154 148 66
157 151 72
154 147 71
144 139 61
151 145 69
154 148 70
150 144 59
143 138 64
150 143 64
141 135 63
148 143 62
148 142 67
143 138 63
141 135 65
136 132 52
147 146 53
141 143 39
142 145 52
144 151 37
159 166 39
151 162 36
152 167 22
163 179 28
162 180 16
164 183 11
170 190 19
172 192 0
168 190 0
172 193 0
173 194 0
171 193 0
173 197 0
172 195 0
172 195 0
172 196 0
173 197 0
173 196 0
173 197 0
172 195 0
173 196 0
171 195 0
173 196 0
170 194 0
176 198 0
173 197 0
174 197 0
173 196 0
170 193 0
169 193 0
170 193 0
171 194 0
171 195 0
173 196 0
175 197 0
170 193 0
173 196 0
171 195 0
171 195 0
170 194 0
172 196 0
169 193 0
171 195 0
172 194 0
169 192 0
171 194 0
171 195 0
168 192 0
170 192 0
170 194 0
172 197 0
169 193 0
171 195 0
171 194 0
169 193 0
171 195 0
169 193 0
171 195 0
171 195 0
168 191 0
174 196 0
171 195 0
172 196 0
171 194 0
172 195 0
171 194 0
171 193 0
172 195 0
171 194 0
172 196 0
168 191 0
170 194 0
170 193 0
169 192 0
169 193 0
169 193 0
175 198 0
170 193 0
170 193 0
172 195 0
168 191 0
173 197 0
166 190 0
170 194 0
171 195 0
169 192 0
173 195 0
169 193 0
172 196 0
170 194 0
170 193 0
169 193 0
167 191 0
170 192 0
169 192 0
166 189 0
171 194 0
169 193 0
168 192 25
91 121 144
62 98 160
62 98 166
61 97 155
62 98 163
62 98 161
63 99 167
63 99 168
62 99 168
62 98 167
62 98 163
62 98 165
62 99 172
62 98 165
63 99 174
63 99 169
62 98 167
61 97 156
62 98 167
62 99 166
62 98 170
63 99 172
62 98 164
62 98 171
62 99 172
62 99 174
63 100 177
63 100 175
62 99 170
62 99 169
62 98 168
62 99 174
62 99 173
62 99 170
62 99 171
62 99 175
62 98 169
62 99 174
62 98 167
62 99 172
62 99 174
62 99 174
62 99 174
62 99 172
62 99 174
62 98 171
61 98 171
61 98 170
62 99 174
63 100 177
62 99 169
62 98 170
62 99 176
62 99 174
62 98 167
62 99 178
62 99 175
61 98 169
62 99 172
62 99 173
62 99 175
63 99 173
62 99 176
62 99 178
63 100 175
62 99 174
63 100 178
62 99 179
62 99 176
62 99 178
62 98 169
62 99 177
62 98 172
63 99 171
62 99 174
63 99 175
63 99 176
62 98 173
63 99 178
63 99 173
63 100 176
62 99 174
62 99 175
62 99 176
62 99 174
63 100 178
63 100 174
62 99 173
62 99 172
62 98 169
63 100 177
62 99 174
63 99 171
62 99 178
62 98 171
62 99 173
62 98 167
62 99 174
62 98 171
62 99 174
63 99 173
62 99 176
62 99 173
62 99 172
62 98 170
62 99 171
62 99 170
62 99 173
63 100 178
62 99 171
62 99 174
62 99 175
62 99 168
62 99 175
62 98 170
62 98 171
62 99 177
62 99 175
62 99 173
62 99 172
61 98 168
62 98 166
62 98 165
62 99 171
62 98 167
63 99 171
62 99 172
62 99 173
62 99 169
62 99 172
62 99 173
62 99 172
63 99 170
62 99 167
63 99 173
63 99 174
61 98 163
62 99 172
62 99 170
63 99 176
61 97 167
63 99 167
62 99 171
62 98 164
62 98 165
62 98 166
62 98 165
62 99 164
62 99 169
62 98 169
62 98 165
62 98 167
62 98 164
61 98 168
62 98 167
62 97 164
61 97 164
62 98 168
62 97 160
61 96 157
61 96 153
62 98 170
62 97 159
62 97 157
62 97 163
62 98 164
61 97 159
61 97 158
61 96 162
61 95 158
60 95 155
58 90 143
58 92 142
57 90 143
54 67 79
46 54 45
46 53 32
50 56 31
63 68 36
62 67 36
62 67 37
72 75 43
55 62 40
83 85 43
91 92 53
88 91 48
80 82 51
87 90 49
85 88 50
90 92 56
85 89 57
105 104 55
95 96 53
110 110 62
107 107 60
116 116 64
116 115 63
111 112 62
112 112 64
131 129 74
116 116 64
113 114 63
117 118 62
138 136 78
122 122 69
135 133 75
128 127 68
135 133 72
136 133 74
134 133 73
132 129 72
152 147 72
139 136 73
153 149 83
152 147 81
145 141 76
145 142 79
154 149 76
147 144 76
150 146 71
152 147 80
152 147 75
150 146 73
155 150 78
153 147 81
160 155 81
155 149 82
162 157 82
158 153 81
160 154 74
162 156 83
162 157 82
161 156 82
161 155 77
158 153 77
160 155 80
160 155 79
165 158 80
161 155 84
162 156 70
158 152 77
159 154 72
168 161 81
163 157 77
167 161 88
163 157 79
164 158 73
167 160 80
163 157 80
169 162 82
168 162 80
169 163 75
161 156 78
158 151 74
157 152 70
165 158 79
160 154 70
168 162 82
162 155 78
163 155 79
158 152 72
160 153 75
164 158 75
161 155 74
158 152 63
161 155 76
161 155 72
163 156 78
155 150 70
160 155 75
165 158 79
163 157 80
156 150 75
161 154 75
159 153 68
149 143 65
158 152 70
154 147 74
156 150 69
158 150 75
141 136 58
147 141 61
152 146 70
152 145 63
158 152 69
151 145 60
137 131 58
142 136 62
152 146 63
151 144 66
136 130 62
138 133 53
139 134 57
141 135 62
133 127 52
128 124 48
125 121 49
134 133 52
137 141 44
150 158 41
150 158 42
157 169 37
155 164 42
150 166 16
156 172 16
163 181 16
166 185 16
165 185 0
170 192 0
171 191 0
169 191 0
173 194 0
169 191 0
173 196 0
172 194 0
170 194 0
170 194 0
172 194 0
170 194 0
172 196 0
170 194 0
172 196 0
170 194 0
172 195 0
171 195 0
173 197 0
170 193 0
172 195 0
172 195 0
173 196 0
172 195 0
169 193 0
171 195 0
173 195 0
170 192 0
169 192 0
173 196 0
172 196 0
171 195 0
173 196 0
169 193 0
172 196 0
173 196 0
171 195 0
172 196 0
171 194 0
171 194 0
169 193 0
173 195 0
170 194 0
172 196 0
169 193 0
168 191 0
171 195 0
169 192 0
169 192 0
170 194 0
170 194 0
174 197 0
166 189 0
169 192 0
171 195 0
168 192 0
168 192 0
169 192 0
168 191 0
169 191 0
173 196 0
167 190 0
171 195 0
171 194 0
169 191 0
169 192 0
172 195 0
173 196 0
168 191 0
169 192 0
170 194 0
170 192 0
170 194 0
169 192 0
170 194 0
168 192 0
171 194 0
168 191 0
165 188 0
171 194 0
169 193 0
171 195 0
170 192 0
169 193 0
168 190 0
165 189 0
170 194 0
169 192 0
169 191 0
169 191 0
171 194 0
165 189 0
156 179 51
67 101 158
61 97 153
62 98 155
63 99 170
62 98 163
62 98 164
61 97 165
62 99 168
62 98 166
62 98 164
62 99 165
63 99 166
63 99 170
62 99 167
62 98 163
61 98 164
62 99 171
62 99 167
62 99 168
62 98 167
62 99 170
62 99 172
62 98 168
62 98 168
62 98 169
61 98 168
62 99 171
62 98 169
62 99 172
62 98 168
62 99 175
62 99 172
63 99 173
62 98 170
62 99 178
62 98 171
62 99 175
62 98 170
62 99 175
62 99 178
63 99 172
61 98 171
63 99 176
63 100 178
63 99 174
61 98 167
62 98 171
62 99 171
62 99 173
62 99 174
63 99 173
62 99 175
61 98 174
62 99 172
62 98 170
63 99 176
62 99 174
63 100 176
62 99 174
62 99 169
62 98 168
62 99 176
62 99 175
61 98 170
62 99 175
62 99 175
63 99 179
61 98 178
62 99 176
62 99 171
62 98 172
62 98 169
62 99 175
62 99 174
62 98 172
62 99 172
63 100 172
62 99 174
62 99 175
62 98 171
63 99 171
62 99 174
63 99 175
62 99 176
62 99 172
62 99 175
63 99 173
63 100 174
61 98 171
62 99 172
62 99 172
63 100 176
62 98 173
61 98 171
62 99 170
62 98 173
61 98 168
63 100 177
62 99 177
63 99 173
62 99 175
63 99 172
62 99 172
62 98 169
62 98 167
61 98 172
62 99 168
62 99 174
62 99 169
62 98 168
62 99 172
62 99 173
63 99 169
62 99 175
62 98 167
61 98 171
61 98 171
62 99 171
63 99 170
62 99 173
63 99 172
62 98 171
61 98 168
61 98 167
63 99 173
62 98 166
62 98 172
61 97 165
62 98 165
62 99 178
62 99 172
61 98 160
62 99 174
62 98 168
62 99 167
62 99 170
62 98 171
62 98 163
62 98 163
62 99 171
62 99 170
61 97 164
62 98 167
62 99 169
62 98 166
62 98 170
62 98 162
62 98 168
61 97 168
62 98 170
63 98 167
62 98 164
62 98 168
63 99 170
61 97 166
62 98 163
60 96 162
62 97 161
61 97 161
61 97 161
62 98 164
61 96 153
63 98 166
61 97 159
60 95 155
61 97 163
62 97 158
61 96 156
60 95 153
60 95 153
60 94 153
60 94 156
60 93 147
59 93 150
50 73 111
48 55 43
48 52 29
64 68 35
54 60 31
69 72 38
67 71 35
62 67 35
72 75 41
75 79 41
87 89 48
84 86 49
84 87 50
79 84 51
89 92 50
91 93 53
112 111 58
100 100 56
92 93 55
109 111 66
108 109 59
127 125 60
102 104 52
104 107 55
111 111 59
119 117 65
122 121 62
136 133 70
119 118 66
137 133 64
132 130 70
131 129 68
137 134 70
126 125 68
133 131 73
133 131 70
131 129 73
131 130 70
143 140 73
148 144 77
140 136 68
136 135 71
151 148 72
155 150 81
151 147 74
152 147 75
150 146 79
152 148 77
158 152 81
151 146 77
147 143 70
155 149 78
159 153 78
162 156 83
163 158 82
156 151 76
159 153 81
153 148 69
155 150 76
162 157 78
162 156 77
162 156 80
162 157 80
158 152 75
162 156 77
158 152 71
161 155 75
167 161 82
159 153 75
162 156 74
162 155 78
160 154 76
159 153 74
165 159 79
168 162 82
168 161 82
165 158 79
164 158 79
164 158 77
163 157 79
157 152 68
167 160 77
164 158 81
165 159 78
163 157 76
162 156 79
160 155 72
163 157 77
151 146 73
163 156 74
153 149 66
157 151 73
159 153 74
161 155 74
162 155 77
152 147 67
152 146 68
161 155 73
158 151 65
163 157 73
159 152 73
157 151 70
159 152 75
153 146 66
148 143 61
153 147 65
151 145 61
160 154 74
156 150 72
145 140 62
154 147 71
143 138 60
147 142 61
142 137 53
147 141 62
146 141 60
144 139 52
142 137 54
140 135 54
137 131 51
129 124 54
144 139 57
138 134 51
147 149 47
136 141 36
146 150 42
144 150 39
157 167 41
159 170 39
157 172 25
160 177 22
170 188 16
168 188 0
169 190 16
172 192 0
170 191 0
171 193 0
172 193 0
171 193 0
171 194 0
171 195 0
168 191 0
174 196 0
174 197 0
169 192 0
171 195 0
172 196 0
172 195 0
172 196 0
169 193 0
169 193 0
169 192 0
165 189 0
171 194 0
170 194 0
169 193 0
170 194 0
173 197 0
171 195 0
172 195 0
173 196 0
174 198 0
173 196 0
172 196 0
173 197 0
175 198 0
172 196 0
170 194 0
170 193 0
172 195 0
171 194 0
169 192 0
173 197 0
170 193 0
169 192 0
169 192 0
170 193 0
169 192 0
169 192 0
171 193 0
170 194 0
172 195 0
168 191 0
167 190 0
171 194 0
170 194 0
170 194 0
173 197 0
171 195 0
170 193 0
170 193 0
167 190 0
171 195 0
171 193 0
170 194 0
172 196 0
170 193 0
173 196 0
170 194 0
171 194 0
171 194 0
169 193 0
169 192 0
167 191 0
169 192 0
169 193 0
169 192 0
166 189 0
167 189 0
168 192 0
171 193 0
166 189 0
170 193 0
172 196 0
169 192 0
165 189 0
169 192 0
172 196 0
169 191 0
167 192 0
166 189 0
169 193 0
167 190 0
171 194 0
166 189 0
133 158 108
62 97 159
63 99 162
61 97 159
63 99 165
62 99 168
62 98 165
61 97 158
61 97 160
62 98 158
61 97 159
62 99 167
61 98 168
62 98 162
62 98 161
62 98 169
62 98 171
62 98 162
62 98 163
62 98 161
61 97 162
62 98 168
63 99 173
62 98 168
62 98 171
62 99 168
62 99 172
63 99 171
63 100 176
62 98 167
62 99 169
63 99 172
62 98 168
62 99 172
62 98 169
62 98 171
62 99 174
62 98 168
63 100 175
62 99 172
62 99 175
62 99 170
62 98 170
62 99 171
63 99 175
63 99 172
62 99 175
63 99 177
63 100 175
62 99 176
62 98 168
63 100 176
62 99 170
62 99 174
62 99 174
62 99 174
63 100 177
63 99 174
63 99 176
62 99 175
62 98 172
62 98 168
62 99 172
62 99 171
61 98 168
62 99 170
63 99 174
63 99 174
62 98 173
62 99 176
62 99 178
62 98 172
63 99 175
63 100 179
62 98 169
62 98 169
63 100 178
62 98 171
62 99 172
62 99 177
62 99 173
62 99 175
62 99 172
62 99 175
62 99 170
62 99 173
63 99 178
62 99 171
61 98 170
63 100 178
62 99 178
62 98 170
62 99 176
62 99 173
62 98 168
63 99 174
62 99 173
62 99 173
62 99 174
62 99 172
62 99 171
63 100 178
62 99 169
62 98 170
62 99 173
62 99 175
62 99 171
62 99 177
63 99 168
62 99 173
62 99 178
62 99 174
62 99 169
62 99 174
62 99 172
61 98 171
62 98 170
61 98 169
62 98 167
63 100 176
62 99 169
62 99 175
62 99 169
63 99 172
62 99 171
62 98 168
62 98 171
61 98 165
63 99 168
62 98 167
62 99 172
62 99 173
62 98 172
62 98 167
61 98 169
62 98 169
61 98 165
62 98 170
62 99 171
62 98 164
62 98 165
63 99 170
62 99 169
63 99 169
62 98 165
62 99 166
61 98 170
62 99 167
62 98 166
62 98 163
62 99 171
62 99 168
63 99 172
62 98 168
62 98 165
62 98 167
62 98 165
61 96 155
62 98 165
62 98 166
62 98 166
61 96 159
60 95 156
61 97 163
60 95 152
62 98 163
61 97 161
60 95 156
61 96 155
61 97 160
62 96 159
60 94 154
59 92 145
59 93 156
59 92 145
60 87 133
47 60 64
62 66 28
60 63 31
63 68 36
69 73 35
71 74 39
70 73 40
65 69 33
73 78 39
73 76 44
79 83 47
88 90 51
91 94 53
100 101 56
89 91 50
102 104 60
100 99 48
102 103 51
104 105 60
100 101 54
117 116 59
115 115 66
115 115 61
125 123 60
110 112 61
118 117 65
122 119 68
126 124 64
138 135 70
125 124 61
126 124 65
132 129 75
130 128 66
136 132 70
133 131 69
142 139 69
140 137 68
145 141 68
145 141 69
146 142 73
153 148 76
148 144 79
151 147 75
150 146 75
152 147 80
147 143 78
157 152 80
147 144 68
159 154 78
151 148 68
158 152 80
154 149 76
160 154 82
160 154 80
168 161 90
160 155 78
160 154 80
163 157 77
155 151 76
158 153 78
161 155 75
173 166 84
163 157 80
158 152 74
162 156 77
166 159 83
163 157 79
163 157 76
161 155 77
166 159 80
166 159 81
164 158 79
162 156 76
161 157 73
159 153 74
167 160 79
162 156 78
162 156 70
163 157 77
163 156 75
163 156 79
160 155 74
161 155 80
167 159 78
165 158 75
163 156 80
159 153 71
156 150 69
160 154 74
157 150 65
162 155 80
155 149 73
151 146 73
156 151 67
162 156 73
157 150 69
161 154 78
159 154 73
162 154 75
160 153 74
160 154 75
150 143 66
156 150 70
158 152 71
150 143 63
151 146 65
159 153 75
146 141 62
146 139 63
150 144 68
152 146 66
150 144 60
143 137 58
152 146 64
145 139 65
139 134 59
139 133 59
139 133 52
135 130 49
134 129 51
134 130 51
137 137 37
145 144 49
142 146 37
145 151 39
148 160 37
152 164 28
159 173 25
163 177 34
166 186 19
167 185 0
167 187 0
170 191 0
172 193 0
168 190 0
166 187 0
172 194 0
171 194 0
167 190 0
169 193 0
167 190 0
174 197 0
172 196 0
172 195 0
168 191 0
174 197 0
172 196 0
171 194 0
175 197 0
171 195 0
173 196 0
170 193 0
171 194 0
173 196 0
168 192 0
172 195 0
173 196 0
173 196 0
174 197 0
172 195 0
170 193 0
171 194 0
170 193 0
170 193 0
175 198 0
169 193 0
168 191 0
172 196 0
169 193 0
170 194 0
170 193 0
173 197 0
173 196 0
171 194 0
168 192 0
171 194 0
171 194 0
172 196 0
174 197 0
170 193 0
172 195 0
171 194 0
170 195 0
168 192 0
172 195 0
168 192 0
170 193 0
170 193 0
171 194 0
171 194 0
171 195 0
169 192 0
171 194 0
175 198 0
169 193 0
169 192 0
171 195 0
168 192 0
167 191 0
168 191 0
170 193 0
172 196 0
170 194 0
169 192 0
167 190 0
172 196 0
169 193 0
171 193 0
172 195 0
172 195 0
171 195 0
169 192 0
169 192 0
167 191 0
170 193 0
171 194 0
166 190 0
168 191 0
165 189 0
171 194 0
168 192 0
170 194 0
168 191 0
166 189 0
112 139 128
62 97 155
62 98 163
61 97 157
62 98 162
63 99 170
62 98 168
62 98 161
62 98 164
62 99 167
62 98 165
62 98 163
63 99 169
61 97 161
62 98 169
62 99 167
63 99 163
62 98 167
62 98 168
62 98 161
62 99 168
62 98 166
62 98 168
63 99 174
62 99 176
62 99 170
61 98 165
62 98 162
62 99 170
62 99 171
63 99 170
62 99 171
62 98 173
62 99 171
61 98 169
63 99 175
62 98 170
63 100 177
62 98 170
62 99 174
63 99 174
63 100 178
62 99 172
63 99 177
62 98 170
62 99 174
63 99 174
62 99 175
62 99 171
62 99 169
63 99 174
63 99 173
62 99 173
62 98 172
62 98 171
63 100 176
63 99 174
62 99 177
63 99 175
62 99 176
62 99 173
62 99 176
62 99 178
62 99 171
63 99 172
62 99 173
62 99 174
61 97 169
62 99 171
61 98 171
62 99 173
62 99 173
62 99 174
61 98 167
62 99 171
61 98 169
62 99 177
63 99 175
62 98 169
62 99 174
62 99 173
62 99 175
62 99 169
63 99 175
62 99 176
62 99 171
62 98 173
62 99 168
62 99 176
61 98 172
63 100 177
62 99 174
62 99 171
62 99 172
62 99 173
62 99 175
62 99 171
62 98 165
62 98 170
62 99 171
62 99 174
62 99 173
62 99 173
61 98 171
62 99 175
62 98 171
62 99 172
62 99 170
62 99 173
62 99 173
61 98 169
62 99 170
62 99 169
62 99 169
61 98 167
62 98 168
62 99 174
63 99 171
62 99 173
63 99 172
62 99 172
63 100 172
63 99 174
62 98 168
61 98 170
62 98 169
62 99 170
63 99 172
62 99 172
62 99 170
63 99 171
61 98 168
63 99 173
62 99 170
63 99 170
62 98 168
61 98 168
62 98 165
61 97 165
61 98 164
62 99 172
62 98 168
62 98 160
63 99 171
63 99 170
61 98 171
62 98 162
63 99 170
62 98 166
62 98 166
62 99 170
62 99 170
61 97 161
61 97 168
62 99 165
61 97 165
61 98 168
61 97 159
62 97 164
61 96 156
61 97 157
62 98 158
62 97 165
63 98 162
62 97 155
61 97 164
60 95 151
60 94 154
61 96 155
60 94 148
60 95 156
60 95 151
59 92 147
59 93 144
58 92 151
62 90 135
62 73 66
55 59 34
54 58 28
53 58 31
59 65 36
76 78 37
67 71 37
78 81 35
77 79 42
75 77 42
75 79 37
82 85 44
90 93 52
93 94 45
91 93 45
105 106 52
85 89 49
99 101 49
112 112 57
104 105 55
108 107 56
110 110 56
117 116 61
121 120 61
119 118 64
129 127 68
122 121 64
123 120 65
124 123 66
134 132 70
127 126 64
127 126 65
135 133 68
134 131 68
136 134 72
136 134 66
143 140 68
138 136 69
143 139 71
145 141 72
151 146 72
141 139 71
142 139 65
141 138 67
138 136 71
155 150 78
152 148 82
154 150 78
157 152 83
156 151 80
154 148 77
149 145 68
159 153 78
152 147 71
160 155 75
164 158 82
160 154 72
160 154 78
165 159 81
154 148 71
156 151 76
163 156 80
161 155 73
160 155 80
171 163 85
163 156 78
163 157 75
166 159 77
154 149 68
163 157 77
165 158 76
165 158 75
164 158 75
165 157 77
162 156 77
165 158 77
167 160 84
160 154 70
159 152 72
162 156 73
164 157 80
160 154 71
161 155 77
162 155 75
157 151 68
158 152 71
162 156 72
161 154 75
156 150 72
157 151 78
160 154 75
153 148 72
162 156 74
160 153 69
157 151 75
159 152 76
157 150 69
155 147 71
165 158 75
149 143 63
156 150 73
150 145 63
166 159 74
161 154 71
156 150 65
151 144 68
151 145 66
145 140 63
150 144 64
140 134 59
151 144 63
144 139 58
144 139 60
139 133 56
137 131 54
144 138 51
143 137 58
138 133 57
139 133 54
139 134 53
131 128 47
142 142 47
146 146 54
148 154 42
143 151 34
152 161 34
151 162 28
164 180 22
163 180 22
165 185 11
163 182 11
172 192 16
165 185 0
167 189 0
167 187 0
171 192 0
172 194 0
173 195 0
170 194 0
173 196 0
172 195 0
173 196 0
169 193 0
171 195 0
169 193 0
170 194 0
170 194 0
171 194 0
170 193 0
171 194 0
171 193 0
170 194 0
172 196 0
173 196 0
171 195 0
170 193 0
171 194 0
173 196 0
173 197 0
172 196 0
171 195 0
169 192 0
171 195 0
171 194 0
171 195 0
171 194 0
169 193 0
170 193 0
171 194 0
171 195 0
175 197 0
170 194 0
173 196 0
170 195 0
174 197 0
169 192 0
173 197 0
170 194 0
168 191 0
173 195 0
168 192 0
171 195 0
172 195 0
167 189 0
169 192 0
168 191 0
169 193 0
171 194 0
169 193 0
168 192 0
168 192 0
172 195 0
171 195 0
171 194 0
170 194 0
170 192 0
166 189 0
169 192 0
167 191 0
166 191 0
173 197 0
173 196 0
171 194 0
166 190 0
170 193 0
167 189 0
169 192 0
170 193 0
171 195 0
165 188 0
170 193 0
170 193 0
166 190 0
171 195 0
170 194 0
168 190 0
163 187 0
167 190 0
168 191 0
169 192 0
165 188 0
168 192 0
168 192 0
165 188 31
105 133 130
61 97 151
63 99 161
62 98 164
61 97 160
62 98 165
62 98 165
62 98 161
62 99 168
62 99 165
62 98 168
61 98 163
62 98 167
62 99 165
62 98 167
63 100 173
62 99 170
62 99 169
63 99 174
62 98 167
62 99 168
62 98 168
62 99 170
62 98 169
62 99 171
62 99 172
62 98 168
62 99 170
61 98 169
61 98 168
63 99 168
62 99 175
62 99 170
62 99 177
63 99 174
62 99 170
62 99 169
62 99 173
61 98 165
62 99 173
62 99 172
61 98 170
62 99 174
63 99 173
62 99 174
62 99 168
63 99 175
62 99 173
62 99 174
62 98 172
62 99 171
62 99 171
63 99 174
62 99 171
62 99 173
62 99 169
62 99 172
62 99 175
62 99 171
62 99 175
63 100 179
62 99 173
63 99 172
63 100 179
61 98 173
62 99 173
61 98 170
62 99 173
63 100 179
62 99 172
63 100 175
62 98 171
62 99 176
63 99 177
62 99 169
61 98 168
62 99 176
62 99 173
62 99 173
62 99 174
63 99 173
62 99 175
62 99 174
63 99 174
62 99 172
62 99 169
62 99 171
62 98 168
62 99 177
62 99 168
63 99 175
62 99 176
62 98 170
62 99 171
62 99 172
63 99 175
63 99 172
62 99 174
63 99 175
62 99 171
62 98 170
62 99 170
62 99 169
63 99 175
61 98 166
62 98 167
63 99 175
62 99 175
62 99 170
62 98 166
62 99 172
62 99 177
62 98 168
62 99 171
62 99 173
62 98 170
62 99 171
62 99 170
62 98 168
62 99 168
62 98 168
63 99 173
61 98 170
62 98 166
62 98 167
63 99 173
63 99 172
63 99 166
62 98 168
63 99 170
62 98 169
61 97 166
62 98 167
62 99 172
62 98 171
62 98 167
62 98 175
62 99 168
62 98 167
63 100 178
61 98 165
61 97 165
62 99 172
61 98 168
62 98 164
62 98 166
63 100 174
61 97 156
62 98 168
63 99 169
61 97 167
62 98 165
63 99 169
61 98 163
62 98 165
62 98 165
62 98 159
62 98 168
62 98 165
62 97 156
61 97 162
61 96 156
61 97 158
61 97 163
62 97 160
61 97 154
60 96 153
60 95 156
62 97 161
62 98 162
60 95 157
59 92 135
61 95 153
59 92 143
60 94 148
60 92 144
56 69 75
53 58 32
65 68 29
53 58 38
62 67 36
62 66 26
70 73 43
70 74 41
80 84 41
75 79 36
79 83 50
83 85 43
81 84 43
95 97 47
85 87 46
102 101 53
104 104 53
105 106 60
100 101 47
110 110 52
111 111 61
111 110 56
114 114 60
110 110 61
99 101 60
109 111 62
120 118 61
126 124 54
113 112 61
116 115 57
123 121 58
129 127 69
135 132 70
138 135 65
130 128 60
133 130 69
140 136 71
142 138 74
145 141 74
143 139 66
150 146 75
146 143 76
152 147 76
147 143 72
150 145 77
146 142 69
146 143 61
146 142 75
151 147 80
160 155 81
152 146 75
161 155 82
157 152 75
153 148 71
154 150 73
161 156 77
155 150 71
160 155 80
158 153 76
165 159 78
158 152 81
160 155 75
166 160 77
160 154 73
157 153 75
156 151 76
163 157 78
155 149 74
166 160 75
164 158 80
155 150 71
166 159 81
166 159 81
165 159 79
167 158 84
160 153 87
167 160 80
163 157 76
165 158 80
153 148 68
160 154 70
158 152 69
158 152 75
160 154 71
156 150 75
159 152 76
162 156 75
155 149 71
167 160 80
161 153 75
163 157 72
160 152 77
154 148 61
161 154 79
154 149 68
152 146 68
158 151 74
158 152 75
157 151 72
152 147 58
154 149 61
156 150 71
156 149 74
151 144 65
150 145 60
156 149 69
149 144 63
138 132 51
142 137 60
142 136 56
144 138 60
146 139 63
147 141 61
146 140 57
143 137 62
138 132 58
143 138 58
140 135 44
142 137 57
130 125 45
137 137 52
133 133 44
144 149 47
153 158 42
151 163 25
148 156 36
157 172 28
158 173 25
165 180 28
166 184 0
168 187 16
169 190 0
173 194 0
168 189 0
169 189 0
168 189 0
170 192 0
167 188 0
171 195 0
172 195 0
175 198 0
170 194 0
171 195 0
172 196 0
170 194 0
173 196 0
171 195 0
174 197 0
173 196 0
170 194 0
171 193 0
173 196 0
174 197 0
172 196 0
166 189 0
171 195 0
171 195 0
174 197 0
172 196 0
172 195 0
169 193 0
171 194 0
172 194 0
171 194 0
172 196 0
168 192 0
171 195 0
169 192 0
169 192 0
168 192 0
168 191 0
170 193 0
172 195 0
171 194 0
173 196 0
169 193 0
170 193 0
170 194 0
171 194 0
170 194 0
172 195 0
170 194 0
171 194 0
172 195 0
170 194 0
169 192 0
173 196 0
168 192 0
169 192 0
169 193 0
173 196 0
168 191 0
172 195 0
170 193 0
172 195 0
170 193 0
172 195 0
171 195 0
167 191 0
170 193 0
172 194 0
168 191 0
168 191 0
171 195 0
170 193 0
170 193 0
167 190 0
167 190 0
169 191 0
169 192 0
170 194 0
169 191 0
171 195 0
166 189 0
170 193 0
169 191 0
169 193 0
168 192 0
168 191 0
170 192 0
171 194 0
170 193 0
169 192 0
163 186 57
77 108 152
62 97 152
62 98 164
61 97 153
62 98 161
62 98 168
63 99 166
62 98 160
62 98 160
61 97 161
62 98 160
62 98 163
62 98 162
61 97 157
61 98 165
62 98 168
62 98 170
62 98 166
62 98 165
63 99 168
62 98 169
62 98 166
62 98 160
62 98 168
61 98 169
62 98 164
62 98 167
62 99 169
62 99 171
62 98 165
63 99 169
62 99 174
63 100 177
62 99 170
61 98 165
63 99 174
62 98 172
63 100 176
62 99 169
63 99 174
62 99 174
62 99 171
62 98 169
63 99 175
63 99 174
62 99 173
63 100 174
62 99 173
62 99 172
62 99 174
62 99 171
62 99 172
62 99 175
62 98 168
62 99 177
63 99 168
62 98 170
62 99 178
62 99 174
63 99 175
61 98 170
62 99 172
62 99 175
62 98 171
62 99 173
63 99 172
62 99 173
62 99 174
61 98 171
62 99 175
62 98 171
62 99 171
61 98 172
62 99 174
62 99 174
62 99 172
63 99 174
62 99 174
62 99 171
62 99 176
63 99 173
62 99 176
62 99 169
62 99 172
62 98 170
62 99 174
61 98 171
62 99 175
62 98 166
62 99 170
62 98 170
61 98 168
62 98 168
62 98 171
63 99 174
62 99 174
62 99 172
62 99 172
62 98 173
62 99 175
61 98 169
61 97 167
62 99 172
62 99 173
62 99 171
61 98 169
63 99 171
62 98 168
63 99 174
62 98 168
63 99 171
62 98 167
63 99 174
62 99 169
62 98 166
62 99 171
62 98 164
62 99 174
62 99 177
62 99 168
62 99 172
62 99 171
62 98 169
63 99 174
62 98 165
61 97 159
62 99 169
62 99 170
62 99 171
63 99 171
62 99 168
62 99 169
62 98 167
62 99 169
63 99 170
62 99 170
62 99 172
62 99 172
62 98 165
62 99 172
62 99 170
62 98 165
63 99 170
62 98 164
62 98 167
62 98 168
62 98 164
62 98 162
62 98 163
63 99 170
61 97 164
63 99 173
62 98 169
62 98 163
62 98 163
62 98 164
62 98 166
61 96 154
61 97 163
61 97 157
61 97 164
60 95 154
61 97 159
60 95 151
61 97 160
62 97 162
61 97 156
61 96 155
63 98 164
60 95 149
61 96 155
60 94 151
60 93 150
59 93 147
59 92 149
58 90 136
52 73 104
47 54 44
67 72 30
67 69 32
64 68 29
60 65 37
78 81 39
71 73 30
74 78 37
70 74 31
67 72 36
86 88 47
83 85 49
84 85 41
94 94 43
90 91 41
95 97 53
89 91 47
109 109 58
107 108 58
116 115 57
105 106 49
112 112 60
119 118 58
112 111 51
118 117 65
116 116 63
120 120 61
122 121 61
117 116 63
129 128 66
128 125 55
128 126 63
130 129 65
131 127 64
137 134 68
142 138 72
138 135 66
146 142 73
139 135 70
134 132 66
137 134 57
152 147 69
150 145 73
142 137 71
146 142 67
152 147 71
155 149 79
149 144 75
154 150 80
151 146 69
162 156 80
154 148 74
163 156 81
159 153 74
159 153 71
151 147 67
155 150 71
153 148 73
159 153 75
159 153 74
161 156 75
161 155 78
156 150 70
159 154 71
158 152 75
158 153 75
161 154 70
160 154 75
165 159 79
160 154 73
160 155 76
160 153 78
160 154 75
160 154 76
165 158 79
166 160 82
162 157 71
164 157 76
160 153 72
160 153 74
164 158 77
157 151 72
156 151 67
162 156 75
155 150 72
158 151 67
161 155 75
161 155 70
160 152 77
155 149 67
156 150 74
160 154 70
160 153 77
152 146 61
160 153 71
152 146 67
145 140 64
147 142 59
161 155 79
155 149 63
146 139 56
142 137 53
143 138 54
151 145 61
150 143 68
152 146 66
154 147 64
138 131 57
150 144 67
147 142 67
144 139 61
137 131 53
138 133 53
150 144 63
144 139 49
134 129 49
133 128 54
135 130 56
137 132 45
134 136 44
138 138 42
144 150 41
152 161 42
148 161 19
151 161 25
152 166 25
160 176 22
160 179 11
167 185 16
167 188 11
167 187 0
169 189 0
172 191 0
170 192 0
172 193 0
169 190 0
171 190 0
172 196 0
170 193 0
172 196 0
172 196 0
175 198 0
171 195 0
172 195 0
172 195 0
171 194 0
170 193 0
172 196 0
171 194 0
173 196 0
170 194 0
170 194 0
173 197 0
173 196 0
172 195 0
170 193 0
170 193 0
173 196 0
169 193 0
173 196 0
171 194 0
170 194 0
170 194 0
171 194 0
172 195 0
174 198 0
171 195 0
172 196 0
169 191 0
172 195 0
170 194 0
170 193 0
172 195 0
168 191 0
172 195 0
167 191 0
171 195 0
170 193 0
168 191 0
171 193 0
167 191 0
169 192 0
173 196 0
169 193 0
175 197 0
170 194 0
170 192 0
172 195 0
171 194 0
172 195 0
170 194 0
170 192 0
170 194 0
170 192 0
171 194 0
170 194 0
171 194 0
170 193 0
170 194 0
170 193 0
170 193 0
170 194 0
171 194 0
170 193 0
167 190 0
170 192 0
169 193 0
166 190 0
168 191 0
167 190 0
166 190 0
168 191 0
169 193 0
168 191 0
166 189 0
166 189 0
168 192 0
169 192 0
170 193 0
166 189 0
171 195 0
171 195 0
152 175 65
62 97 155
62 98 154
62 98 160
61 97 157
61 96 155
62 99 168
62 98 157
62 98 164
63 99 164
61 97 163
62 98 166
62 98 163
61 98 168
63 99 172
62 98 166
61 98 164
63 99 166
62 98 166
62 99 172
62 98 166
61 98 164
62 98 165
62 98 167
62 98 170
62 98 161
62 99 168
62 98 166
62 99 174
63 99 176
62 98 168
62 98 166
62 98 167
62 99 171
62 99 172
61 98 168
62 99 169
61 98 171
63 99 175
63 99 171
62 99 174
62 99 176
62 99 176
62 99 171
63 99 171
63 99 170
62 98 169
63 99 172
63 99 171
62 99 172
62 99 174
62 99 176
63 100 175
62 99 172
62 98 171
61 98 171
63 99 171
61 98 172
62 99 172
62 99 174
62 99 170
62 98 174
62 99 178
62 99 174
62 98 172
62 99 173
62 99 172
62 98 172
63 99 173
62 99 175
62 99 172
63 100 179
62 99 173
62 99 174
62 98 171
62 99 174
62 99 178
62 99 175
63 99 174
62 99 170
62 99 170
62 99 173
62 98 167
62 98 173
62 99 171
62 99 170
62 99 173
62 98 169
62 99 175
62 99 176
62 99 171
62 99 173
63 100 173
62 99 174
62 99 176
62 98 171
62 99 173
61 98 171
62 98 166
62 99 167
61 98 165
62 99 174
62 99 172
62 98 174
61 98 172
62 99 172
62 99 174
62 99 172
63 99 172
62 98 170
62 99 170
62 98 171
63 99 174
62 98 174
63 99 175
63 99 175
62 98 168
62 99 172
62 98 171
61 98 167
61 98 166
62 98 171
62 98 170
62 99 167
61 98 168
63 99 172
61 98 169
62 99 168
62 98 165
62 98 170
62 99 172
62 99 169
62 98 168
63 99 171
63 99 172
62 98 168
62 99 173
62 99 168
63 99 170
63 99 167
61 98 166
63 99 168
63 99 170
62 98 165
62 98 165
63 99 171
61 98 163
62 99 170
62 98 164
62 99 173
62 98 163
62 99 170
62 98 165
61 96 161
62 98 161
62 97 162
61 97 161
63 99 169
62 98 162
62 98 162
62 98 166
62 98 163
62 98 165
62 98 168
61 96 155
62 97 157
61 96 159
61 97 164
61 97 153
61 96 156
61 96 157
60 95 150
60 94 151
61 96 154
60 95 149
59 92 150
60 94 150
58 83 122
60 67 60
66 69 24
60 63 27
51 57 29
58 60 26
65 68 34
74 77 28
72 75 39
79 80 44
80 82 44
89 91 47
84 85 41
86 86 45
92 94 45
93 95 44
90 92 49
99 99 54
106 105 56
109 108 52
112 111 51
102 103 50
104 105 58
118 117 63
111 111 56
105 105 57
118 117 61
120 119 57
124 123 58
122 121 68
126 124 64
127 125 61
137 133 65
135 131 71
131 129 65
136 132 70
134 131 70
144 141 74
134 132 66
143 140 73
136 133 68
140 137 66
144 140 66
150 145 70
143 140 68
139 136 67
146 142 68
149 144 74
150 145 68
157 151 75
156 151 75
156 151 81
152 147 73
153 149 71
155 150 78
155 150 69
156 150 79
160 154 77
158 152 69
159 153 75
161 155 72
155 150 74
162 157 74
153 146 66
162 156 78
163 156 75
161 154 77
162 155 74
158 152 70
160 154 75
156 150 67
160 155 75
157 151 60
159 153 75
157 151 65
156 149 69
164 157 77
152 147 65
166 159 84
158 151 71
163 156 75
161 155 71
159 152 70
159 153 66
160 154 72
162 155 74
163 156 75
154 149 65
162 154 75
154 148 69
156 151 66
156 151 69
150 146 66
152 146 61
163 155 77
158 151 72
158 151 68
152 145 69
150 144 58
149 143 62
149 143 61
146 140 64
152 144 68
155 148 69
139 133 54
150 145 65
153 146 71
155 147 71
144 138 56
141 135 51
142 137 56
137 132 57
143 136 58
147 141 60
134 128 52
136 131 59
140 134 58
138 133 48
138 133 56
129 129 37
141 142 49
146 150 41
146 153 34
147 155 37
154 163 34
153 165 22
163 179 19
161 178 0
167 185 11
168 188 19
166 186 0
168 188 0
169 191 0
170 191 0
171 191 0
171 191 0
168 190 0
170 188 0
170 194 0
174 198 0
172 196 0
170 193 0
169 193 0
170 193 0
172 195 0
172 195 0
169 193 0
169 193 0
172 196 0
172 195 0
170 194 0
173 196 0
169 191 0
174 196 0
174 197 0
170 193 0
170 193 0
170 193 0
168 191 0
171 195 0
169 193 0
169 192 0
172 195 0
169 192 0
171 194 0
170 193 0
171 194 0
171 194 0
170 193 0
171 195 0
169 193 0
172 195 0
171 194 0
172 196 0
169 193 0
171 195 0
171 195 0
171 195 0
169 193 0
170 192 0
168 192 0
170 193 0
172 195 0
169 192 0
170 193 0
167 191 0
169 193 0
169 192 0
168 192 0
168 192 0
170 193 0
170 193 0
167 190 0
170 192 0
169 193 0
171 194 0
170 194 0
171 194 0
171 194 0
170 193 0
166 190 0
169 192 0
171 194 0
170 194 0
172 194 0
166 190 0
169 192 0
173 195 0
171 194 0
172 194 0
169 193 0
170 193 0
164 188 0
170 193 0
169 191 0
169 192 0
166 188 0
165 188 0
169 191 0
166 190 0
164 187 0
170 193 0
169 192 0
135 160 103
62 98 161
62 97 152
61 96 148
62 98 155
61 96 151
61 97 161
61 97 165
61 97 159
62 98 165
63 99 169
61 97 161
62 98 166
62 98 168
62 98 164
63 99 167
62 98 167
62 99 166
62 99 168
61 98 166
62 98 167
63 99 170
62 99 168
62 99 171
63 99 170
62 98 166
62 98 170
62 98 164
62 98 170
62 98 168
63 99 172
61 98 168
62 98 171
62 98 169
62 99 173
62 99 173
61 98 171
62 99 172
62 99 171
61 98 167
62 99 170
62 98 168
62 99 176
63 99 175
63 99 176
63 99 170
62 99 173
62 99 170
62 99 172
62 99 172
63 99 168
61 98 170
62 99 171
62 99 168
62 99 172
61 98 167
61 98 169
63 99 170
63 99 173
62 99 173
63 100 172
62 99 171
61 98 172
63 99 176
63 100 176
62 99 173
62 99 171
63 99 174
61 98 168
62 99 172
62 98 171
62 99 173
62 99 169
62 99 171
62 99 171
62 99 170
62 98 170
62 98 173
61 98 166
62 99 174
62 98 173
62 99 174
63 99 176
62 99 173
63 99 175
62 99 174
63 99 174
62 99 173
63 99 176
62 99 173
61 98 170
62 98 171
63 99 175
62 99 174
62 99 171
62 99 171
62 99 178
63 99 175
62 98 171
61 98 169
62 98 172
63 99 169
62 98 171
61 98 163
62 99 170
62 99 175
62 99 171
63 99 168
62 99 178
62 98 165
62 99 175
62 98 170
62 98 167
63 99 170
61 98 165
62 99 172
62 99 172
63 99 173
61 98 169
61 98 166
62 98 169
62 99 171
62 98 168
62 98 166
62 98 170
62 99 169
62 99 172
63 99 174
62 98 168
62 99 168
62 99 171
61 98 163
62 99 170
62 99 169
63 99 171
62 99 169
62 98 166
62 98 164
61 98 165
62 98 166
62 99 173
62 98 165
62 98 169
62 99 169
62 98 164
62 98 164
63 99 168
62 99 171
62 98 166
62 98 165
62 98 167
62 98 163
62 98 163
62 98 162
61 97 163
61 97 158
62 98 161
62 98 165
60 96 149
62 98 163
62 98 163
61 96 160
61 96 159
61 97 162
62 97 156
62 98 171
62 97 157
61 97 162
59 93 152
62 97 158
61 96 154
60 96 160
61 96 154
60 94 150
59 93 146
59 92 142
60 93 147
58 86 131
58 66 60
52 57 35
65 69 36
66 71 34
67 70 33
67 68 25
73 77 32
84 86 37
77 80 36
72 77 35
73 76 26
82 85 39
90 91 48
92 95 44
89 90 38
87 88 47
98 99 45
95 97 47
107 107 50
96 97 49
104 104 50
104 106 55
113 111 52
128 125 61
116 115 55
124 121 56
127 125 60
122 120 67
124 122 52
123 122 66
139 134 68
134 131 65
137 133 62
135 133 66
146 142 75
133 130 68
127 125 62
133 131 68
143 139 70
143 139 73
137 134 61
138 134 72
150 145 73
150 146 75
157 151 71
152 147 65
152 147 72
136 133 57
146 142 67
150 147 72
150 145 71
154 149 74
148 144 68
159 153 77
156 151 73
153 149 67
156 151 71
141 137 65
154 149 68
152 146 67
155 150 70
160 153 77
155 150 72
160 154 77
160 154 71
160 155 65
166 160 75
155 149 66
160 154 75
161 154 76
161 155 74
160 155 71
162 155 73
160 154 72
158 153 66
161 156 70
159 153 67
161 154 73
156 149 71
156 149 67
162 156 73
162 156 71
157 151 69
157 150 71
163 156 71
153 148 63
159 152 75
160 153 70
158 152 71
157 151 65
163 156 69
156 150 69
146 142 61
160 154 70
154 149 59
154 149 62
157 151 70
154 149 67
156 149 73
159 152 67
154 148 61
145 140 58
153 146 64
141 135 59
145 140 53
153 145 62
152 146 67
148 142 63
148 141 68
138 133 52
142 136 59
141 135 56
142 137 58
147 140 61
139 134 52
133 129 49
132 126 48
138 134 52
129 128 42
138 140 42
147 152 37
153 160 37
147 156 30
146 155 37
153 165 30
151 165 22
161 176 19
163 181 16
169 188 11
170 192 0
171 192 0
170 192 0
169 190 0
171 191 0
169 189 0
169 189 0
169 190 0
173 196 0
173 196 0
171 194 0
173 196 0
171 194 0
171 195 0
172 196 0
172 195 0
171 195 0
170 194 0
174 198 0
170 193 0
173 195 0
170 193 0
171 195 0
169 193 0
170 193 0
172 196 0
169 194 0
172 195 0
170 193 0
170 194 0
171 195 0
171 193 0
170 193 0
170 193 0
172 195 0
168 192 0
172 195 0
170 194 0
170 194 0
171 195 0
169 193 0
169 193 0
170 194 0
171 194 0
170 194 0
172 195 0
171 195 0
171 194 0
170 193 0
172 195 0
167 190 0
171 194 0
171 195 0
169 192 0
170 193 0
171 195 0
172 196 0
167 191 0
170 193 0
170 193 0
167 190 0
169 192 0
168 192 0
170 193 0
170 194 0
171 195 0
166 190 0
173 196 0
169 191 0
168 191 0
170 193 0
169 192 0
169 192 0
167 190 0
171 194 0
170 193 0
168 191 0
171 195 0
172 195 0
167 191 0
172 196 0
170 192 0
169 193 0
165 189 0
172 195 0
170 194 0
166 189 0
170 193 0
171 194 0
172 196 0
171 194 0
168 191 0
169 192 0
116 141 114
62 97 148
61 97 155
61 97 154
61 98 162
62 98 163
62 98 166
61 97 161
62 98 165
61 96 157
62 98 162
61 97 161
62 98 165
62 98 163
62 98 165
62 98 166
62 98 167
62 99 169
62 98 168
62 98 164
62 98 167
62 98 165
63 99 164
62 98 164
61 98 168
62 98 172
62 99 174
62 98 167
62 99 171
62 98 170
62 99 165
62 98 165
62 98 168
62 99 173
61 98 172
62 99 173
62 99 174
62 98 170
62 99 172
62 99 172
62 98 168
63 100 176
62 99 172
62 99 174
62 98 168
63 99 175
62 99 170
62 98 169
61 98 172
61 98 170
62 99 167
62 98 167
62 99 173
62 99 172
63 100 176
62 99 171
62 99 170
62 99 176
62 99 168
62 99 178
62 98 170
62 98 169
63 99 172
62 99 174
62 99 174
62 99 173
62 99 171
62 99 171
62 99 167
62 99 174
62 99 174
62 98 171
63 99 173
62 99 168
63 99 172
62 98 168
61 98 165
62 99 170
63 100 176
62 99 171
61 98 166
62 98 172
62 99 170
62 98 172
62 98 169
63 99 173
62 99 168
63 99 176
62 98 168
62 99 171
62 99 174
62 98 167
62 99 172
62 99 171
61 98 166
63 99 171
63 100 174
61 98 167
61 98 174
62 99 171
62 99 172
62 98 172
63 99 175
61 98 169
62 99 171
62 99 169
62 99 171
62 99 173
63 99 169
62 99 175
63 100 178
61 98 165
62 98 169
62 98 171
63 99 169
62 99 170
63 99 171
62 98 170
62 99 170
62 99 175
62 99 173
62 98 168
62 98 169
63 99 170
63 99 170
62 99 171
63 99 173
62 98 167
62 98 163
62 99 171
62 99 167
62 98 169
62 98 168
61 98 164
63 99 171
61 98 160
62 99 172
62 98 164
61 97 163
62 98 164
63 99 171
61 97 161
62 99 169
62 99 169
62 98 164
62 98 166
63 99 166
62 98 168
61 98 164
61 97 160
61 98 164
62 98 162
62 98 158
62 98 166
61 97 159
62 98 165
61 97 158
61 97 159
62 97 158
61 97 162
61 97 166
62 98 162
61 97 163
61 96 157
61 95 151
61 96 153
61 97 161
62 97 155
61 96 159
61 96 160
60 95 152
60 95 155
60 95 156
61 95 148
61 95 146
60 94 149
59 92 138
58 86 124
60 73 72
56 60 31
59 63 26
56 60 27
70 73 30
70 73 30
77 78 33
68 72 32
83 84 41
86 89 37
88 90 48
74 77 35
80 83 40
88 91 49
85 87 37
87 89 42
89 91 37
90 90 43
99 101 48
103 103 49
112 112 49
108 109 46
117 115 56
113 112 57
118 116 60
132 130 63
128 126 58
129 126 66
127 126 62
120 120 57
126 123 62
118 117 52
136 132 64
127 126 64
138 134 70
128 125 61
140 136 67
133 131 57
139 136 62
139 136 60
130 128 59
145 141 71
149 144 69
142 138 67
150 145 73
151 146 74
153 148 70
144 140 64
144 139 63
152 147 72
146 141 64
158 151 73
156 149 78
156 151 76
163 157 77
158 152 73
165 158 79
153 148 66
153 147 71
157 151 70
159 153 71
159 153 74
162 155 78
158 152 69
162 156 76
160 154 74
163 157 77
156 151 68
156 152 57
162 155 77
164 157 78
159 153 70
165 157 78
159 154 68
157 151 73
162 155 72
156 151 64
154 148 62
162 155 80
164 158 73
163 157 74
159 153 64
159 152 75
160 153 76
154 149 65
158 152 65
159 153 66
151 146 61
150 145 61
155 150 67
156 150 67
154 149 67
156 150 62
156 150 66
156 150 58
149 142 64
151 144 71
153 145 71
150 144 60
142 137 51
157 150 64
150 144 60
149 144 59
147 141 54
144 138 60
150 144 62
151 144 62
137 132 52
145 139 62
146 140 53
141 135 56
146 140 56
135 130 48
135 130 59
139 133 56
146 140 60
140 140 39
144 141 54
142 144 44
140 141 47
148 157 36
148 155 28
154 163 34
150 163 16
155 168 28
161 175 22
169 187 19
168 187 16
164 182 0
169 190 11
168 190 0
168 189 0
171 190 0
171 191 0
173 194 0
168 186 0
170 191 0
170 194 0
172 195 0
171 195 0
173 196 0
173 197 0
169 193 0
169 192 0
170 194 0
171 195 0
169 192 0
169 194 0
171 194 0
173 196 0
173 196 0
170 195 0
170 193 0
171 194 0
171 195 0
171 194 0
172 195 0
172 196 0
170 192 0
172 195 0
172 195 0
168 191 0
171 194 0
167 191 0
171 194 0
171 194 0
170 193 0
173 195 0
169 191 0
168 191 0
169 193 0
170 192 0
167 190 0
168 191 0
170 194 0
168 192 0
170 193 0
171 195 0
171 194 0
170 194 0
170 193 0
172 195 0
170 194 0
168 191 0
168 191 0
169 192 0
171 194 0
169 193 0
168 192 0
165 188 0
170 193 0
167 190 0
167 190 0
166 189 0
172 194 0
169 193 0
172 196 0
167 191 0
170 193 0
169 192 0
171 195 0
166 190 0
169 191 0
169 192 0
170 195 0
167 190 0
170 193 0
171 194 0
170 194 0
171 194 0
168 192 0
167 190 0
167 191 0
167 191 0
168 192 0
171 193 0
166 189 0
167 191 0
170 193 0
169 192 0
165 189 0
169 192 18
101 129 130
61 96 147
62 98 161
61 97 156
61 96 153
60 96 151
60 96 148
62 99 169
61 97 156
61 97 163
62 98 159
62 98 164
61 97 163
62 98 166
61 97 162
61 98 163
63 99 167
61 97 164
61 97 163
62 98 172
62 98 161
62 97 158
62 98 168
62 98 170
62 99 171
61 97 160
62 98 167
62 98 165
62 98 163
61 98 162
62 99 169
62 98 166
63 99 173
63 99 172
63 99 174
62 98 169
63 99 176
62 98 169
61 98 166
62 99 171
62 99 170
62 99 167
62 99 171
63 99 175
62 98 173
63 99 167
62 98 171
62 99 174
63 99 175
62 99 173
62 99 171
62 99 173
62 98 169
62 98 169
63 99 173
62 99 171
62 99 173
62 99 169
62 98 172
62 99 177
62 99 172
62 99 172
62 99 171
62 99 174
63 99 174
62 99 173
62 98 172
62 99 175
62 99 170
62 99 174
63 99 170
62 99 170
62 98 172
62 99 174
62 99 171
62 98 172
62 99 176
63 99 174
62 99 171
61 98 168
62 98 172
62 98 167
62 99 169
61 98 170
62 99 170
62 99 171
62 99 170
62 98 169
62 99 172
62 99 170
61 98 162
62 99 173
63 99 173
62 99 170
62 98 169
63 99 173
62 99 171
62 99 174
63 99 177
63 99 176
62 99 170
62 99 171
62 98 170
62 98 170
62 99 175
62 99 172
62 99 167
62 99 171
62 99 172
63 99 170
62 99 170
61 98 165
62 98 165
62 98 168
62 99 171
62 99 172
62 99 171
62 98 164
62 98 161
61 98 164
61 98 167
62 98 172
62 98 166
62 99 170
62 99 169
61 98 167
62 99 168
63 99 172
62 98 165
63 99 170
63 99 169
63 99 172
62 98 161
61 98 162
62 99 168
63 99 170
62 98 166
61 97 163
62 98 162
63 99 172
62 98 163
61 97 162
62 98 162
62 98 167
61 98 166
62 98 161
62 98 164
62 98 167
63 99 168
63 99 170
62 98 158
61 97 162
61 98 164
62 98 162
62 98 168
62 98 165
63 99 172
63 99 170
61 97 156
62 99 171
62 97 162
60 96 158
61 96 151
61 96 161
62 97 163
60 95 161
61 97 160
61 97 151
61 97 156
62 98 161
61 96 159
61 96 149
60 95 152
59 93 146
60 95 152
61 96 152
60 93 152
59 89 133
64 78 89
66 67 25
60 63 20
71 74 34
66 70 26
74 76 30
83 84 35
74 76 41
71 72 33
86 87 37
83 84 37
87 89 33
91 93 42
82 85 42
92 93 44
84 87 44
103 103 49
105 104 44
103 103 46
103 103 44
106 106 52
101 102 54
101 102 55
109 110 48
120 119 58
118 116 48
120 118 56
118 117 59
127 124 59
132 129 65
121 120 60
132 129 71
132 128 58
138 135 61
131 128 62
143 139 64
136 132 59
139 135 69
144 141 66
135 131 57
142 137 64
147 142 70
150 145 70
141 137 71
141 136 66
149 144 69
141 137 64
147 143 72
153 148 71
149 145 71
152 145 67
154 149 74
152 147 67
151 146 69
160 153 71
155 149 70
157 151 71
163 157 75
158 153 71
159 153 71
159 153 73
160 154 76
158 151 73
160 154 68
158 152 73
159 154 72
158 152 66
155 149 60
160 154 65
162 155 76
159 152 75
162 156 77
156 149 65
166 158 78
155 149 68
159 153 70
153 148 66
162 155 72
160 152 70
156 150 74
160 154 67
159 153 68
157 152 67
162 156 73
157 150 70
160 154 68
158 151 73
155 148 62
153 147 64
163 156 69
146 141 56
151 145 57
154 148 62
156 150 69
150 145 64
156 149 70
153 147 65
135 131 52
152 146 67
152 146 60
146 140 58
153 146 62
149 144 64
145 140 58
149 143 64
145 140 49
139 133 51
142 136 52
141 135 51
138 132 53
152 145 66
142 136 51
142 136 52
135 130 52
131 126 39
134 129 56
139 137 47
140 139 44
136 140 39
145 149 37
142 151 36
150 159 37
150 161 32
155 167 32
158 174 11
164 182 16
164 181 11
167 187 11
170 189 0
169 189 0
170 190 0
170 190 0
171 192 0
172 191 0
167 185 0
166 186 0
166 187 0
173 196 0
171 194 0
172 195 0
171 195 0
171 195 0
170 194 0
172 196 0
172 195 0
172 195 0
171 194 0
171 194 0
171 195 0
172 196 0
173 196 0
172 196 0
169 191 0
170 194 0
170 193 0
168 191 0
172 195 0
167 190 0
174 197 0
171 195 0
174 197 0
171 194 0
172 195 0
171 194 0
171 194 0
167 190 0
170 193 0
171 194 0
169 193 0
172 196 0
168 192 0
169 192 0
170 193 0
169 193 0
171 195 0
170 193 0
168 192 0
171 194 0
169 192 0
172 195 0
169 192 0
167 191 0
170 193 0
173 196 0
169 192 0
170 193 0
168 192 0
164 188 0
170 193 0
170 193 0
168 192 0
166 189 0
170 194 0
171 194 0
168 191 0
167 191 0
166 190 0
172 195 0
172 195 0
170 193 0
169 192 0
167 191 0
168 192 0
171 193 0
169 192 0
172 195 0
169 193 0
169 192 0
168 191 0
170 193 0
167 190 0
169 192 0
171 194 0
170 193 0
167 191 0
166 190 0
166 190 0
169 193 0
160 183 0
169 192 0
170 194 0
165 187 25
92 120 134
61 97 151
61 97 157
62 98 160
62 98 163
62 98 165
62 98 157
61 96 155
61 97 158
62 98 163
62 98 162
61 97 160
61 97 160
62 98 159
63 99 170
62 98 164
62 98 162
62 98 163
62 98 163
61 97 162
62 99 169
62 99 169
62 98 163
61 98 167
62 99 166
62 98 169
62 98 168
62 99 172
62 98 167
61 97 163
62 99 171
63 99 172
62 98 166
62 99 168
62 98 166
61 97 170
63 99 174
62 99 170
63 99 168
62 98 166
62 99 174
62 98 165
63 100 175
62 98 167
62 98 171
62 99 174
62 99 172
63 100 175
63 99 172
62 98 170
62 99 169
62 99 170
63 99 173
62 98 169
62 99 175
62 98 171
63 99 168
62 99 172
62 99 171
62 98 171
62 99 171
62 99 172
62 99 169
63 99 172
62 98 167
61 98 170
62 98 166
62 98 168
62 99 173
62 99 171
62 99 172
62 99 174
63 99 172
63 99 173
62 99 173
62 98 172
63 99 171
62 99 175
62 99 178
63 99 170
62 99 173
62 99 170
61 98 163
62 99 174
62 99 173
62 99 169
62 98 170
62 99 175
62 98 170
62 99 170
62 99 170
62 98 171
62 99 171
63 99 170
63 99 168
62 99 168
62 99 169
61 98 170
62 99 171
61 98 167
62 98 167
61 98 166
62 98 165
62 99 173
62 99 170
62 99 171
62 98 166
62 99 174
62 99 171
62 98 164
62 98 167
62 98 166
62 99 170
62 98 166
62 99 165
62 99 168
62 98 171
62 98 166
62 99 168
62 99 173
62 98 168
62 98 169
61 98 165
62 98 169
62 98 164
62 98 167
62 98 169
62 99 172
62 98 167
61 97 166
63 99 175
63 99 169
62 99 171
62 98 165
62 99 168
62 98 168
62 99 170
62 98 163
63 99 171
62 98 163
62 99 168
62 99 170
62 98 166
61 98 167
62 98 166
61 97 161
62 98 163
62 98 162
62 98 167
62 98 162
61 97 163
63 99 165
62 98 163
62 98 163
62 98 157
62 97 159
61 97 159
62 98 166
62 98 160
61 97 160
63 99 170
61 97 160
62 97 159
62 98 166
61 97 155
61 97 156
63 99 165
62 97 158
62 97 165
60 95 155
62 97 161
62 97 159
60 95 153
60 96 154
59 92 144
60 94 149
60 94 149
59 92 142
68 81 90
55 60 33
59 62 28
71 72 31
75 77 27
63 67 25
70 74 23
71 74 29
70 73 36
82 83 33
80 83 35
83 87 39
77 82 37
105 104 52
89 92 44
97 99 43
98 100 41
98 99 46
101 102 51
99 99 52
114 112 52
115 113 47
99 101 47
118 116 56
127 126 61
120 119 59
118 117 56
123 121 60
132 129 56
126 124 56
122 120 55
124 122 55
130 128 68
132 130 60
134 131 65
132 129 65
134 130 67
137 133 60
145 141 60
142 138 66
145 141 63
144 141 57
148 143 69
144 140 70
149 144 71
146 142 67
151 147 74
147 142 63
144 139 63
154 149 70
149 145 73
153 147 72
153 148 69
158 152 71
153 147 73
152 146 62
155 149 74
159 153 66
147 143 57
157 151 71
158 152 75
151 146 62
152 147 70
163 156 78
161 155 69
162 155 78
152 146 70
159 152 65
160 154 73
163 156 75
160 154 71
157 150 67
156 151 65
151 144 72
155 149 68
155 149 63
157 150 65
162 155 72
156 150 66
160 153 72
155 150 62
161 155 67
153 147 66
154 148 62
156 151 56
152 146 61
148 143 58
156 151 63
154 148 61
149 144 54
153 147 60
152 146 60
151 145 60
154 148 65
155 148 62
146 140 58
150 144 68
147 141 60
147 140 62
148 142 63
141 136 56
146 140 65
143 137 54
152 146 58
146 139 61
140 134 59
144 139 57
148 143 56
142 136 57
138 132 54
145 139 54
135 130 53
136 130 54
121 118 36
139 136 42
134 131 41
134 132 45
135 138 42
149 154 36
141 147 36
149 156 28
149 160 32
148 160 30
159 173 32
164 181 19
163 182 16
166 184 0
168 189 0
168 186 0
168 189 0
169 190 0
171 191 0
167 189 0
172 193 0
170 189 0
169 190 0
169 190 0
170 194 0
172 196 0
173 196 0
171 195 0
172 195 0
172 195 0
174 197 0
173 196 0
170 194 0
173 196 0
173 197 0
172 197 0
169 193 0
173 196 0
171 194 0
169 192 0
171 194 0
170 194 0
170 192 0
170 194 0
170 194 0
171 195 0
169 192 0
170 194 0
172 195 0
172 195 0
166 189 0
173 195 0
171 194 0
170 194 0
171 195 0
170 193 0
170 194 0
169 193 0
173 196 0
167 191 0
172 195 0
169 193 0
169 192 0
168 192 0
172 195 0
171 194 0
171 195 0
167 190 0
166 189 0
170 194 0
168 192 0
169 192 0
168 192 0
170 193 0
174 197 0
170 192 0
168 191 0
170 194 0
169 192 0
168 191 0
166 189 0
168 193 0
167 191 0
170 194 0
171 194 0
170 193 0
165 190 0
168 191 0
174 198 0
169 193 0
171 194 0
169 193 0
168 191 0
169 192 0
171 194 0
167 190 0
169 193 0
168 191 0
171 194 0
168 192 0
168 191 0
163 185 0
169 192 0
162 185 0
167 191 0
166 189 0
165 188 0
161 185 0
155 178 47
73 106 145
62 98 160
61 96 150
62 98 160
61 97 157
61 97 152
62 97 154
61 97 155
62 99 165
62 98 164
62 97 159
62 97 159
61 98 163
62 98 160
62 98 166
62 98 161
62 99 171
62 98 161
62 99 170
62 98 167
63 99 170
62 99 170
63 99 170
62 99 168
62 99 169
62 98 165
62 98 171
62 98 167
61 98 166
62 99 172
62 99 166
63 99 172
62 98 170
62 98 164
62 99 169
62 98 165
62 98 170
62 98 171
62 99 171
61 98 163
62 98 166
63 100 178
62 99 171
62 99 170
63 99 171
62 99 173
62 99 170
62 99 174
62 99 171
62 99 171
62 99 169
62 99 171
62 98 170
62 99 173
62 98 169
62 98 167
62 99 172
62 98 170
63 99 172
63 99 172
62 99 175
62 99 170
62 99 171
62 99 173
62 98 168
62 99 167
62 98 173
62 98 168
61 98 168
62 99 171
63 99 173
61 98 168
62 99 174
61 98 167
63 99 173
62 99 175
62 99 170
62 99 173
63 99 177
62 98 167
62 99 173
62 99 171
62 99 172
62 98 170
63 99 173
62 99 173
62 99 173
62 99 174
63 99 173
63 100 173
63 99 169
62 99 172
63 99 175
62 98 172
63 99 174
62 98 169
63 99 170
62 98 170
62 98 166
61 98 171
62 99 174
62 99 173
62 98 170
62 99 171
62 99 171
62 99 171
62 99 173
63 99 170
63 99 172
62 99 169
62 99 170
62 99 169
61 98 169
63 100 173
61 98 164
62 99 173
62 99 170
62 98 166
62 98 168
62 99 171
62 98 168
62 98 162
61 98 168
62 99 166
63 99 167
63 99 167
62 99 168
62 99 169
63 99 171
62 99 171
62 98 165
63 99 172
62 98 170
62 98 166
62 98 161
61 98 166
63 99 172
62 98 160
62 98 168
63 99 169
63 99 165
62 98 162
63 99 170
62 98 162
63 99 168
62 99 164
62 99 169
62 98 168
61 97 161
62 98 164
62 98 160
62 98 162
62 98 165
62 98 167
62 98 163
63 99 169
62 98 166
61 97 160
63 99 164
61 97 160
62 99 170
62 98 157
62 98 167
62 98 162
62 98 163
62 97 162
61 96 158
61 97 162
61 96 158
59 95 154
61 96 161
60 95 150
61 95 150
60 93 146
61 95 145
60 94 152
59 92 147
61 92 138
66 82 108
50 56 33
60 63 21
74 77 30
68 71 24
62 67 31
63 67 27
77 77 32
89 89 28
84 85 34
84 84 32
80 82 32
90 90 35
83 87 41
97 97 47
97 97 46
102 102 42
89 91 43
105 105 46
108 108 52
103 104 50
106 105 40
119 116 52
114 113 55
114 113 44
122 120 48
113 113 54
119 118 61
115 114 49
128 125 61
128 126 52
133 131 67
125 124 56
140 135 66
134 130 64
132 129 58
138 135 63
146 142 70
139 136 62
139 136 69
149 142 72
131 128 56
144 140 66
142 138 63
152 147 72
143 138 65
143 139 67
149 145 71
142 139 66
151 146 68
148 143 59
146 142 68
158 153 68
157 151 74
153 147 69
153 148 65
153 148 70
158 152 74
159 152 67
150 145 63
147 143 58
152 147 69
158 152 65
160 154 74
157 151 70
162 155 70
156 150 63
159 154 66
152 146 62
168 161 73
158 151 65
157 150 69
157 151 73
155 149 61
155 150 59
154 148 70
153 148 64
149 143 64
155 150 67
158 153 66
153 148 63
155 150 66
155 150 60
158 152 60
140 136 45
159 153 68
157 151 70
154 147 65
151 145 57
150 144 63
154 148 60
153 148 57
150 144 66
153 147 66
155 150 62
143 137 58
142 136 62
151 144 58
148 142 64
145 141 48
147 142 57
141 135 51
152 145 67
150 144 63
149 143 65
154 148 65
141 137 53
137 132 61
125 120 48
143 136 57
138 132 52
135 130 51
130 125 49
134 129 51
140 136 52
130 128 45
132 132 32
150 155 47
143 148 28
145 151 37
152 160 45
154 164 28
157 170 19
152 167 28
164 179 28
167 185 11
167 186 0
165 184 0
170 191 0
169 189 0
170 191 0
168 188 0
171 193 0
169 189 0
162 180 0
170 190 0
170 191 0
171 193 0
173 196 0
169 192 0
171 194 0
172 196 0
174 198 0
170 194 0
166 189 0
173 196 0
168 192 0
170 193 0
171 195 0
171 195 0
170 193 0
173 196 0
173 196 0
171 194 0
174 197 0
168 192 0
173 197 0
169 192 0
173 196 0
171 195 0
173 197 0
171 195 0
168 192 0
169 192 0
170 194 0
173 197 0
171 194 0
163 187 0
167 190 0
172 195 0
170 193 0
172 195 0
166 191 0
168 192 0
167 190 0
166 190 0
168 191 0
171 195 0
169 193 0
171 194 0
170 193 0
163 187 0
167 191 0
171 193 0
172 196 0
168 192 0
169 193 0
167 190 0
169 191 0
168 192 0
165 187 0
164 188 0
167 190 0
167 192 0
164 188 0
166 188 0
169 192 0
168 192 0
168 191 0
168 190 0
171 195 0
167 190 0
166 189 0
167 190 0
170 193 0
170 193 0
169 191 0
168 192 0
165 189 0
170 193 0
169 193 0
170 193 0
167 191 0
168 192 0
169 192 0
167 189 0
167 190 0
168 191 0
168 191 0
163 186 0
168 191 0
158 181 51
62 98 155
62 98 161
61 96 153
61 96 159
61 97 156
62 98 161
62 98 159
61 97 157
61 97 152
62 98 166
62 98 160
62 98 167
61 97 153
61 97 160
62 99 165
62 99 167
62 98 164
61 98 162
62 98 166
61 98 164
62 98 164
62 98 161
61 97 159
61 97 168
62 98 165
62 99 174
62 99 168
63 100 175
63 99 172
62 99 169
61 97 167
63 99 173
62 99 174
62 99 168
62 98 171
62 99 174
63 99 174
63 99 172
61 98 163
63 99 174
63 99 168
62 98 170
63 99 171
63 100 174
62 99 169
62 98 170
61 98 168
62 99 174
62 98 168
63 99 172
62 98 166
62 99 172
62 99 169
62 98 172
62 98 171
62 99 171
63 99 174
62 99 170
62 99 171
63 99 175
62 99 173
62 98 169
62 98 167
62 99 171
63 99 170
61 98 170
62 98 171
61 98 169
62 99 167
62 99 174
62 99 171
62 99 174
63 99 175
62 99 169
62 99 173
62 99 178
62 98 171
62 99 170
62 99 176
62 98 166
62 99 170
63 100 176
62 99 171
62 99 175
62 98 167
62 99 172
62 99 169
62 98 163
63 99 174
62 99 174
62 99 174
62 99 173
63 99 168
62 98 170
62 98 169
62 98 173
62 99 165
62 99 172
62 99 176
62 98 170
63 99 174
62 98 167
63 99 169
62 98 169
62 98 170
62 98 163
62 99 173
63 99 169
63 99 171
62 99 168
62 99 167
62 98 167
62 98 164
61 97 166
62 98 165
62 99 168
61 98 166
63 99 172
62 99 170
61 98 165
62 99 170
62 98 165
62 98 163
63 99 170
62 98 168
62 98 167
62 99 170
62 98 165
62 98 168
62 98 166
62 98 162
62 99 167
62 98 168
62 99 166
62 98 164
62 98 170
62 98 165
63 99 170
62 98 161
61 98 167
62 98 160
63 99 169
61 97 162
62 99 168
63 99 169
62 98 163
62 98 163
63 99 168
63 100 173
62 98 163
62 98 161
61 97 156
62 97 165
62 99 168
61 97 158
62 98 163
61 97 159
63 99 160
63 98 168
61 97 160
63 99 166
61 97 162
61 97 160
61 97 161
61 97 156
62 97 159
61 97 151
60 96 150
62 97 162
62 97 154
62 98 155
61 95 153
61 96 153
62 97 163
61 96 149
60 93 146
60 94 151
58 92 138
60 82 107
59 65 47
60 62 16
68 70 21
55 60 24
68 69 17
59 64 30
79 81 31
84 86 37
77 76 24
79 81 38
79 82 32
81 83 37
84 87 38
76 79 45
102 102 46
100 99 37
99 99 42
101 102 41
106 106 43
107 107 48
114 111 52
108 107 40
116 114 46
115 114 55
112 112 51
117 116 53
125 124 50
128 126 60
128 125 61
124 122 56
128 125 56
130 128 57
133 130 64
136 133 64
124 122 51
137 133 62
128 126 54
137 133 56
135 131 58
142 138 65
133 130 58
138 134 55
142 139 62
148 144 64
145 142 66
141 136 62
149 144 65
153 147 72
149 144 67
145 141 63
149 145 66
160 153 72
147 141 67
151 145 67
159 153 75
151 146 66
147 142 64
155 149 71
159 152 75
158 153 69
156 151 67
152 147 62
155 150 65
145 141 58
156 151 56
158 151 68
154 146 70
158 152 71
156 150 73
156 150 65
159 153 66
162 156 68
157 152 63
162 155 71
153 145 74
153 146 62
155 148 64
157 151 58
153 148 67
157 151 64
147 142 63
159 152 70
155 149 72
151 145 61
152 146 62
154 147 65
153 147 61
154 148 53
154 148 62
156 148 64
151 145 58
151 144 63
150 144 60
154 147 60
141 136 56
145 140 51
151 145 60
153 146 58
148 142 59
148 142 64
142 137 54
141 135 51
143 137 59
144 138 52
143 137 56
134 129 49
135 130 48
134 130 37
150 144 54
130 126 44
133 127 57
137 131 54
135 130 53
138 136 52
133 133 36
148 149 42
144 151 28
150 156 34
146 150 34
155 164 32
152 165 32
153 168 22
155 169 19
163 182 11
166 184 11
167 187 11
168 187 0
170 191 0
166 186 0
170 189 0
170 191 0
172 191 0
171 191 0
171 192 0
168 188 0
168 189 0
173 197 0
169 193 0
170 194 0
171 195 0
171 195 0
171 194 0
170 193 0
167 191 0
171 193 0
172 194 0
173 196 0
172 195 0
172 195 0
173 196 0
166 190 0
170 194 0
169 192 0
173 196 0
170 194 0
172 195 0
170 193 0
172 195 0
169 193 0
172 195 0
173 196 0
172 195 0
168 192 0
167 191 0
169 193 0
170 193 0
168 192 0
168 192 0
170 193 0
170 194 0
168 191 0
169 193 0
173 196 0
169 192 0
173 197 0
170 193 0
169 193 0
167 190 0
172 195 0
170 194 0
169 193 0
169 192 0
167 190 0
165 189 0
170 193 0
167 190 0
171 194 0
169 193 0
169 193 0
169 192 0
170 193 0
166 189 0
169 192 0
168 191 0
168 191 0
166 190 0
166 189 0
169 192 0
169 192 0
166 190 0
166 190 0
168 192 0
169 193 0
172 194 0
173 196 0
168 191 0
169 192 0
167 190 0
169 193 0
167 191 0
169 193 0
168 192 0
168 191 0
168 191 0
164 188 0
167 189 0
170 193 0
165 189 0
172 195 0
170 192 0
150 173 80
63 98 154
60 96 150
60 96 152
62 98 156
62 98 163
62 97 158
62 98 157
61 97 159
62 98 159
61 97 158
62 98 160
61 97 155
62 98 162
62 98 159
63 99 164
62 98 163
63 99 163
61 97 160
62 98 165
63 99 166
61 98 165
62 99 171
62 98 165
62 98 166
62 98 166
63 99 175
61 97 160
62 98 163
62 98 165
63 99 167
62 99 172
63 99 171
62 98 167
63 99 172
62 99 171
62 99 168
62 99 171
62 98 168
62 99 171
62 99 168
62 99 173
62 98 169
62 99 170
62 98 168
61 98 169
61 98 171
62 99 170
62 99 171
63 99 171
63 100 177
62 99 169
62 99 166
61 98 168
62 99 176
62 99 171
62 99 172
62 98 171
61 98 166
62 98 169
61 98 161
63 99 177
61 98 165
62 99 172
63 99 171
62 99 169
62 98 165
62 98 172
62 98 169
62 99 176
62 98 170
62 98 167
62 98 165
62 98 170
62 99 175
62 99 174
62 99 172
61 98 174
62 98 163
62 98 167
62 98 166
61 98 166
62 98 171
62 99 171
62 98 166
63 99 170
62 99 171
62 99 175
62 99 169
62 98 169
62 98 168
61 98 171
62 99 171
62 99 172
62 99 174
62 99 175
62 99 171
62 99 168
62 98 168
62 99 172
63 99 169
63 99 171
62 99 173
62 98 170
62 99 170
62 99 168
62 98 162
62 98 169
62 98 167
62 98 169
62 98 162
62 99 170
62 99 172
63 99 171
63 100 175
63 99 175
62 98 170
62 99 173
61 98 166
62 99 172
62 98 169
62 98 167
62 98 166
62 99 166
61 97 155
62 98 164
62 98 164
61 98 164
62 98 166
61 98 164
62 99 172
61 98 168
62 99 169
62 99 167
62 98 166
62 98 166
62 98 163
62 98 167
62 98 166
62 98 163
62 98 166
62 98 166
61 97 163
61 98 164
62 98 158
61 98 164
63 99 167
62 98 164
62 98 163
61 97 155
62 98 163
62 98 165
61 97 157
63 99 167
62 98 167
63 99 170
61 97 157
62 97 161
62 98 161
62 97 160
63 99 168
61 97 159
63 98 161
61 96 152
61 97 156
61 97 160
62 98 159
61 97 158
61 96 158
61 96 152
60 94 152
59 94 152
60 95 145
59 93 148
62 97 163
60 94 149
60 93 140
61 95 153
58 91 136
53 79 114
64 72 70
80 78 24
77 78 27
71 74 25
81 82 31
69 70 29
79 81 29
73 75 31
76 78 36
87 88 42
80 83 35
83 84 35
92 92 35
95 97 36
86 87 40
95 96 34
95 94 34
97 99 41
106 105 48
103 102 39
105 105 50
105 103 42
124 120 46
122 120 51
113 110 48
119 118 57
125 123 52
120 118 59
124 122 52
127 125 56
121 119 47
136 133 48
127 125 51
130 127 55
127 126 52
139 135 56
132 129 58
139 136 56
128 126 51
136 133 64
135 132 58
135 132 50
135 133 64
150 146 62
145 141 66
142 138 65
147 143 66
150 144 67
146 141 71
153 148 66
157 151 75
150 144 67
152 147 61
145 140 61
148 144 61
150 145 62
155 150 68
150 145 58
152 146 67
155 149 66
153 147 61
150 146 67
156 151 69
158 152 69
155 149 68
153 148 65
151 147 57
154 149 60
153 147 63
151 145 57
151 146 61
154 148 63
153 147 65
160 153 68
150 145 54
156 150 67
160 153 70
155 148 69
157 151 65
154 148 63
153 147 60
153 147 59
149 144 56
154 147 62
154 148 58
158 150 68
158 152 63
146 140 58
150 144 54
147 141 61
146 141 62
151 145 61
155 148 64
151 144 61
137 132 53
139 134 48
140 135 54
143 138 57
138 133 47
152 145 62
141 136 48
148 143 56
146 141 56
150 144 60
142 136 51
140 134 51
132 129 44
141 135 56
141 135 56
130 125 44
135 130 49
124 121 42
137 132 48
137 134 37
138 139 36
140 141 41
145 153 32
146 154 42
148 157 34
153 164 36
160 170 25
159 174 22
164 178 16
166 182 19
163 180 0
170 191 0
168 187 0
168 187 0
164 182 0
171 191 0
166 186 0
172 193 0
170 188 0
168 188 0
170 191 0
169 188 0
170 194 0
173 196 0
169 192 0
172 195 0
172 196 0
173 196 0
167 191 0
169 192 0
172 195 0
173 196 0
171 194 0
170 194 0
172 196 0
173 196 0
169 193 0
174 197 0
173 196 0
169 192 0
170 193 0
172 194 0
170 193 0
171 194 0
172 195 0
169 193 0
168 192 0
170 194 0
169 192 0
171 195 0
170 194 0
173 196 0
169 193 0
169 193 0
169 193 0
171 194 0
169 192 0
169 194 0
170 194 0
171 194 0
170 193 0
170 193 0
166 189 0
169 192 0
169 191 0
172 195 0
170 194 0
170 192 0
171 194 0
167 191 0
168 191 0
169 193 0
171 194 0
173 195 0
171 194 0
168 191 0
172 195 0
166 190 0
168 192 0
170 192 0
169 192 0
166 189 0
162 185 0
166 189 0
173 196 0
171 194 0
167 190 0
168 191 0
166 190 0
172 195 0
170 194 0
169 192 0
169 192 0
170 193 0
171 194 0
168 191 0
169 192 0
169 192 0
168 191 0
168 192 0
170 192 0
168 192 0
166 189 0
170 194 0
167 190 0
169 193 0
143 167 84
62 98 156
62 98 155
62 98 155
61 97 158
61 97 153
62 97 154
61 97 156
61 97 158
61 97 156
62 98 156
62 98 166
62 98 164
62 98 162
62 98 162
62 98 163
61 98 163
62 98 162
63 99 170
62 98 162
61 98 162
62 98 164
62 98 162
61 97 160
63 99 170
63 99 167
63 99 171
61 98 163
62 98 165
62 98 164
62 98 169
62 99 171
62 99 173
63 99 171
62 99 172
61 98 168
61 97 162
62 99 168
62 99 169
62 98 166
62 98 165
63 99 165
62 99 168
62 98 170
62 99 171
62 98 171
62 99 174
62 99 172
63 99 173
62 99 173
62 99 170
62 99 172
61 97 165
62 99 173
63 99 171
62 98 171
62 99 173
61 98 172
62 98 171
62 98 170
62 99 169
62 99 170
61 98 167
62 98 169
62 98 171
62 98 170
62 99 173
62 99 175
62 99 172
62 99 173
62 99 175
61 98 162
63 99 173
62 99 174
62 99 169
61 98 166
61 98 169
63 99 171
62 98 165
62 98 167
63 99 174
62 98 169
63 99 172
62 98 165
62 99 172
62 99 173
61 97 157
62 99 169
62 99 172
62 98 169
61 97 166
62 99 172
62 99 167
63 99 173
62 98 165
62 99 172
62 99 169
62 98 167
63 99 170
61 97 169
62 98 166
63 99 167
63 99 172
62 98 165
62 99 172
62 99 170
63 99 171
62 99 168
62 99 171
62 99 169
62 99 174
61 98 168
60 97 164
62 98 170
62 98 169
62 98 166
62 98 166
63 99 168
62 98 164
61 97 163
63 99 169
61 98 166
62 98 165
62 98 164
63 99 172
61 98 162
61 98 159
62 98 169
62 99 170
62 99 166
62 98 164
62 98 167
62 98 165
62 98 162
61 98 162
62 98 166
63 99 170
62 98 163
62 98 165
62 99 168
62 98 160
62 99 164
62 98 161
63 99 167
62 98 165
62 98 161
62 98 161
62 98 162
62 98 161
62 98 160
61 97 160
61 97 157
62 99 170
62 97 160
62 98 157
62 98 167
63 99 168
63 98 164
61 97 157
61 97 162
62 98 165
62 98 162
63 99 163
62 98 159
61 97 157
61 96 155
60 96 153
60 94 150
61 97 153
61 96 153
61 95 153
61 96 147
61 96 150
60 95 147
60 94 148
59 93 146
60 94 145
59 93 147
59 93 144
56 84 121
68 73 44
65 67 21
58 60 23
61 63 20
68 70 21
72 73 30
76 79 28
76 77 27
84 85 35
93 93 46
87 88 26
73 76 32
87 88 34
91 91 32
101 101 42
81 84 40
99 99 35
96 97 38
110 109 40
106 106 33
113 112 48
112 109 49
107 106 54
115 114 44
111 111 44
111 110 44
115 113 49
129 126 57
116 115 49
120 118 55
129 125 59
130 127 58
124 121 56
129 127 54
138 134 64
128 125 51
142 136 59
138 135 63
132 129 55
135 132 62
139 136 59
147 142 60
135 132 62
146 141 63
141 138 60
141 137 58
144 141 64
142 137 55
145 140 54
153 148 57
146 141 67
154 149 73
155 150 65
155 150 61
155 149 64
150 145 65
152 147 64
157 152 66
154 148 62
155 149 70
151 147 65
148 143 54
150 146 58
154 149 61
158 151 64
157 152 69
153 147 66
158 152 64
149 143 64
153 147 58
159 152 70
158 151 63
154 148 64
151 146 61
152 145 67
153 147 62
153 148 57
147 142 56
156 150 62
155 148 64
155 149 63
155 149 60
150 144 58
144 138 60
149 143 62
150 145 56
148 142 58
150 144 57
140 135 54
149 143 57
149 144 58
155 150 64
151 144 57
151 145 63
141 136 48
148 143 59
147 140 57
149 144 58
145 140 54
146 140 58
145 139 58
148 143 52
142 135 58
142 136 56
134 128 52
143 136 49
140 135 53
139 133 48
141 136 56
126 122 48
131 125 52
140 135 54
145 145 48
129 129 42
138 141 37
144 148 36
148 156 37
145 154 22
153 164 22
156 166 30
161 176 16
162 178 19
155 171 11
169 187 16
164 183 0
169 186 0
171 188 0
164 182 0
170 190 0
170 188 0
171 193 0
171 192 0
168 187 0
171 192 0
170 190 0
168 188 0
172 196 0
171 194 0
168 193 0
169 192 0
170 194 0
174 196 0
170 194 0
170 193 0
169 193 0
173 197 0
170 193 0
170 193 0
175 197 0
172 195 0
167 190 0
171 194 0
169 192 0
173 197 0
172 196 0
166 190 0
167 191 0
174 197 0
170 193 0
169 192 0
172 195 0
172 195 0
170 193 0
169 192 0
171 195 0
169 192 25
170 194 0
170 194 25
172 195 25
168 192 36
170 194 0
169 193 25
169 192 0
171 194 0
168 192 0
173 196 36
172 196 36
170 193 0
166 189 0
167 191 0
168 191 0
168 192 0
174 196 25
166 189 0
171 193 0
171 194 0
170 194 25
169 192 0
171 194 0
170 194 0
171 194 0
169 193 0
168 192 0
167 190 0
168 191 0
168 191 0
169 191 0
171 193 0
165 189 0
170 193 0
166 189 0
167 191 0
165 188 0
172 195 0
168 191 0
170 194 0
165 188 0
163 186 0
168 192 0
165 189 0
169 193 0
166 189 0
167 191 0
167 190 0
167 190 0
161 184 0
171 195 0
168 192 0
163 187 0
164 188 0
127 152 100
65 99 149
61 97 153
64 99 158
61 97 156
61 97 153
62 98 160
62 98 159
62 98 161
63 99 162
61 97 157
61 97 153
61 97 160
62 98 164
62 98 163
62 98 166
61 97 164
62 98 165
62 98 158
62 98 160
62 98 170
62 98 160
62 98 164
63 99 169
62 98 162
62 99 166
62 98 165
61 98 163
62 99 169
61 97 161
62 98 168
62 98 171
62 98 162
62 99 169
62 99 171
62 99 173
63 99 171
62 98 166
62 98 168
62 99 170
62 98 166
61 98 165
62 99 167
62 98 167
63 99 171
62 98 166
62 98 169
62 99 174
63 99 174
62 98 170
62 98 166
62 99 170
62 98 167
62 99 170
61 97 163
61 97 161
63 100 176
62 99 171
62 99 171
62 99 171
62 98 168
63 99 175
62 98 170
62 99 171
63 99 172
63 100 173
62 99 169
63 100 177
62 98 169
62 99 175
61 98 167
62 98 170
62 99 173
63 99 172
62 99 174
61 98 165
62 98 170
62 98 166
62 99 167
62 98 166
62 98 171
62 99 169
62 99 167
61 98 168
63 99 171
62 98 167
62 98 167
62 98 170
63 99 171
62 99 170
62 98 169
62 99 171
62 99 169
62 98 167
62 99 168
62 99 172
63 99 167
63 99 172
62 99 168
61 98 165
61 98 163
62 99 169
62 99 170
63 99 171
61 97 162
63 100 173
61 98 167
62 98 167
62 99 172
63 99 169
63 99 165
62 99 172
62 98 168
60 96 156
62 99 167
63 99 170
61 97 166
62 99 172
62 99 168
62 98 164
62 98 163
61 98 166
62 99 167
62 98 167
62 99 167
62 99 172
63 99 173
62 99 166
62 99 168
61 97 157
62 98 159
62 99 170
63 99 167
62 98 166
61 98 158
62 98 168
62 99 166
62 98 160
62 99 170
61 97 157
62 98 166
62 99 168
62 98 169
62 98 162
63 99 170
62 98 164
62 98 161
61 98 159
63 99 166
62 98 162
62 98 163
62 97 156
61 98 161
62 98 164
62 97 158
62 99 168
63 99 167
61 97 153
61 97 153
60 96 153
60 96 163
61 96 153
61 97 159
62 98 154
61 96 161
60 95 153
61 96 158
62 97 156
61 97 150
60 95 149
61 96 148
61 95 147
61 96 156
61 97 152
60 95 153
60 94 137
58 92 138
61 95 150
59 93 143
62 89 127
75 82 54
71 72 17
67 69 18
71 74 22
76 76 27
71 73 29
85 85 24
77 77 22
79 80 29
73 75 22
86 88 32
86 88 29
82 83 34
94 93 35
92 92 32
98 97 32
95 95 37
110 107 55
98 99 43
108 108 38
112 112 41
110 110 53
115 114 44
115 114 50
118 116 43
127 124 54
118 117 46
132 128 62
120 118 47
121 119 57
114 113 50
126 123 57
120 118 54
132 130 54
128 125 59
127 125 46
127 124 56
146 140 59
142 138 57
144 140 65
142 138 58
133 130 55
143 139 55
146 141 60
144 138 57
140 135 59
151 146 57
150 144 65
148 143 51
152 146 67
153 148 71
145 141 56
147 142 61
148 144 56
150 145 64
150 145 60
156 150 67
156 149 64
153 147 68
155 150 56
155 150 61
157 151 75
152 147 59
148 142 62
148 143 61
147 143 63
157 151 59
149 145 64
148 143 60
158 153 63
154 148 61
148 142 63
154 147 60
157 151 72
154 148 61
153 146 69
158 152 61
156 150 63
153 147 60
154 148 65
156 150 66
155 148 71
157 151 67
151 146 66
153 147 62
152 147 56
149 143 52
150 144 53
152 146 63
151 145 59
148 142 58
153 147 63
140 135 53
153 147 65
156 149 68
149 143 53
143 137 58
141 135 49
146 141 51
145 139 58
140 135 53
136 131 45
145 139 56
135 130 54
135 129 48
128 122 39
136 131 49
128 123 37
126 120 42
133 129 45
134 132 41
127 123 45
141 142 48
149 149 48
144 145 47
144 151 37
151 157 34
140 149 25
155 168 25
146 159 19
164 182 0
165 183 0
166 184 11
165 184 11
170 188 0
166 186 0
169 187 0
170 188 0
166 186 0
168 187 0
169 188 0
169 188 0
171 192 0
171 190 0
170 189 0
170 191 0
172 195 0
170 193 0
173 195 0
172 196 0
169 192 0
171 194 0
170 193 0
169 193 0
169 192 0
169 192 0
172 195 0
173 197 0
167 192 0
174 197 0
169 193 0
173 196 0
171 194 0
170 193 0
170 193 0
170 193 0
172 196 0
171 193 0
172 196 0
171 193 25
170 194 25
171 193 25
172 195 0
169 192 36
171 194 25
171 194 36
174 197 36
170 193 25
171 193 25
172 195 44
172 195 44
173 196 36
169 192 25
165 189 25
172 196 0
170 193 25
171 194 44
166 189 0
171 193 44
174 198 51
169 191 51
172 195 57
170 194 25
174 197 51
173 196 36
171 194 25
171 195 36
168 191 25
167 192 0
168 190 36
172 195 36
170 193 36
166 190 0
166 189 0
169 192 0
166 188 0
171 195 0
169 193 0
167 190 0
166 189 0
165 188 0
170 193 0
163 187 0
167 191 0
168 193 0
168 192 0
167 190 0
167 190 0
168 192 0
169 192 0
166 190 0
165 188 0
167 191 0
169 191 0
164 188 0
169 192 0
167 190 0
169 192 0
168 191 0
167 191 0
124 150 105
69 103 151
67 100 144
66 100 154
63 98 156
63 98 153
62 98 156
61 97 157
61 97 155
61 97 157
62 98 163
62 98 164
62 98 162
62 98 161
61 97 161
62 99 168
61 97 158
62 98 158
62 99 169
62 98 167
61 97 159
62 98 162
62 98 159
62 98 162
62 98 160
62 98 168
62 98 163
62 98 163
62 98 167
62 98 168
62 99 172
61 98 165
62 99 167
62 99 166
62 98 167
62 98 167
62 98 167
62 98 164
62 99 167
62 98 170
61 98 164
61 97 162
62 98 170
62 99 175
62 98 167
61 98 166
62 98 171
62 98 172
62 99 170
62 99 175
62 99 173
62 99 172
62 99 170
62 98 165
62 99 171
62 99 174
62 99 169
63 100 177
63 99 166
62 99 172
62 99 167
63 99 168
62 98 166
62 99 171
62 98 165
62 99 170
62 98 166
61 98 170
62 99 170
61 97 162
62 99 174
63 99 175
62 98 171
62 99 168
62 99 172
62 98 171
61 98 166
62 98 163
62 99 169
62 99 170
62 98 168
61 98 169
62 99 172
61 98 165
62 98 168
63 99 168
62 99 168
62 98 168
62 99 171
62 98 168
62 98 165
62 98 171
62 99 168
63 99 173
62 99 171
62 98 165
62 99 169
63 99 170
62 99 168
63 99 171
62 99 170
62 98 168
62 99 169
62 98 164
62 98 169
62 99 167
63 100 172
61 98 168
61 97 164
62 98 166
61 98 167
62 98 166
62 98 164
63 99 168
62 98 168
61 98 163
62 98 165
62 98 168
63 99 166
62 98 168
63 99 166
62 99 164
63 99 169
61 97 165
62 99 169
62 99 168
62 99 169
62 98 167
63 100 170
62 98 162
63 99 173
63 100 169
62 99 171
62 98 162
61 98 162
62 98 168
62 99 166
61 97 162
63 99 167
62 98 163
61 98 164
63 99 168
62 98 160
62 99 163
62 98 159
63 99 167
61 97 164
62 98 162
62 98 161
62 98 166
62 98 161
62 99 165
61 97 154
62 98 158
62 98 165
62 97 158
62 98 158
61 96 156
62 98 163
62 98 158
61 97 158
62 98 168
62 98 160
62 98 162
63 98 164
61 97 160
62 97 154
62 97 153
60 94 142
61 96 158
62 97 152
62 97 159
61 96 147
62 97 157
60 95 147
60 95 153
58 91 138
59 92 139
59 93 149
63 90 123
53 67 65
63 67 22
85 83 19
70 71 17
80 80 23
88 89 26
74 75 25
85 86 25
69 71 26
86 87 29
88 89 29
86 87 29
91 91 41
89 89 35
107 106 35
85 85 29
96 96 40
124 121 50
95 96 41
102 102 45
98 99 40
109 108 40
116 115 51
115 113 47
116 115 47
110 109 54
108 107 45
118 116 49
127 125 54
125 123 55
130 128 61
118 117 48
122 120 48
136 133 57
129 126 55
133 130 53
122 120 52
132 130 60
133 130 62
138 134 52
135 132 57
139 136 52
138 134 57
142 139 59
130 126 53
147 143 55
143 138 66
150 145 61
146 141 65
146 141 60
150 144 64
146 141 65
147 142 63
148 144 56
143 139 55
145 140 58
145 140 57
154 149 63
146 141 56
157 152 69
156 150 58
152 146 60
152 147 64
151 146 54
150 145 63
155 149 60
154 147 63
148 143 58
154 148 63
151 144 61
147 143 60
154 147 63
153 147 56
148 142 67
153 147 56
154 148 61
145 141 52
155 148 65
155 150 58
149 145 53
151 146 54
149 143 47
155 149 60
148 142 59
148 142 59
152 145 58
146 140 58
148 143 57
147 141 54
151 145 57
146 140 54
148 143 48
158 151 61
148 141 59
146 141 54
144 138 52
138 133 48
143 137 51
139 134 47
155 148 61
142 137 47
140 135 53
142 136 44
138 132 45
132 127 41
135 129 48
142 136 51
130 126 41
136 132 49
142 138 48
139 136 48
132 130 41
130 131 42
144 148 41
139 146 28
148 155 36
147 160 25
154 165 32
159 171 22
156 169 22
157 173 11
163 179 11
163 179 0
167 186 0
169 189 0
171 192 0
171 190 0
165 186 0
170 189 0
171 191 0
168 187 0
169 188 0
167 185 0
169 188 0
170 191 0
167 188 0
172 195 0
172 195 0
171 194 0
172 195 0
169 192 0
173 197 0
172 194 0
174 197 0
171 195 0
171 195 0
169 193 0
172 195 0
167 190 0
168 193 0
168 191 0
170 194 0
172 195 36
172 195 0
168 191 25
173 196 36
169 192 44
173 196 51
172 195 25
174 197 44
172 195 25
174 197 51
170 194 25
172 195 51
168 192 25
171 195 44
174 197 36
167 191 36
171 194 51
176 198 76
171 194 67
172 195 51
172 195 57
172 195 51
170 192 44
168 192 36
173 196 57
171 194 44
175 198 62
175 197 57
169 192 25
174 196 62
170 193 51
175 196 57
173 195 51
171 194 57
168 192 36
167 190 0
167 190 51
172 196 25
168 191 0
170 194 25
171 194 25
170 193 36
168 192 25
170 193 44
171 194 25
169 192 25
168 192 0
166 190 0
166 189 0
167 190 0
167 191 0
167 189 0
171 195 0
168 191 0
170 193 0
166 189 0
171 194 0
163 186 0
166 190 0
164 187 0
164 187 0
167 190 0
171 193 0
168 192 0
165 188 0
166 189 0
163 186 0
165 188 0
111 138 117
76 108 137
69 102 144
75 107 149
68 102 157
63 98 153
65 100 154
60 96 151
64 99 152
61 98 162
61 97 158
62 98 167
62 98 158
61 97 155
62 98 158
62 97 155
61 97 161
62 98 161
62 98 166
62 98 162
62 98 161
62 98 167
62 98 167
62 98 167
61 98 160
61 97 161
62 99 166
63 99 165
62 98 163
62 98 167
63 99 171
62 99 166
62 99 170
62 98 166
62 98 164
63 99 170
62 98 167
62 98 168
62 99 169
62 98 170
62 98 169
62 98 168
62 99 169
63 99 172
62 99 170
62 99 170
62 98 167
62 98 170
61 98 169
62 98 167
61 98 164
63 100 175
61 98 167
63 99 174
62 98 165
62 98 169
62 98 173
62 99 171
61 98 165
62 99 175
63 99 172
62 98 165
63 99 174
62 98 169
63 99 175
63 99 174
62 98 167
62 98 166
62 99 168
62 98 169
62 99 171
62 99 174
62 99 173
62 98 165
63 99 168
63 99 170
62 98 167
62 99 173
62 99 172
62 99 170
63 99 175
63 99 172
62 98 162
62 98 169
62 99 173
63 99 171
62 98 167
62 99 171
62 98 166
62 99 173
63 99 172
62 99 171
62 99 166
63 99 172
62 99 165
62 99 171
62 99 172
62 98 165
62 99 168
62 99 173
62 99 172
62 98 162
62 98 166
62 99 167
63 99 172
62 99 172
62 99 169
62 99 171
62 98 166
62 98 165
61 98 170
62 98 163
62 98 163
62 99 168
62 99 168
62 98 166
62 99 170
62 98 165
62 98 164
62 99 164
61 97 156
63 99 168
62 99 171
62 99 166
61 98 163
62 98 165
62 98 169
62 98 167
62 99 170
62 98 164
62 98 163
63 99 165
62 98 165
62 99 168
62 98 163
61 98 159
62 98 163
62 98 163
63 99 168
61 97 159
63 99 170
62 98 163
62 98 164
61 97 164
62 98 163
62 98 166
61 97 160
62 99 166
62 98 160
62 98 165
61 98 163
62 98 162
61 97 155
62 98 163
61 98 167
62 98 165
62 98 166
63 98 165
62 98 160
63 99 163
62 98 160
62 98 159
62 97 161
61 98 161
61 96 155
61 96 160
60 96 153
61 97 159
61 96 149
61 96 155
61 96 154
61 96 155
61 96 155
59 93 142
61 96 154
61 95 149
60 93 140
59 92 132
58 91 136
57 87 126
71 80 70
65 66 13
71 72 17
79 79 23
75 76 11
80 79 26
91 90 22
73 75 20
88 90 21
87 86 34
85 85 22
85 87 28
92 91 32
93 94 35
91 92 31
94 95 36
91 91 38
96 97 41
97 97 41
115 112 46
107 106 42
113 111 45
110 110 35
120 118 48
113 112 41
110 109 42
124 121 44
118 116 40
124 122 48
120 118 52
121 118 48
119 117 46
128 126 58
125 122 50
128 125 50
133 129 49
129 126 53
129 126 59
134 130 58
127 123 42
140 136 61
139 135 56
136 132 55
141 137 56
143 139 57
142 137 59
149 144 58
143 139 57
144 141 51
142 139 56
153 148 66
148 143 63
149 143 64
150 145 58
143 138 63
149 143 64
145 140 53
151 146 56
149 144 59
149 143 58
146 141 56
153 147 59
150 144 61
147 141 59
152 146 63
157 150 68
145 140 56
153 148 62
152 146 65
150 145 63
153 148 57
141 136 56
151 145 58
145 139 51
152 146 65
156 149 65
153 147 62
154 149 65
150 145 56
160 153 64
152 146 63
154 147 64
156 149 62
151 145 64
150 144 63
151 146 61
147 141 52
151 146 52
150 143 57
151 146 61
149 143 63
144 139 57
156 150 56
148 142 63
153 148 51
138 133 44
141 136 51
128 123 45
140 134 49
137 131 49
144 140 48
130 125 44
144 138 51
137 131 48
138 134 52
137 132 51
132 127 39
144 139 54
135 131 45
127 124 36
130 129 37
141 143 39
134 136 36
142 147 22
149 155 39
157 167 30
147 154 28
155 167 22
154 167 22
157 172 22
155 172 0
166 182 11
165 183 0
165 183 0
163 183 0
170 191 0
168 188 0
166 185 0
168 187 0
168 188 0
164 183 0
167 186 0
168 190 0
165 184 0
168 188 0
163 182 0
173 196 0
171 194 0
171 194 0
171 195 0
174 197 0
173 197 0
173 196 0
171 194 0
171 195 0
168 192 0
173 196 0
167 191 0
173 196 0
171 194 36
171 194 44
171 195 0
170 194 25
172 195 44
169 193 25
173 196 57
172 195 44
173 195 44
171 193 62
172 195 44
177 199 67
173 197 36
173 195 76
172 194 57
173 196 57
174 196 57
176 199 67
173 196 67
178 200 92
177 200 72
174 197 67
171 194 44
177 199 72
175 197 62
174 196 72
174 196 67
177 199 84
174 197 67
179 201 92
174 196 80
173 195 76
173 194 80
177 199 62
169 191 72
171 193 62
173 196 57
172 194 62
175 197 76
173 195 67
174 196 62
170 193 67
173 196 44
172 195 44
172 194 51
171 194 44
170 194 36
167 190 44
174 197 44
171 194 25
167 190 25
172 195 25
168 192 25
168 192 0
168 191 0
167 190 0
165 188 0
167 191 0
168 192 0
168 192 0
164 187 0
166 191 0
167 190 0
167 190 0
168 190 0
164 188 0
162 185 0
168 191 0
166 189 0
166 189 0
163 186 31
106 134 125
73 106 150
70 103 145
79 109 142
83 113 140
73 105 153
68 102 156
62 97 151
64 100 159
62 98 165
62 97 151
62 98 162
62 98 161
61 97 156
62 98 164
61 97 156
62 98 165
62 98 162
61 97 160
61 97 159
62 99 168
62 98 168
60 96 156
62 98 161
62 98 162
63 99 169
62 98 166
62 98 168
61 98 161
62 98 169
62 99 167
62 98 169
62 98 166
62 98 168
62 99 168
62 99 168
62 98 169
62 99 170
62 98 165
63 99 173
62 98 168
62 98 169
62 98 170
62 99 170
62 99 170
62 99 167
62 98 166
62 98 163
61 97 165
62 99 169
62 98 167
62 99 170
63 99 172
63 99 173
62 99 169
63 99 170
63 99 170
62 98 167
61 98 169
62 98 165
61 98 170
61 97 164
62 98 167
61 97 164
62 99 171
61 98 161
62 99 170
62 99 168
62 99 171
62 98 169
62 99 165
61 98 163
62 98 168
62 99 171
61 98 164
62 99 172
62 99 168
61 98 166
62 99 174
62 98 169
62 99 166
61 98 164
62 98 170
62 99 168
62 99 168
62 99 169
61 98 169
63 99 174
62 98 165
62 99 169
61 98 167
63 99 172
62 98 167
62 98 167
63 99 172
63 99 174
61 98 163
62 99 167
63 99 166
62 99 172
62 99 171
62 99 169
61 97 161
62 98 169
63 99 170
62 98 169
62 99 175
62 98 168
63 100 175
61 98 169
61 97 162
62 98 165
62 99 169
62 99 170
62 98 169
62 98 165
62 99 169
62 98 158
62 98 167
61 98 168
62 98 164
61 97 159
63 99 168
62 98 161
62 98 156
62 99 168
62 99 168
62 98 166
62 98 162
61 98 165
62 99 164
61 98 160
63 99 163
62 99 166
62 98 163
62 98 167
62 98 161
62 98 161
62 98 164
62 99 165
62 99 167
61 98 164
62 98 162
61 97 163
62 98 162
62 98 159
62 98 164
62 98 161
62 98 161
61 97 160
61 97 155
62 98 162
62 98 158
61 96 160
61 97 156
63 99 162
61 97 159
62 99 172
63 98 162
62 98 166
62 98 161
62 98 160
62 98 164
62 98 158
61 97 160
61 97 161
61 96 155
61 97 152
62 97 161
61 97 158
61 96 152
61 96 149
61 96 157
60 95 150
60 95 154
60 94 148
60 94 142
60 94 145
58 91 134
63 93 137
66 77 77
80 81 33
71 72 18
70 73 20
79 80 25
84 85 21
85 86 21
85 85 32
73 75 19
73 75 26
90 91 29
89 90 32
90 90 27
97 96 34
91 90 31
96 96 27
90 91 29
99 98 39
113 111 52
107 105 43
101 100 37
99 100 29
98 98 39
110 109 37
107 105 45
105 105 39
112 110 38
113 112 42
116 113 51
127 125 51
119 119 45
126 123 49
126 123 50
128 125 51
121 119 46
135 131 54
130 126 50
132 128 52
132 128 53
133 128 54
136 132 56
135 131 51
138 133 56
148 143 58
146 141 58
136 131 54
143 139 54
135 131 55
150 145 53
146 142 71
148 143 66
133 130 51
139 135 50
147 142 56
149 144 60
156 149 66
142 138 49
142 137 58
150 144 69
147 142 57
155 148 67
148 142 60
153 146 60
151 145 52
151 147 51
161 155 63
148 143 58
153 147 59
145 140 52
150 145 53
147 142 56
153 147 63
152 147 61
153 146 61
145 140 45
149 144 56
146 141 54
149 143 54
153 147 58
147 142 54
157 150 60
153 147 56
149 144 49
146 142 39
152 146 59
151 146 54
138 133 49
148 141 57
143 137 48
144 139 52
142 137 44
143 137 56
146 140 58
151 145 58
146 140 51
147 141 51
145 140 47
146 141 52
136 130 52
137 132 45
141 136 47
136 130 41
124 121 41
143 138 47
138 133 47
139 133 51
133 129 39
133 129 34
141 138 47
133 131 45
129 131 36
144 147 36
137 141 37
140 143 34
145 153 22
147 156 25
153 166 22
150 162 16
163 178 19
163 177 30
158 175 11
162 177 0
170 188 0
167 186 0
170 188 0
163 183 0
170 191 0
166 185 0
167 186 0
168 186 0
167 186 0
168 187 0
171 191 0
169 188 0
167 187 0
167 187 0
168 192 0
168 192 0
169 192 0
168 192 0
174 197 0
171 195 0
172 195 0
168 193 0
169 193 0
174 197 36
172 195 25
171 194 25
171 195 25
170 194 51
172 195 44
170 193 57
177 200 72
176 199 57
173 196 62
176 198 62
170 193 51
175 198 72
175 197 67
177 199 76
173 196 36
175 197 57
179 200 92
181 202 108
172 195 67
176 198 62
176 197 88
178 200 84
175 197 62
177 199 72
175 197 57
178 200 111
179 200 95
175 198 76
180 202 92
176 199 80
172 195 44
181 203 95
176 198 84
173 195 67
174 196 80
178 201 88
177 199 88
177 199 72
177 199 80
173 196 80
175 197 67
174 197 72
180 201 99
175 197 80
169 191 57
176 198 72
172 196 67
173 196 51
173 196 67
176 198 57
167 190 0
171 194 25
171 193 25
173 195 62
170 193 51
167 190 0
169 192 25
170 192 36
167 190 25
167 190 0
169 192 0
170 193 0
166 189 0
167 191 0
164 187 0
165 189 0
168 191 0
168 191 0
165 188 0
166 190 0
167 190 0
164 186 0
164 187 31
163 186 44
110 136 117
73 105 148
74 107 149
80 112 151
71 104 150
74 107 148
73 106 153
69 102 152
70 104 156
69 102 147
64 99 154
62 98 164
62 98 159
62 98 161
61 97 159
62 97 157
61 97 160
61 96 151
62 98 164
61 97 157
61 97 163
61 97 155
62 98 161
62 98 160
62 98 163
62 98 164
61 98 165
62 98 165
62 98 163
62 98 166
62 98 166
61 98 163
62 98 165
62 99 171
62 99 168
62 98 166
62 99 168
61 97 155
62 99 170
62 98 172
61 98 169
62 98 168
61 98 166
63 99 167
62 98 167
61 98 165
63 100 175
62 98 168
62 98 171
61 96 160
62 99 172
61 98 167
62 98 167
62 98 168
62 99 168
62 99 170
62 99 174
62 99 167
62 98 172
62 99 173
63 99 169
62 98 161
62 99 166
62 98 168
62 98 166
62 98 166
62 98 168
62 99 169
62 98 167
62 99 168
61 98 168
61 98 164
62 98 171
62 98 163
63 99 171
62 99 170
63 99 173
62 98 165
62 99 171
62 98 168
62 98 169
61 98 162
61 98 161
61 98 169
62 99 172
61 98 164
63 99 169
62 99 171
62 99 170
62 99 174
62 99 167
62 98 167
62 99 170
62 98 166
62 98 169
62 98 164
61 98 164
62 98 170
62 99 174
63 99 169
61 98 165
62 98 170
62 98 161
61 98 164
63 99 169
63 99 173
63 99 171
62 98 163
62 99 171
61 98 167
61 98 162
62 98 168
63 100 171
62 98 165
61 98 161
62 99 168
63 99 167
62 98 168
63 99 164
61 98 166
62 99 167
62 98 165
61 98 164
62 99 170
62 98 164
62 98 166
62 98 162
63 99 170
62 99 171
62 98 163
62 99 167
62 99 167
62 98 164
62 98 164
62 98 159
62 98 157
63 99 168
62 99 168
61 97 160
62 98 163
62 98 164
62 98 156
63 99 172
61 97 155
62 98 167
63 99 167
62 98 158
62 98 163
62 98 163
62 98 159
62 98 154
61 97 156
62 98 162
61 97 163
61 97 159
63 99 162
62 98 159
62 98 158
61 97 159
62 98 160
61 97 155
62 98 163
62 98 154
61 97 155
61 96 158
61 97 152
61 96 153
60 95 151
61 96 150
60 96 159
61 96 151
62 97 157
61 96 150
59 92 138
59 93 151
61 96 153
59 92 139
59 93 136
59 93 128
57 87 131
73 83 87
70 69 17
79 79 18
76 76 18
82 82 25
67 70 19
80 79 14
84 85 22
91 90 28
81 81 27
76 78 20
81 82 27
88 89 30
90 92 23
103 104 30
102 100 31
104 104 33
109 108 36
102 102 38
108 107 43
106 107 38
110 108 45
109 108 44
118 116 48
113 110 41
113 112 41
115 112 46
113 112 39
113 111 46
117 115 50
133 129 58
122 118 46
123 121 44
127 125 45
130 127 51
130 126 46
128 125 51
137 133 58
132 127 53
135 131 51
133 129 56
144 139 59
139 135 58
129 124 51
139 134 53
144 140 62
142 139 54
141 137 51
143 138 52
145 140 59
136 132 51
144 140 60
146 141 56
147 142 58
148 144 56
147 143 56
151 144 61
148 143 54
149 143 62
153 147 48
156 150 62
151 145 61
143 138 58
153 147 58
149 143 58
148 142 60
150 143 64
151 145 57
154 148 61
152 146 63
157 151 60
146 141 54
150 144 60
151 146 57
155 150 63
148 144 49
155 150 56
154 147 61
151 146 51
150 144 58
152 147 57
145 139 57
153 148 53
149 144 53
140 135 42
147 141 54
148 143 59
145 140 51
149 142 57
144 139 52
131 126 47
144 138 54
143 137 56
154 147 61
146 141 45
144 138 51
145 139 54
142 138 51
137 133 42
145 141 51
139 134 45
132 126 53
133 126 37
134 129 47
141 135 48
133 128 47
128 122 48
144 140 49
137 134 37
142 141 45
142 144 39
141 145 22
138 144 22
148 152 37
143 150 28
149 158 22
145 155 19
156 167 19
152 167 16
161 176 22
163 179 16
166 184 0
166 184 0
166 185 0
171 193 0
168 188 0
164 181 0
170 190 0
170 189 0
167 187 0
168 190 0
171 190 0
169 188 0
169 188 0
168 188 0
171 190 0
173 196 0
170 194 0
171 194 0
169 192 0
172 194 0
172 194 25
168 190 25
174 197 25
174 197 44
174 197 51
172 196 51
175 198 44
173 195 57
171 194 51
175 198 44
172 196 57
174 197 62
175 198 76
176 197 99
174 195 80
176 199 51
176 199 72
174 197 67
173 196 67
177 200 80
181 203 95
172 195 62
179 201 88
178 200 80
180 201 111
175 197 76
181 202 102
178 199 95
178 200 80
179 200 102
176 199 92
180 202 102
178 199 95
175 198 67
180 202 105
177 199 84
179 201 95
181 202 102
178 200 84
178 199 108
172 194 95
176 198 99
175 198 80
177 198 102
179 200 84
168 190 51
177 198 102
177 199 80
179 200 102
175 197 84
177 199 84
177 199 72
173 195 76
179 201 99
174 195 88
181 202 102
172 194 62
174 196 67
171 194 62
173 196 67
171 195 0
176 199 57
166 189 36
169 192 25
168 191 44
170 193 36
163 186 25
168 192 0
166 189 0
167 190 0
169 191 0
167 190 0
165 188 0
164 187 0
166 189 0
166 188 0
161 185 51
160 184 40
155 179 54
109 136 118
77 108 142
72 104 144
77 109 143
74 106 147
71 105 156
69 104 159
72 105 155
69 102 150
65 100 161
66 101 156
63 98 155
66 101 162
63 99 157
62 98 162
61 97 155
62 98 161
62 98 163
61 97 156
62 98 166
61 97 158
61 97 160
61 98 166
62 98 166
62 98 166
62 98 164
61 98 159
62 98 166
62 98 166
62 99 166
62 98 164
61 98 161
62 98 165
62 99 172
61 97 158
62 98 168
62 98 164
62 99 168
62 98 165
62 98 164
62 98 166
62 99 168
63 99 170
62 98 167
62 99 168
62 99 170
63 99 167
61 98 163
62 98 170
62 98 165
63 99 170
62 99 169
61 98 165
61 98 167
62 99 170
61 98 167
61 98 169
62 98 166
62 99 172
62 98 166
63 99 165
61 98 164
63 99 171
62 98 167
62 98 169
62 98 165
63 99 166
62 99 173
62 99 169
63 99 169
62 99 174
63 99 167
63 99 170
63 99 170
62 98 163
62 98 166
62 98 167
62 98 165
63 99 170
61 98 164
62 99 169
61 98 166
62 99 170
62 99 172
62 98 168
61 97 156
62 99 166
62 99 174
62 98 161
62 98 168
62 98 169
61 98 170
62 99 169
62 98 165
61 98 161
62 98 163
62 98 166
62 98 161
62 99 171
62 99 169
62 99 165
62 98 166
61 98 163
62 99 171
63 99 171
62 99 166
62 98 166
62 99 170
63 99 173
62 98 166
62 99 174
63 99 170
62 99 169
62 98 168
62 98 163
61 98 165
62 98 165
62 99 167
61 98 167
62 98 165
62 99 166
62 98 161
62 98 160
62 98 167
63 99 168
62 98 166
62 98 166
63 99 169
62 98 161
62 99 167
62 98 165
62 98 162
61 98 161
63 99 166
63 99 164
62 97 157
63 99 168
62 98 163
62 98 160
61 97 158
62 99 164
62 98 162
62 98 163
62 98 158
62 98 158
62 97 158
61 97 152
62 98 163
62 98 163
61 97 160
61 97 155
61 97 154
62 98 162
61 97 158
61 97 158
62 98 162
61 97 155
62 97 154
63 99 165
61 97 158
62 97 158
61 97 156
61 96 152
62 97 153
63 99 166
62 97 157
61 96 148
62 97 161
61 96 155
61 97 154
61 97 148
60 96 148
60 95 146
60 95 142
60 94 145
61 95 149
59 92 137
59 92 138
59 93 146
66 95 136
63 79 89
72 73 38
79 80 20
80 79 21
72 72 20
75 75 22
68 71 23
78 79 18
90 90 23
81 83 19
87 88 21
99 98 30
95 94 30
88 88 29
100 100 31
101 100 33
89 89 31
95 96 32
110 108 39
100 98 32
107 106 42
110 108 35
103 102 32
114 112 43
118 116 48
108 109 45
126 122 44
110 109 38
119 116 37
132 128 47
129 126 49
119 117 36
130 128 56
129 124 57
121 119 50
125 123 47
126 122 46
119 116 43
122 119 53
133 129 47
139 135 57
140 135 61
133 129 47
134 130 49
145 139 52
137 132 51
140 136 53
144 140 55
135 132 50
141 136 52
142 137 46
147 142 58
154 148 59
154 149 64
140 135 51
145 140 51
151 146 62
148 142 63
144 140 54
149 143 57
149 144 57
151 146 57
146 142 57
138 134 45
148 142 54
155 149 63
148 142 57
153 147 56
153 147 48
145 140 54
148 143 56
146 140 52
151 145 52
155 148 63
145 140 50
147 142 49
155 149 59
149 143 59
143 139 51
150 145 51
152 146 52
144 138 56
144 139 51
153 146 57
148 142 48
148 142 53
152 147 56
152 146 59
146 141 52
152 147 59
139 135 52
145 139 52
137 132 45
144 138 51
134 130 44
136 131 47
136 130 48
141 134 53
126 122 42
140 135 48
139 133 48
134 128 51
128 123 44
133 128 32
133 128 41
132 127 47
138 135 47
130 130 30
127 128 28
132 134 28
127 127 32
142 146 22
144 150 34
154 162 32
154 166 22
155 165 28
157 170 22
162 177 16
155 171 11
162 181 0
168 188 11
163 181 0
168 185 0
169 187 0
165 182 0
163 182 0
169 189 0
168 187 0
165 184 0
169 189 0
168 188 0
166 187 0
169 188 0
169 189 0
172 194 0
168 189 0
173 195 0
170 193 0
174 196 0
170 193 25
173 197 25
168 192 36
173 196 62
175 196 67
173 195 51
173 196 44
172 195 57
173 195 62
175 197 67
178 200 72
177 199 67
178 200 76
174 197 62
181 203 95
174 198 36
181 202 99
179 201 88
182 203 102
180 202 95
176 197 92
179 201 95
182 203 105
181 202 108
178 199 95
177 199 95
172 195 76
178 199 102
181 202 122
184 204 128
181 202 111
178 199 102
182 204 105
179 200 117
179 201 84
182 203 125
180 201 108
180 202 111
181 202 105
178 199 95
175 197 84
179 201 102
179 200 105
180 201 114
179 201 111
181 203 114
180 201 105
181 201 105
175 197 80
179 201 99
178 199 99
183 204 108
182 203 120
177 199 95
173 195 88
178 200 99
175 197 88
175 197 72
174 196 67
177 200 80
171 193 62
175 197 76
173 195 67
172 194 44
171 194 62
171 194 57
169 192 44
173 196 62
169 192 44
167 190 0
168 191 36
170 193 36
167 190 25
169 192 25
164 188 0
167 190 0
164 188 0
157 181 54
158 181 44
153 177 57
159 182 62
91 119 130
80 111 136
81 111 141
81 111 143
74 106 142
77 109 151
72 104 145
69 103 153
71 104 152
66 100 144
68 102 154
68 102 159
63 98 154
68 102 154
62 98 168
62 97 159
65 100 162
61 97 154
61 97 157
62 98 160
60 96 155
62 98 164
62 98 166
62 98 165
62 98 167
62 99 172
62 98 165
62 98 160
62 99 166
61 98 161
62 98 167
62 98 171
63 99 168
62 99 168
61 98 162
62 98 165
62 97 163
62 98 167
62 98 165
62 98 167
61 97 158
62 99 170
62 98 165
62 98 170
62 98 165
61 98 162
62 98 165
62 99 170
62 98 161
62 98 168
62 98 162
61 98 160
62 98 169
62 99 171
62 98 168
61 97 170
61 98 167
61 98 166
62 99 168
62 98 168
62 99 173
62 98 168
62 99 167
62 99 173
62 99 171
62 98 167
62 98 161
62 98 165
62 98 165
62 98 167
62 98 163
61 98 162
62 99 169
62 99 170
62 98 166
63 99 163
63 99 168
62 98 167
61 97 163
62 98 170
62 99 169
63 99 167
62 98 165
62 99 171
62 99 166
62 98 165
61 97 167
62 98 159
62 98 164
62 98 167
63 99 170
63 99 166
62 99 171
62 98 165
62 98 164
62 99 172
62 98 171
61 98 166
62 99 169
63 100 178
62 98 163
62 99 168
62 98 168
61 97 163
63 99 168
63 99 173
63 99 170
61 98 164
62 98 159
62 98 168
62 99 170
63 99 171
61 97 157
63 99 171
62 98 170
62 98 163
62 98 166
62 98 164
61 97 155
62 99 167
63 99 167
61 98 164
62 99 168
62 98 166
63 99 167
62 98 160
62 98 165
63 99 166
61 98 168
62 98 162
62 98 164
62 98 161
62 98 163
62 99 163
61 97 156
62 98 163
61 97 166
62 99 165
62 98 165
64 100 167
62 98 163
63 99 168
62 98 159
62 98 160
61 98 159
62 98 165
61 97 156
62 98 163
61 97 160
61 97 159
61 97 158
62 98 158
62 97 159
62 98 160
63 99 162
63 99 169
62 97 158
61 96 151
62 98 160
62 98 159
61 96 154
60 95 151
62 97 158
63 99 164
62 98 155
61 97 155
62 98 158
61 96 155
62 97 160
62 97 154
61 95 148
60 95 144
61 96 162
61 96 148
60 95 149
60 95 145
60 95 147
61 94 145
60 94 149
62 93 140
78 86 77
75 78 24
77 76 22
76 75 14
82 81 17
90 91 17
79 79 21
90 91 21
86 88 28
75 75 17
83 84 21
99 99 26
83 83 25
97 97 32
94 94 26
94 94 39
91 91 29
97 98 38
94 94 30
115 113 34
103 104 37
102 101 36
111 109 40
112 110 37
119 116 47
111 109 33
113 112 34
112 110 36
114 112 45
136 132 51
122 120 42
127 124 48
133 130 51
119 115 41
140 136 56
136 132 49
123 121 44
137 133 51
129 126 43
134 130 49
140 135 52
139 135 57
141 136 54
133 131 47
142 137 52
136 134 44
130 127 45
146 142 52
140 136 50
136 132 56
137 133 46
145 139 56
148 143 49
144 138 54
144 138 58
138 133 47
146 141 54
145 140 54
144 139 58
147 142 56
148 142 57
146 141 51
147 141 56
145 139 53
142 138 42
154 148 61
149 142 54
149 143 52
150 145 54
144 139 42
143 137 53
150 144 52
150 144 53
144 139 57
142 137 54
151 145 54
153 147 53
146 140 57
144 138 51
145 139 57
150 143 53
151 144 54
148 142 51
143 139 52
143 138 54
142 137 44
141 137 42
136 132 48
136 132 41
149 143 61
146 140 51
135 128 39
137 131 45
138 131 56
145 139 45
141 135 36
133 128 48
137 132 56
134 129 41
129 125 37
137 130 51
134 128 44
133 129 37
123 117 42
136 131 45
120 116 34
133 131 30
138 137 34
135 137 28
143 144 36
140 146 28
147 157 28
141 149 22
145 155 25
156 170 19
158 170 19
157 170 19
161 177 11
159 176 0
166 185 11
165 181 0
169 189 0
167 185 0
166 186 0
166 184 0
169 189 0
167 187 0
170 190 0
165 184 0
166 185 0
164 180 0
167 187 0
168 187 0
167 187 0
170 191 0
167 187 0
173 196 36
169 192 25
173 196 25
173 197 36
175 198 57
172 195 57
173 196 25
170 193 57
174 197 57
171 194 44
176 200 72
179 201 84
177 200 88
173 197 57
175 198 76
181 202 95
177 199 92
179 201 88
176 198 92
175 198 62
176 198 67
179 200 95
178 200 99
182 204 114
173 194 92
179 201 108
185 206 120
183 205 122
182 203 108
181 203 99
183 204 128
182 202 117
180 201 120
183 204 114
185 206 117
179 200 114
186 206 122
185 206 125
178 200 114
184 204 122
183 204 117
180 201 130
180 201 122
177 198 105
185 205 135
182 203 114
180 201 117
182 202 117
180 201 122
176 198 99
180 202 111
178 199 122
182 203 120
174 196 99
184 204 120
182 203 117
177 200 80
176 197 99
178 200 102
179 200 99
181 202 120
178 199 114
174 197 88
178 200 92
173 195 62
177 199 88
172 195 67
174 196 76
177 199 80
175 198 72
172 194 51
169 192 67
173 196 57
169 190 57
166 189 25
168 191 36
165 188 36
169 192 0
168 192 18
160 183 44
157 180 54
154 178 62
154 178 57
153 177 60
106 132 122
86 116 141
74 106 141
80 110 129
78 109 137
73 106 156
74 106 149
70 103 149
73 106 153
69 102 147
70 104 158
66 100 157
69 103 150
64 99 158
65 100 163
60 96 144
64 99 155
64 99 153
60 96 154
62 98 160
61 98 162
60 97 158
62 98 162
62 98 163
62 98 158
61 98 162
62 98 167
62 98 170
62 98 166
61 98 167
61 98 164
62 98 163
61 97 160
62 98 166
62 98 166
62 99 169
62 98 166
62 99 168
61 98 161
61 98 165
62 98 163
62 99 171
62 98 170
62 99 167
62 98 168
62 98 167
62 99 169
61 97 157
62 98 169
62 99 174
62 98 167
62 98 168
61 98 170
62 98 166
62 99 174
63 99 168
62 98 168
63 99 166
61 98 164
62 99 173
62 98 168
61 98 169
61 98 168
62 98 166
62 98 168
62 99 171
62 98 165
61 98 170
62 99 173
62 99 169
62 99 168
62 99 171
62 99 170
62 98 165
62 98 164
62 99 174
62 99 170
62 98 165
62 98 167
62 99 169
61 98 169
62 99 175
62 99 171
62 99 168
62 98 169
62 98 167
62 99 165
62 98 165
61 97 166
61 98 165
63 99 169
62 98 164
62 98 168
62 98 167
62 98 162
62 98 162
62 98 162
62 98 164
62 98 168
62 98 165
62 99 164
63 99 172
62 99 165
62 99 168
63 99 169
61 97 159
63 99 168
61 97 160
61 98 162
62 98 167
62 99 170
62 98 163
62 99 169
62 99 166
63 99 166
62 98 164
62 99 166
63 99 171
62 99 165
62 99 170
62 99 167
62 98 161
62 99 165
62 98 167
62 98 163
62 98 167
62 98 166
63 99 172
63 99 170
61 97 161
62 98 162
62 98 161
61 97 154
62 99 168
63 99 171
63 99 168
62 98 163
62 98 165
62 98 160
62 98 164
62 98 164
62 98 163
61 98 164
63 99 167
63 98 160
62 98 160
62 98 161
61 97 157
62 98 161
63 99 170
62 97 154
63 99 166
61 97 159
62 98 159
63 99 158
63 99 166
61 97 148
60 96 152
62 97 154
62 98 159
61 96 147
62 97 158
61 96 151
62 97 158
61 97 156
61 96 151
61 97 153
59 93 140
62 98 157
62 97 154
61 97 155
62 97 151
60 95 145
60 95 152
61 97 155
60 94 144
60 95 149
60 94 143
59 93 147
57 88 136
70 82 78
80 82 12
87 86 12
75 74 22
83 82 11
84 81 23
76 77 19
84 85 20
86 85 26
71 71 21
86 87 20
91 91 19
90 91 16
91 92 25
90 91 25
89 90 29
104 103 22
97 96 35
112 110 28
114 112 37
97 98 34
101 102 33
117 114 37
107 106 37
103 103 30
109 108 29
108 107 37
120 117 43
101 101 39
114 113 28
127 123 38
109 107 29
125 122 48
127 125 44
134 129 42
128 125 43
128 125 50
129 126 54
130 127 44
125 122 36
136 132 52
124 122 33
141 138 45
136 132 39
133 130 49
135 132 51
139 134 53
135 132 45
135 129 56
145 140 55
141 136 50
138 134 47
144 139 50
145 141 49
139 135 46
144 140 53
146 141 53
147 143 63
153 148 54
151 146 52
142 137 48
149 143 52
143 138 51
147 141 45
151 146 58
147 142 52
151 145 64
148 144 58
152 146 53
136 131 44
147 142 51
143 137 51
144 139 52
142 138 54
151 145 52
144 138 52
150 145 54
146 140 51
148 141 45
144 139 48
141 137 53
135 131 52
145 140 42
145 138 53
149 143 54
146 141 52
135 131 47
141 136 48
130 126 47
135 129 47
149 144 53
138 133 39
146 141 54
138 133 51
134 129 41
143 137 45
134 130 41
139 134 44
137 131 41
133 128 42
138 132 53
124 120 32
129 124 41
126 121 41
138 133 49
130 127 39
130 128 32
136 138 25
138 140 39
138 143 25
139 145 25
143 154 11
149 157 32
145 155 25
154 166 22
159 173 16
155 169 0
163 179 11
169 187 0
168 187 0
167 188 0
163 180 0
166 184 0
167 185 0
169 187 0
170 187 0
167 186 0
165 180 0
169 187 0
171 190 0
166 184 0
167 185 0
163 182 0
168 188 0
169 188 0
168 188 0
172 195 25
173 196 57
174 196 62
174 196 67
175 198 57
175 197 80
175 198 62
176 198 67
176 199 80
177 199 72
178 200 84
177 198 99
180 202 92
176 198 88
175 197 80
176 199 80
179 201 108
177 199 92
179 201 92
182 202 105
179 200 108
185 205 125
182 203 114
180 201 125
182 203 108
188 208 137
181 202 122
183 204 128
187 208 133
177 198 105
184 205 133
186 207 122
185 206 122
186 207 135
182 203 120
183 203 120
185 206 125
180 201 125
186 207 130
185 205 140
184 204 135
187 207 144
191 210 151
188 208 144
188 208 144
179 200 117
188 208 130
182 204 117
184 205 125
185 205 117
181 202 117
182 202 108
183 204 120
179 200 99
182 202 111
181 203 99
179 200 105
183 203 122
181 203 111
185 205 130
177 198 99
178 199 105
182 202 125
176 198 88
184 205 108
178 200 99
175 197 92
175 197 76
177 199 84
172 193 88
175 197 76
178 199 92
174 196 76
172 195 80
171 194 51
170 193 36
172 194 51
164 188 31
168 192 44
165 189 44
162 185 40
155 178 57
157 180 54
148 170 70
101 128 126
70 103 133
85 115 145
81 112 140
72 105 156
71 104 153
71 104 148
66 100 157
73 105 154
69 103 156
71 105 157
67 101 151
74 107 157
67 101 153
63 99 161
65 101 160
61 96 150
63 98 158
62 98 168
61 97 163
62 98 163
61 97 163
62 98 160
63 99 165
62 98 165
61 97 156
61 97 162
62 98 165
62 99 168
62 98 167
62 98 163
62 99 169
61 98 166
62 99 167
62 97 157
61 97 163
61 97 160
62 98 167
61 98 162
62 98 162
62 98 165
61 98 166
62 98 168
62 98 169
61 97 164
62 98 165
61 98 163
62 99 171
61 97 159
62 98 168
63 99 171
62 98 165
62 98 168
61 97 164
63 99 172
62 99 167
62 99 165
62 99 170
61 98 166
61 98 162
61 98 166
62 98 171
62 98 169
63 99 172
62 98 164
63 99 173
63 99 172
62 99 174
62 99 169
62 98 171
62 99 165
62 98 168
62 98 162
62 98 168
63 100 174
62 98 162
62 99 168
62 98 164
61 97 160
62 98 166
62 99 167
62 99 170
62 99 164
62 98 168
63 99 171
62 99 168
62 99 175
61 97 161
62 98 165
62 98 161
62 99 168
62 99 168
62 99 168
62 98 168
62 98 166
62 98 172
62 98 166
61 97 162
61 98 164
61 98 162
61 98 163
61 97 161
63 99 170
61 98 161
62 99 167
62 99 166
62 98 165
62 98 162
61 98 165
62 98 167
63 99 164
62 98 166
62 98 166
62 99 168
63 99 168
62 98 169
63 100 171
62 99 168
62 98 166
62 98 165
63 99 167
62 98 163
62 98 161
62 99 169
61 98 163
63 99 169
63 99 173
62 98 166
62 99 170
61 97 162
61 97 160
61 97 156
61 97 160
62 99 168
62 98 161
62 98 166
61 97 156
62 98 162
62 98 166
63 99 168
62 99 165
63 99 167
62 98 158
63 99 160
62 99 169
62 98 158
62 98 161
62 98 157
62 98 159
62 98 157
61 97 157
62 98 157
63 99 162
61 96 153
61 96 154
62 97 155
62 97 156
62 98 156
61 97 155
63 99 164
62 98 161
62 98 163
62 97 157
62 98 158
61 97 154
61 96 149
62 97 159
62 97 158
61 96 146
60 94 146
60 95 146
61 97 158
60 95 144
61 96 148
60 94 141
60 94 141
59 94 135
60 94 147
59 93 147
57 88 129
69 83 94
72 74 37
81 81 21
80 81 9
81 79 13
87 88 12
84 82 18
85 85 18
88 87 18
80 80 16
78 78 19
83 83 28
88 87 17
92 90 30
88 89 25
88 89 37
89 90 21
99 99 32
102 100 25
102 102 24
98 98 35
109 108 37
106 104 33
115 114 36
106 105 41
107 105 34
99 99 35
107 105 36
119 116 35
121 117 41
124 121 43
126 123 33
121 119 45
129 126 42
131 128 49
125 123 42
128 126 42
114 112 30
138 134 46
134 129 50
135 131 51
133 129 39
130 126 46
135 131 46
131 128 40
140 136 49
137 133 52
135 132 44
149 144 62
150 144 60
135 130 54
143 140 49
139 135 44
149 144 53
145 140 60
150 145 57
143 139 44
142 137 57
137 132 49
142 138 47
138 133 45
136 132 47
140 135 58
148 143 47
136 132 44
148 142 52
147 142 52
153 147 49
139 135 42
149 144 53
150 144 57
152 147 52
142 137 45
148 142 54
145 140 48
147 140 64
138 133 45
148 143 48
138 133 49
146 141 47
145 139 48
150 144 54
139 135 47
144 139 47
149 144 39
134 129 37
143 136 51
137 131 45
147 142 49
136 130 41
136 130 42
132 127 44
140 135 45
140 133 51
137 133 47
139 133 51
133 128 45
132 126 41
135 130 42
136 130 32
136 131 42
132 128 32
125 120 44
137 133 51
131 126 39
132 129 37
136 136 37
138 137 39
143 146 30
139 147 30
144 150 28
152 160 34
144 152 16
150 160 22
148 159 22
156 170 19
158 174 11
159 173 11
163 179 0
164 179 0
167 186 0
170 189 0
165 183 0
166 186 0
165 184 0
168 189 0
168 188 0
170 190 0
170 189 0
168 186 0
167 186 0
166 187 0
172 191 0
168 188 0
168 186 0
167 187 0
170 193 25
176 199 57
170 193 44
177 199 84
176 199 62
177 199 76
173 195 80
178 200 105
179 201 88
176 198 84
180 203 95
184 205 120
176 199 80
179 200 88
183 204 114
179 201 99
184 204 133
182 204 122
183 204 117
180 202 111
183 204 122
183 204 114
185 206 128
183 204 122
177 199 108
180 201 120
184 205 135
188 208 149
185 206 122
186 206 135
181 202 125
190 209 153
182 203 120
183 204 125
190 210 151
183 204 114
182 203 137
185 205 142
186 206 142
194 213 169
188 208 159
189 209 147
191 210 153
188 208 147
189 208 144
188 208 140
180 200 130
187 206 142
181 202 128
186 206 133
184 204 140
184 205 137
183 204 117
185 205 125
182 202 135
184 205 125
183 203 135
179 200 117
183 204 125
179 200 120
177 198 105
184 204 125
180 201 102
182 203 120
180 202 108
178 200 108
182 202 114
181 202 122
181 202 111
179 200 117
182 204 111
176 198 102
176 197 84
176 198 92
170 192 88
169 192 62
174 196 76
173 195 62
165 188 57
165 188 65
155 178 67
145 168 74
152 175 82
150 173 70
110 137 118
84 115 147
83 113 126
91 120 137
77 109 144
77 109 139
80 110 142
79 110 145
73 106 148
70 104 155
72 105 150
68 102 156
68 102 160
67 101 156
69 102 152
68 102 160
71 104 147
65 100 158
66 101 160
63 99 159
62 98 158
62 98 163
62 98 165
62 98 168
62 98 160
62 98 164
61 97 157
61 97 159
61 97 161
61 98 165
61 98 168
61 97 158
61 97 160
61 97 162
61 98 162
61 98 162
62 98 166
62 98 163
62 98 164
62 99 171
62 99 170
61 97 160
63 99 174
62 98 170
62 98 169
62 98 165
62 98 167
62 98 163
61 98 165
62 98 167
62 99 168
62 98 170
62 98 166
61 98 164
62 98 170
61 97 166
62 98 162
61 97 164
62 98 166
62 98 168
62 98 166
62 98 167
62 98 167
62 98 166
62 98 166
62 99 164
62 98 167
61 98 166
62 99 172
63 99 171
61 97 162
62 99 170
61 97 162
63 99 171
63 99 169
62 98 167
62 99 174
62 99 167
62 99 166
62 99 172
61 98 165
62 98 164
62 98 165
61 98 164
61 97 162
62 98 163
62 98 165
61 97 162
62 98 167
62 98 169
62 98 168
62 99 168
62 99 175
62 98 165
62 98 164
62 98 166
63 99 173
62 99 168
62 99 172
62 99 168
62 99 175
63 100 171
62 98 168
62 99 169
62 98 165
61 98 158
62 98 165
62 98 169
61 98 168
62 98 169
62 99 167
62 98 163
62 98 167
63 99 173
62 99 164
62 98 162
62 98 163
63 99 166
62 98 163
63 99 171
61 98 160
62 99 173
63 99 168
62 99 169
62 98 158
60 96 151
63 99 163
62 98 163
62 98 162
62 98 163
62 98 160
61 97 163
62 98 164
62 98 158
62 98 164
62 98 159
62 98 156
62 98 162
62 98 163
63 99 170
61 97 159
62 99 168
62 99 167
63 99 165
61 97 159
61 97 156
62 98 158
61 97 157
62 99 170
61 97 157
62 98 158
62 97 152
61 97 152
61 97 155
63 98 165
62 98 165
60 96 147
62 98 158
62 97 152
62 98 153
61 96 154
61 96 153
62 97 158
61 96 150
62 97 155
62 97 156
62 98 155
62 97 154
62 97 156
61 97 152
60 96 148
60 95 147
61 96 154
60 95 151
60 95 148
60 95 146
59 93 143
61 95 149
58 90 138
58 90 130
65 81 100
81 81 27
73 75 17
72 71 18
68 70 17
79 80 22
90 89 23
87 86 22
81 81 18
89 86 20
93 91 23
88 89 20
88 88 28
94 92 20
104 103 27
95 93 23
94 95 33
94 94 26
103 102 27
89 90 28
98 97 27
101 100 26
99 98 25
116 114 38
110 108 41
119 116 23
107 106 29
120 117 37
105 105 39
114 112 42
119 116 35
130 127 40
124 121 41
131 129 43
129 125 46
120 117 38
117 116 41
121 118 39
131 128 49
125 123 40
132 131 41
128 125 41
130 126 42
133 130 39
129 124 34
145 140 49
130 127 45
137 132 48
134 129 41
127 123 37
145 140 55
137 133 55
148 144 42
141 136 48
140 136 44
145 140 53
139 134 50
139 136 45
134 129 42
144 138 52
149 144 52
139 135 45
149 144 51
153 147 57
136 131 47
149 143 55
145 140 52
148 143 56
139 135 37
137 132 48
144 137 56
149 144 51
142 136 52
143 138 47
145 140 42
137 131 48
146 140 58
145 140 45
147 141 52
143 138 48
137 133 49
147 140 53
141 136 44
148 142 59
142 136 49
146 141 44
142 136 42
138 131 45
129 125 37
135 130 42
132 128 41
141 136 51
132 127 39
135 130 42
133 126 36
138 133 36
134 129 42
135 129 49
137 132 45
130 125 36
134 128 45
125 120 41
132 130 41
127 125 30
128 127 32
143 143 41
143 146 32
147 149 39
132 135 19
138 143 28
144 152 28
145 152 22
157 168 22
149 160 0
151 163 11
151 163 11
160 178 0
163 181 0
166 182 0
169 187 0
162 178 0
165 184 0
163 180 0
167 186 0
170 188 0
161 178 0
164 180 0
168 188 0
164 181 0
168 186 0
168 187 0
164 182 0
170 190 0
166 184 0
167 186 0
169 188 0
174 196 62
174 196 62
176 198 62
178 200 72
177 199 76
177 200 76
177 198 88
183 205 122
177 199 99
179 200 108
176 198 92
177 200 88
182 203 122
185 206 111
182 203 120
180 202 125
182 203 111
184 205 122
182 203 128
181 203 120
181 202 111
182 202 128
183 203 128
188 208 137
182 203 125
190 210 147
192 211 157
188 208 140
187 207 153
189 209 144
185 205 133
191 211 161
192 212 161
187 207 147
188 207 153
190 211 151
186 206 142
190 210 153
188 208 137
190 210 157
188 208 135
191 211 155
192 212 167
186 206 133
191 211 159
191 210 159
189 208 147
181 203 125
192 211 163
183 204 135
184 204 135
188 208 140
193 213 163
187 206 151
187 207 142
187 206 142
187 208 137
186 206 142
187 208 140
185 206 144
183 204 140
184 205 128
181 202 114
184 206 130
182 203 120
182 203 133
180 201 108
179 200 102
180 202 111
175 197 80
178 199 99
177 198 99
178 198 102
174 196 76
172 194 80
171 192 88
172 195 57
171 193 80
162 186 70
156 179 70
149 171 92
147 170 100
154 177 76
141 165 76
112 139 125
83 113 140
85 115 139
88 117 143
79 111 148
71 104 149
76 108 151
67 102 153
70 103 143
75 107 150
73 106 150
68 102 155
69 103 153
73 106 158
65 100 155
66 100 153
67 101 156
69 103 155
65 99 154
61 97 158
63 98 155
64 99 166
61 97 155
61 98 167
61 97 156
62 98 163
61 97 158
62 98 159
63 99 170
62 98 162
61 97 158
63 99 172
62 98 163
62 99 166
61 97 160
62 98 165
62 99 171
62 98 163
62 98 164
61 97 159
62 98 167
62 98 165
62 98 169
62 98 164
62 98 169
61 98 166
61 98 163
61 97 161
63 99 175
62 99 170
62 98 169
62 98 167
63 99 174
61 97 164
62 98 165
62 99 167
62 98 168
61 97 161
62 98 164
62 99 170
62 99 171
62 99 168
62 98 163
63 99 171
61 98 164
62 98 169
62 99 166
62 98 166
63 99 172
62 98 167
62 98 165
62 98 165
62 98 167
61 98 165
62 98 163
62 98 167
62 98 169
62 98 160
61 97 164
62 98 163
63 99 166
63 99 172
62 99 169
62 99 171
62 99 170
62 98 168
62 98 165
62 98 166
62 98 167
63 99 170
62 98 166
62 98 161
62 98 165
62 98 165
61 97 162
62 99 165
62 98 166
62 99 170
63 99 167
62 99 167
63 99 170
62 98 163
63 99 168
62 98 168
62 98 162
62 98 162
62 98 159
62 98 168
62 98 162
62 98 165
62 98 161
61 97 159
62 98 170
62 98 158
62 99 164
62 99 164
62 99 170
63 99 167
61 97 163
63 99 165
62 99 169
63 100 172
62 98 158
63 99 167
62 98 160
62 99 169
62 98 160
62 99 169
62 99 170
62 97 158
62 98 165
61 97 157
62 98 165
61 97 156
62 99 167
62 98 160
61 97 157
62 98 157
62 98 164
63 99 169
62 98 155
60 97 159
61 97 159
62 98 162
62 98 163
61 97 161
62 97 153
61 97 160
62 97 150
62 97 159
61 97 156
62 98 156
62 98 163
62 98 159
62 98 160
62 97 153
61 97 157
62 97 149
61 97 154
61 97 150
61 97 160
62 98 157
62 97 156
62 97 161
61 97 158
61 97 155
60 96 153
62 97 151
62 97 154
61 96 151
62 97 157
61 96 155
62 96 147
60 94 144
60 94 145
58 92 141
60 94 146
59 93 137
61 95 151
58 90 132
67 80 84
94 92 21
81 80 14
93 93 10
85 84 12
87 87 23
79 78 18
83 83 14
85 85 21
88 86 12
75 75 17
97 96 19
86 86 29
83 85 23
91 90 17
99 99 27
93 93 32
90 90 23
95 95 29
84 84 23
105 104 28
110 107 31
112 111 36
106 104 30
112 108 23
117 113 38
100 100 32
111 108 39
119 116 33
120 117 38
125 123 30
112 112 30
111 111 33
125 122 45
126 122 42
119 116 45
118 116 42
129 125 49
127 123 30
123 120 48
131 128 41
131 127 42
127 124 46
133 130 53
136 131 45
132 128 39
133 129 42
134 129 47
141 137 51
135 131 44
136 132 47
136 132 45
134 129 43
140 136 42
141 135 45
142 138 42
143 137 54
148 142 48
142 137 49
136 132 38
147 142 52
145 141 51
146 141 51
146 142 44
144 139 45
148 142 47
141 136 42
142 136 42
145 141 45
132 128 32
146 141 42
139 134 45
139 134 48
144 139 46
147 141 53
143 138 47
149 142 57
141 135 51
144 137 44
144 139 48
144 138 45
137 131 39
139 134 44
136 130 51
138 133 41
141 136 39
129 125 37
138 133 48
145 140 44
142 137 45
132 127 45
130 124 44
138 133 41
129 124 45
137 132 44
135 130 44
133 127 41
129 125 22
127 122 34
129 123 32
133 127 45
123 119 37
130 129 36
129 126 42
134 133 32
134 131 34
131 133 32
141 145 28
142 148 28
143 153 22
141 151 19
146 155 25
156 168 25
159 173 11
159 173 19
160 176 0
163 179 16
165 183 11
169 187 0
165 182 0
166 184 0
167 186 0
164 183 0
165 182 0
166 185 0
164 182 0
169 188 0
168 187 0
165 185 0
165 184 0
164 183 0
168 186 0
164 183 0
168 188 0
167 185 0
169 188 0
174 197 67
177 199 80
175 198 57
179 200 88
172 195 67
180 201 114
187 207 133
178 200 95
177 199 84
183 205 108
185 206 125
185 206 125
182 203 128
185 206 130
175 197 84
182 204 117
189 209 135
184 205 135
190 210 142
189 209 144
187 208 140
190 209 153
191 211 157
187 207 153
185 206 137
186 206 142
186 206 137
193 213 165
193 213 163
194 213 171
188 208 151
192 212 163
192 211 177
191 211 157
193 213 163
191 211 161
190 211 157
191 211 163
188 209 151
195 214 171
191 211 163
186 206 153
194 213 171
191 211 155
192 212 165
187 208 153
189 209 151
191 211 159
196 215 173
186 205 153
188 208 151
189 209 159
191 211 157
188 207 151
190 210 149
184 204 140
182 203 120
188 208 140
188 207 149
188 209 144
188 208 149
185 206 133
188 208 140
190 209 163
182 202 130
186 206 133
187 207 135
189 210 153
182 203 117
180 202 99
180 201 108
173 194 102
180 201 114
173 195 92
174 196 99
173 195 80
169 192 80
160 183 92
166 188 88
159 180 114
142 165 107
146 169 108
143 167 97
133 158 105
107 134 131
83 114 139
84 114 134
86 116 144
79 110 144
67 101 149
72 104 152
75 108 153
72 105 152
77 110 151
72 105 149
69 103 152
63 99 156
70 103 151
63 99 155
67 101 151
76 108 155
66 100 157
61 98 161
66 100 153
65 100 155
66 101 163
62 98 158
64 100 163
62 98 164
61 97 159
61 97 161
61 98 161
62 98 164
61 97 162
62 98 162
61 97 160
61 98 164
62 98 165
61 97 161
63 99 164
61 98 163
62 98 162
62 98 165
62 98 166
62 98 167
61 97 160
61 97 164
61 97 163
62 99 165
62 98 166
62 98 167
62 98 169
60 96 159
62 98 165
61 97 162
62 98 168
62 98 168
61 98 162
61 97 162
61 98 163
62 98 165
62 99 171
62 98 165
61 98 168
62 99 166
62 98 164
62 98 166
62 99 172
62 98 165
60 97 157
62 98 166
62 98 163
62 99 169
61 97 165
62 99 169
62 98 167
61 98 162
62 99 166
62 98 164
63 99 168
62 99 166
62 98 164
61 98 163
62 99 166
62 98 164
62 98 164
62 98 168
62 98 165
61 98 161
62 98 168
63 99 169
62 98 166
62 98 166
62 98 162
62 98 162
63 99 175
61 97 156
62 98 163
62 99 169
62 98 166
62 98 160
63 99 171
62 98 168
63 99 164
62 98 167
62 98 164
62 99 167
61 98 164
61 97 158
61 97 161
62 99 168
61 98 162
62 98 166
62 98 164
62 97 153
62 98 166
61 97 157
63 99 172
62 98 161
62 98 162
62 99 168
62 98 167
63 99 166
62 98 160
62 98 161
62 98 165
62 99 167
61 97 153
62 98 159
63 99 163
62 98 166
62 98 163
63 99 168
62 98 160
62 98 162
61 97 158
62 98 157
62 98 161
62 99 167
63 99 165
61 97 158
62 98 163
61 97 151
62 98 162
61 98 162
62 98 161
62 98 163
62 97 154
61 97 160
61 97 160
61 97 158
62 98 160
63 98 160
61 97 152
61 97 156
61 97 160
61 97 155
61 97 153
62 98 158
61 96 153
60 95 147
63 99 161
61 97 159
61 97 156
61 97 157
62 98 161
61 97 161
62 98 155
61 96 149
61 96 151
61 96 147
60 95 144
62 97 151
60 94 144
60 94 144
61 97 159
61 96 151
59 93 145
60 94 141
60 95 149
60 94 141
60 93 142
58 91 127
61 91 122
77 84 65
91 87 30
84 81 16
90 88 0
90 89 16
86 84 12
87 86 9
86 84 11
89 88 14
90 89 20
91 90 24
89 89 18
98 97 29
97 96 12
96 94 27
89 88 25
87 88 22
102 98 30
100 99 28
116 112 25
107 105 25
103 103 28
109 107 39
102 101 29
115 112 33
111 109 24
107 105 42
115 114 29
112 109 37
113 112 34
121 118 38
122 120 22
120 117 49
119 117 37
121 117 43
117 116 38
119 116 39
128 123 43
129 127 38
131 127 48
126 123 41
139 135 47
132 129 45
119 115 36
130 127 46
129 126 42
134 130 42
140 135 51
129 125 38
132 128 42
136 131 48
137 132 45
142 137 54
138 133 45
131 128 39
137 131 43
147 141 45
134 129 47
129 124 44
149 143 52
133 129 42
145 140 55
144 138 49
138 133 47
148 142 49
144 139 52
143 138 37
144 140 37
144 139 51
143 139 45
140 133 49
144 138 48
142 138 47
147 141 45
135 130 48
141 136 39
144 138 48
134 131 36
134 129 36
138 131 44
141 136 49
142 136 44
133 128 28
145 140 52
138 133 44
138 133 37
135 129 42
135 130 39
137 131 47
140 134 41
138 133 39
138 131 47
142 135 44
139 135 41
132 128 49
131 126 39
135 128 45
137 132 37
127 123 36
119 116 30
130 125 32
128 127 32
135 132 37
125 126 22
140 139 39
141 144 34
134 140 22
144 151 25
143 148 30
146 156 19
158 170 22
148 160 0
155 168 11
157 174 11
157 172 11
163 179 11
161 175 0
166 182 0
165 183 0
166 182 0
164 179 0
165 182 0
168 186 0
164 181 0
164 181 0
164 182 0
162 181 0
166 184 0
167 185 0
165 183 0
167 187 0
169 188 0
170 189 0
166 184 0
168 186 0
166 186 0
178 200 80
176 198 92
179 201 111
177 199 92
181 202 99
183 204 105
175 197 95
182 203 122
183 204 105
185 206 133
181 202 117
184 204 120
184 205 125
184 204 128
187 208 140
187 207 144
185 206 135
190 210 159
189 209 155
182 204 133
192 211 155
193 213 171
191 211 157
188 208 147
189 209 163
191 211 157
188 208 153
187 207 151
190 209 163
191 209 169
191 211 167
186 207 153
191 211 165
188 208 153
190 210 153
189 208 155
192 211 171
195 214 173
197 216 181
195 215 181
196 215 181
193 212 177
194 213 167
190 209 161
193 212 171
194 213 171
191 211 163
194 213 188
190 210 159
189 209 157
193 213 167
193 213 175
194 213 175
188 208 157
192 211 165
195 213 181
187 207 155
189 209 155
192 211 163
189 209 161
194 213 169
184 205 137
192 211 157
183 203 147
183 203 137
188 208 142
185 206 137
187 207 147
180 202 128
183 202 137
184 205 122
186 207 135
180 201 114
181 201 117
183 204 130
176 197 113
174 196 108
173 195 105
168 190 111
153 175 110
151 174 131
151 175 107
144 168 102
134 158 114
117 143 117
92 120 130
82 113 143
86 116 143
80 111 147
77 109 151
81 111 135
74 105 142
79 110 144
77 109 143
74 106 151
67 100 152
72 104 136
76 108 147
71 103 152
61 97 152
67 102 157
65 101 161
68 102 161
66 101 158
70 104 156
61 97 158
62 98 160
63 99 171
61 97 163
63 98 159
62 98 166
62 98 159
61 97 160
61 97 159
61 97 158
62 98 162
62 98 164
63 99 168
62 98 165
61 97 155
61 98 167
61 97 163
61 97 159
62 99 167
62 98 166
62 98 167
62 98 163
61 98 171
62 99 169
61 97 160
62 98 168
62 98 166
62 99 172
62 98 161
61 97 157
62 98 170
62 98 165
62 98 166
62 99 169
61 97 165
61 97 158
62 98 168
61 97 158
62 99 168
61 98 162
62 98 167
62 98 162
62 99 170
63 99 174
61 98 168
61 97 164
62 99 168
62 98 162
62 98 168
62 98 162
61 98 167
62 98 164
61 98 169
62 99 171
61 98 165
62 98 166
62 98 166
61 97 158
62 98 166
63 99 169
62 98 164
63 99 165
62 99 170
62 99 169
62 98 164
62 98 168
62 98 162
62 98 163
63 99 172
61 98 161
62 98 161
62 97 158
62 98 162
62 99 172
63 98 160
62 98 163
61 98 165
62 99 167
62 98 164
62 98 163
61 97 159
61 97 158
63 99 169
62 98 161
63 99 171
62 98 166
63 99 169
62 98 163
61 97 163
62 98 164
62 98 164
62 98 161
62 98 164
62 98 164
62 98 165
61 98 163
62 98 158
62 98 165
62 99 164
61 97 160
63 99 165
61 97 157
62 98 165
64 100 172
63 99 166
61 97 160
62 98 162
62 98 162
61 97 154
61 98 163
63 99 169
62 98 160
62 97 155
61 97 158
63 99 167
62 98 162
61 97 152
62 98 161
61 97 151
62 98 158
62 98 159
62 98 160
62 99 164
62 98 162
62 98 160
62 98 156
62 98 160
61 97 160
62 98 159
62 97 153
62 98 160
61 97 154
61 97 160
63 98 160
62 98 156
62 98 156
62 97 156
60 95 151
62 97 158
62 98 160
60 96 147
61 96 152
61 97 155
60 95 148
62 98 154
61 97 153
61 97 152
61 96 147
61 96 151
59 94 136
60 94 139
61 96 142
61 96 146
60 94 145
61 96 142
59 93 138
60 94 145
61 95 144
55 86 125
77 88 79
73 74 29
73 72 16
73 72 9
87 86 20
79 78 12
85 84 19
78 79 18
90 88 8
80 81 19
92 90 19
86 85 19
94 92 20
93 92 17
91 91 22
103 101 28
111 109 25
93 92 22
99 97 30
107 105 21
107 105 25
107 105 29
103 102 18
102 101 25
115 111 34
102 102 33
112 109 34
107 106 32
115 112 34
119 116 25
104 102 28
115 112 36
115 113 30
115 114 33
124 119 39
117 114 45
119 116 40
128 125 40
133 130 39
127 123 38
127 123 38
132 127 46
131 126 45
141 136 45
136 131 47
139 135 44
136 132 46
135 132 43
130 126 43
138 133 46
145 139 45
131 128 30
128 124 36
142 136 45
135 131 38
143 138 45
139 135 52
133 129 36
137 133 47
132 125 41
144 139 43
141 135 45
144 139 54
146 140 51
131 127 37
135 130 44
144 139 40
133 128 41
143 138 51
136 132 37
143 139 45
144 139 37
131 128 34
138 132 44
146 140 53
134 130 41
138 133 47
144 139 44
138 132 48
141 136 45
139 132 41
138 133 37
138 132 39
139 134 45
137 132 34
134 129 37
140 136 45
142 137 48
143 137 47
138 132 44
129 125 37
135 130 39
136 131 36
140 135 48
133 129 37
124 119 36
129 124 32
130 125 39
129 123 39
128 126 32
123 119 32
135 131 39
137 136 34
137 137 34
141 143 34
139 140 39
145 152 16
150 159 25
150 158 16
150 161 25
149 159 11
151 163 11
156 168 19
158 173 0
163 178 11
163 179 0
164 182 0
162 181 0
168 187 0
162 180 0
167 187 0
167 187 0
164 181 0
165 181 0
166 184 0
167 186 0
167 185 0
166 184 0
166 185 0
165 184 0
167 188 0
165 183 0
163 179 0
164 183 0
166 185 0
167 188 0
183 204 102
182 203 114
179 201 84
180 202 99
183 204 120
185 205 128
183 204 133
187 207 137
187 207 133
181 202 117
184 205 125
184 204 135
187 208 133
192 212 157
189 209 149
192 212 161
188 209 149
188 208 151
192 212 159
188 208 149
191 211 165
189 208 167
187 208 151
185 206 151
194 213 169
191 210 175
192 212 177
192 210 163
192 212 173
193 213 179
190 210 169
192 211 167
196 215 179
194 214 173
194 214 175
190 210 173
198 217 186
198 217 188
196 216 184
196 215 184
196 215 182
195 214 181
192 212 175
193 213 179
191 211 167
195 215 181
198 217 188
195 215 173
198 216 179
192 212 163
194 214 181
192 211 163
193 212 169
193 212 173
192 212 165
193 212 171
192 211 161
191 210 167
198 217 184
190 209 155
192 212 167
193 213 169
194 212 169
190 210 161
191 210 165
195 214 177
190 210 153
190 209 161
189 209 151
187 207 153
185 205 144
183 203 142
183 203 130
182 203 120
180 201 122
171 193 103
177 198 126
171 193 110
171 192 142
154 176 129
152 175 117
137 160 118
130 153 126
134 158 111
117 143 137
93 122 137
78 109 144
79 110 142
87 117 140
79 110 137
84 115 140
80 111 152
79 110 149
70 103 145
79 111 154
69 102 153
76 107 150
65 99 151
68 101 145
66 100 155
70 103 150
68 102 156
65 100 156
71 104 150
65 100 160
64 99 161
61 97 155
66 101 162
62 98 162
61 97 158
61 96 153
61 98 162
61 97 163
61 97 161
62 98 164
63 99 168
62 99 169
61 97 158
62 98 166
61 97 158
62 98 164
62 98 167
62 98 166
62 99 164
62 99 170
61 98 165
62 99 170
61 97 162
61 98 162
62 99 170
61 98 165
62 98 165
62 98 167
62 99 168
62 98 163
62 99 171
61 97 162
62 98 167
62 98 168
62 98 163
62 98 162
62 99 168
62 98 167
62 98 160
62 98 164
62 98 164
62 98 161
62 98 163
62 98 163
62 98 166
62 98 166
62 98 162
62 98 163
61 97 161
62 98 166
61 97 167
61 97 162
62 98 165
62 99 164
62 98 164
62 98 160
61 97 162
62 98 167
62 98 162
61 97 158
61 97 164
61 97 161
62 98 167
61 98 166
62 99 168
62 98 159
62 98 162
63 100 170
63 99 166
62 98 166
62 98 162
62 98 166
62 98 163
63 99 167
62 98 159
62 99 167
62 98 159
63 99 166
62 98 163
62 98 164
62 98 161
62 98 165
62 99 169
61 97 159
63 99 167
62 98 160
62 98 165
62 98 169
62 98 158
62 98 163
62 99 169
62 98 161
62 98 164
62 98 162
62 98 166
62 99 172
62 98 162
61 98 168
61 97 154
62 98 160
61 98 164
62 98 157
61 97 160
62 98 158
62 98 166
62 98 161
62 98 157
62 99 170
62 98 160
62 98 161
62 98 164
62 98 162
62 98 155
63 99 162
62 98 162
61 97 159
60 96 155
63 99 162
61 97 159
62 98 157
62 98 163
61 97 160
61 98 158
63 98 161
61 97 157
61 97 151
62 98 159
62 98 164
61 97 157
61 97 157
61 97 155
62 98 159
62 97 158
61 97 151
62 97 156
62 98 158
61 96 144
62 97 154
61 96 149
61 97 154
62 97 158
61 97 151
63 99 163
62 98 159
62 96 149
61 96 149
61 96 148
61 96 149
60 96 149
62 97 153
60 94 145
59 94 135
60 94 142
60 94 142
60 94 147
61 95 149
60 93 140
59 92 136
63 92 135
79 88 79
83 82 30
86 85 8
73 72 12
90 88 14
86 83 11
83 83 19
98 96 18
92 89 8
84 84 16
82 81 15
87 86 21
89 88 14
95 94 22
93 92 21
100 97 12
84 85 18
96 94 16
99 98 21
101 99 23
102 100 25
102 100 29
114 112 35
102 100 14
100 100 22
111 109 36
107 104 25
118 117 24
113 110 30
116 115 29
100 99 27
113 111 21
117 114 36
113 111 28
117 114 35
115 113 33
114 111 31
125 122 35
116 114 32
126 123 38
116 113 29
128 124 34
130 127 44
138 135 42
129 126 42
130 126 37
137 133 37
136 131 44
133 128 43
137 131 42
138 133 41
132 128 34
136 132 39
136 132 47
142 136 41
132 127 42
135 130 46
128 124 40
132 129 28
128 123 41
131 128 37
133 129 42
141 136 44
134 129 42
140 135 44
138 134 44
133 128 44
138 133 41
144 139 48
143 137 42
137 131 44
135 130 39
142 138 39
140 135 36
138 133 36
135 131 37
145 139 49
144 140 42
143 137 42
136 130 34
142 136 52
145 139 47
142 137 45
143 137 49
139 134 44
133 128 28
132 128 34
132 128 32
135 132 34
129 124 28
135 129 41
131 128 39
125 121 37
129 125 34
134 129 44
140 134 45
141 134 44
127 122 32
120 114 36
131 129 36
125 124 25
130 131 36
140 139 28
130 135 19
141 144 30
138 142 30
134 139 25
133 139 22
133 142 19
148 158 19
156 170 0
150 161 16
156 169 0
158 174 0
162 175 11
167 185 0
163 180 0
165 182 0
165 182 0
166 182 0
163 180 0
165 181 0
166 185 0
167 185 0
166 184 0
166 183 0
165 182 0
165 184 0
165 179 0
166 186 0
163 180 0
167 186 0
165 183 0
166 184 0
169 190 0
165 182 0
181 203 108
180 201 108
181 202 117
183 204 130
183 204 111
187 208 137
183 203 133
185 206 122
185 207 130
190 210 144
193 213 163
190 210 151
190 209 153
190 210 157
191 211 149
191 211 153
193 212 165
190 210 155
191 210 167
194 214 177
192 212 171
197 216 184
193 212 173
193 213 169
195 214 177
193 212 182
199 218 189
196 215 184
198 217 189
190 210 169
196 215 177
195 214 182
196 215 181
197 216 188
199 218 193
196 215 188
196 216 182
198 217 188
197 216 188
197 216 193
200 218 198
194 213 177
194 214 181
191 212 165
197 216 184
201 220 196
196 214 182
198 217 193
198 217 191
197 216 181
197 216 181
194 214 181
195 214 175
190 210 175
199 218 193
200 218 189
194 213 181
191 211 165
195 215 181
188 207 157
191 210 163
192 212 171
189 210 151
195 214 177
192 211 173
197 216 179
187 207 151
190 209 149
192 211 165
184 204 130
187 207 155
188 208 142
191 210 149
183 203 133
183 203 143
179 200 125
174 194 125
173 194 137
165 187 130
159 180 137
158 179 135
140 162 133
149 171 129
132 156 126
124 149 131
92 121 142
95 124 143
82 113 144
79 110 143
91 120 143
80 110 145
80 112 152
73 106 150
72 105 149
82 113 141
71 104 150
76 107 143
68 103 154
70 103 145
71 104 140
66 100 154
66 100 144
71 104 150
67 101 148
67 101 158
66 100 151
63 98 152
63 99 159
64 100 160
63 99 158
61 98 164
64 99 152
61 97 162
64 99 164
61 97 158
62 98 162
61 98 164
62 99 170
61 97 160
61 97 156
62 98 161
62 98 167
61 98 163
62 98 161
61 97 160
62 98 159
62 99 169
62 99 167
61 98 166
62 98 162
60 96 151
62 98 168
62 98 164
62 98 159
61 97 162
62 98 166
61 97 158
62 98 162
61 97 158
61 98 163
62 99 165
62 98 164
61 97 162
62 98 171
62 99 166
62 98 163
63 99 162
61 97 160
62 98 169
61 97 162
62 98 164
62 98 170
62 99 172
62 98 161
62 98 161
61 97 165
62 98 166
62 98 168
62 98 167
62 98 165
61 97 154
62 98 159
62 98 168
62 99 164
61 97 162
61 97 154
62 99 169
61 98 166
62 99 168
62 98 158
62 98 165
61 97 162
63 100 172
62 98 164
61 97 160
62 98 163
62 98 165
62 99 170
62 98 161
62 98 164
62 99 164
61 97 161
62 99 168
62 98 164
62 98 166
63 99 165
63 99 169
61 97 162
61 97 163
61 97 159
62 98 164
62 99 169
61 97 159
62 98 162
61 97 160
62 98 164
62 98 167
62 98 159
61 97 161
62 98 161
61 97 158
62 99 167
63 99 169
61 97 160
62 98 160
62 99 167
62 98 161
62 98 162
62 98 164
62 98 160
63 99 168
62 98 160
62 98 161
62 98 159
63 99 166
62 98 161
61 97 157
62 99 165
63 99 160
62 98 157
62 98 155
62 98 160
62 98 154
62 98 158
61 97 155
61 97 153
61 98 161
61 97 157
62 98 160
62 97 155
62 97 157
62 98 158
63 99 161
63 99 168
61 96 148
61 97 152
62 98 164
61 97 154
61 97 154
63 99 164
61 96 153
62 98 158
62 98 161
62 97 150
61 97 154
61 96 150
61 96 150
61 96 151
61 97 153
61 96 145
60 96 148
60 95 148
61 96 153
60 95 145
61 96 150
61 96 150
60 95 139
59 93 129
60 95 147
60 93 138
59 93 144
59 93 140
59 93 139
58 88 127
80 86 71
81 80 16
74 71 16
81 79 13
93 90 12
76 75 13
88 86 11
89 87 8
80 78 11
80 79 5
86 85 20
101 98 11
95 93 15
85 85 17
92 91 10
104 101 12
89 88 8
95 95 20
95 95 18
87 87 20
105 102 24
104 102 30
102 101 26
100 97 25
105 103 24
103 102 28
103 102 21
110 108 28
114 112 28
117 114 36
108 106 28
113 111 34
119 116 30
120 118 36
121 119 34
107 105 25
120 118 34
120 115 34
119 116 28
118 116 35
125 122 36
122 119 31
118 115 36
122 118 42
128 125 43
136 131 37
127 124 18
127 123 37
127 123 31
131 128 39
133 129 33
142 136 50
135 131 40
142 137 46
139 135 36
140 135 42
140 135 45
132 129 33
134 130 42
135 132 32
133 130 44
141 136 34
140 134 36
133 130 39
142 137 37
143 137 48
143 137 47
140 136 41
144 139 51
138 132 47
141 136 49
137 132 41
138 133 42
139 134 49
138 134 42
142 136 42
137 130 39
144 138 44
137 133 37
140 135 39
137 131 42
134 128 42
136 130 45
145 140 45
135 130 44
134 129 22
141 136 41
125 120 32
135 131 39
132 127 32
129 124 30
133 126 39
119 115 28
123 119 25
132 126 41
129 125 37
119 113 25
126 122 34
137 132 44
131 129 32
132 130 28
134 134 25
135 138 16
141 144 30
136 137 25
138 145 30
142 148 22
145 156 11
151 162 30
155 167 16
155 168 16
157 170 16
162 175 16
159 174 11
162 180 0
161 177 0
164 183 0
165 182 0
162 178 0
168 184 0
164 182 0
163 179 0
163 180 0
168 184 0
166 184 0
168 186 0
168 189 0
163 179 0
164 183 0
170 190 0
167 184 0
168 187 0
165 185 0
167 186 0
168 186 0
163 179 0
185 206 128
186 207 125
185 206 133
186 207 140
188 209 137
187 207 137
187 207 147
185 206 135
189 208 147
190 210 167
192 212 153
187 208 140
189 210 144
188 209 147
189 209 161
195 215 169
192 212 171
194 214 175
193 213 177
192 211 165
190 210 159
191 211 165
195 215 175
195 214 177
199 219 196
198 217 184
200 218 196
200 219 199
193 212 181
196 216 188
196 215 184
196 215 186
197 217 196
200 219 203
199 218 189
192 212 171
195 215 182
198 217 186
199 218 199
199 218 196
202 220 201
201 219 199
204 222 209
196 216 188
197 215 188
200 218 199
199 218 196
199 218 193
205 223 214
199 218 194
193 213 175
197 217 189
195 215 188
200 219 193
195 215 181
199 218 186
196 215 186
194 213 182
196 215 181
192 212 171
197 216 177
195 215 179
194 213 179
194 214 177
188 207 147
191 211 165
192 211 171
195 214 179
190 210 161
190 210 157
194 212 167
194 213 175
194 213 171
188 207 149
184 204 152
182 202 153
170 192 134
166 187 133
170 190 149
155 177 149
141 163 157
129 152 140
140 163 135
130 154 140
120 145 139
91 119 153
95 123 139
96 125 137
73 105 145
83 113 147
80 111 148
74 106 148
76 108 153
76 108 145
81 112 145
71 103 144
77 108 148
69 102 148
76 108 149
65 99 142
70 103 150
68 101 154
63 98 155
66 100 157
70 103 159
64 99 151
70 103 152
63 98 156
62 98 162
66 100 152
65 100 152
61 97 160
61 96 152
62 99 170
61 97 155
61 97 155
62 98 163
61 97 157
61 97 157
61 98 162
61 98 160
61 97 159
62 99 169
61 97 164
61 97 161
61 97 157
63 99 170
61 97 158
62 98 169
62 98 163
61 97 156
62 98 160
62 98 165
62 98 168
62 98 165
62 98 166
62 98 164
61 98 161
62 98 166
62 99 169
61 97 163
62 99 165
62 99 165
62 98 167
62 98 166
62 98 160
61 97 156
61 98 160
62 98 161
61 98 165
62 98 167
63 99 171
63 99 164
62 98 165
62 98 163
63 99 170
61 98 161
62 98 158
63 99 164
61 97 158
63 99 169
62 98 161
62 98 165
62 98 164
62 98 159
62 98 163
62 99 168
61 97 163
63 99 168
62 98 162
62 99 167
62 99 166
62 99 168
63 98 159
62 98 167
63 99 164
62 99 169
62 98 166
62 99 164
62 98 168
61 98 160
61 97 162
63 99 164
61 98 162
61 97 153
61 97 159
62 98 160
62 98 162
63 99 168
62 98 159
62 98 163
61 97 157
63 100 172
62 98 164
61 97 158
63 98 158
62 98 161
63 99 168
63 99 162
62 98 161
62 98 161
61 98 162
62 98 156
62 98 166
62 98 158
62 98 161
63 99 167
61 97 153
63 99 162
61 97 156
62 97 158
61 97 154
62 98 161
62 98 157
62 97 155
62 98 162
62 98 161
63 99 161
61 97 156
62 98 159
62 99 166
62 97 158
63 99 166
61 97 156
61 97 161
61 96 156
62 97 154
61 97 153
61 96 147
61 96 153
62 98 156
61 97 158
62 98 159
62 97 152
61 97 156
62 97 155
61 97 153
61 97 149
61 97 157
61 97 158
62 98 159
62 97 152
62 98 156
61 96 153
60 96 151
61 97 155
61 97 154
62 97 155
60 95 145
59 95 142
61 96 151
61 97 150
60 95 148
61 97 155
61 95 145
61 96 156
60 94 145
60 95 141
60 94 136
60 93 137
59 94 143
58 91 136
61 96 147
60 88 122
89 94 61
78 76 14
92 89 5
86 83 16
74 73 13
92 89 16
92 90 8
86 84 16
85 82 14
90 89 16
92 90 14
88 86 18
91 89 2
92 92 21
93 93 22
92 91 18
99 96 14
92 90 14
109 108 19
91 91 17
100 97 25
100 99 16
100 97 28
95 94 19
108 107 18
116 114 31
103 103 21
102 100 24
106 103 27
106 104 22
115 112 31
109 108 27
112 109 21
126 123 35
120 117 29
124 121 28
129 124 36
126 122 39
122 118 32
124 120 42
132 128 38
120 116 39
131 127 31
130 127 41
121 118 31
132 127 34
127 124 32
138 133 38
128 125 38
131 128 36
136 132 45
129 126 36
137 132 42
136 132 42
131 128 34
126 123 32
137 132 39
129 126 32
140 135 41
132 127 39
145 140 39
136 132 37
135 130 36
141 134 47
124 120 30
136 131 34
139 133 48
135 131 28
137 132 42
138 132 47
139 134 36
135 130 30
132 127 36
140 135 39
134 130 44
139 134 39
133 129 36
138 134 45
126 122 37
136 130 41
135 130 47
137 132 30
136 131 37
137 131 39
138 132 42
140 135 37
132 127 37
131 126 42
139 135 34
128 122 36
129 123 30
137 132 41
127 122 42
121 117 32
129 123 42
126 121 36
126 122 42
125 123 30
132 130 32
133 133 28
133 132 30
137 144 22
138 140 32
139 141 30
140 145 19
149 158 11
141 147 16
144 155 16
156 168 0
156 169 11
161 175 19
159 174 0
159 173 11
161 177 0
162 179 0
165 180 0
164 181 0
167 184 0
167 185 0
167 185 0
167 185 0
159 176 0
160 177 0
162 179 0
164 182 0
162 178 0
169 189 0
163 181 0
170 188 0
166 184 0
167 187 0
167 188 0
166 185 0
168 189 0
165 182 0
166 184 0
184 205 120
187 207 135
185 206 137
190 210 151
183 205 133
183 204 140
188 208 157
188 208 137
189 209 157
194 213 173
189 209 155
192 212 169
196 215 179
197 216 181
192 212 163
197 216 186
191 211 165
193 212 171
195 214 171
197 216 182
198 217 191
193 214 167
200 219 194
194 213 175
196 216 186
198 217 194
198 217 189
204 222 206
200 219 199
201 220 206
196 215 184
199 218 194
199 218 194
201 220 206
200 219 199
202 221 206
202 221 206
199 218 191
203 222 207
200 219 193
198 218 193
201 219 203
204 222 211
200 219 199
202 221 211
201 220 201
201 220 203
198 217 189
203 222 206
198 218 194
196 216 189
205 223 212
198 217 182
202 220 204
201 219 204
200 219 199
197 216 188
202 221 204
197 216 186
193 213 173
195 214 188
196 216 179
198 217 191
199 218 203
196 215 184
191 211 163
197 217 182
191 211 167
191 211 163
194 213 175
192 212 165
187 207 153
193 213 169
188 208 154
189 209 164
174 196 134
180 199 164
166 187 160
169 189 170
150 171 156
147 168 156
146 167 159
137 160 131
131 154 154
106 132 150
98 125 154
92 121 152
85 114 141
84 114 151
83 113 142
82 113 148
86 116 145
80 111 144
67 101 152
70 103 152
73 105 148
80 111 147
65 99 152
78 110 155
74 107 151
67 101 153
63 98 154
62 97 154
64 99 166
61 97 156
64 99 157
64 99 158
62 98 162
63 98 156
59 95 150
67 102 166
62 97 152
61 97 156
64 99 156
61 97 154
62 98 164
61 97 158
61 97 157
61 97 155
61 97 158
62 98 166
61 97 159
62 98 165
61 97 161
62 99 168
62 98 163
61 97 162
63 99 167
61 97 161
62 98 162
62 99 171
61 97 162
61 97 160
62 98 168
61 97 160
61 97 162
61 97 158
62 98 165
61 98 165
63 99 170
61 97 158
62 98 161
61 97 160
62 97 164
61 97 157
62 98 165
62 98 162
62 98 164
62 99 167
62 98 161
61 98 166
63 99 170
61 97 161
62 98 168
63 100 172
62 99 166
61 98 159
62 98 157
61 97 160
61 97 157
62 99 168
62 98 164
62 98 167
62 98 161
62 98 164
62 98 168
62 98 164
61 97 155
61 97 160
62 98 166
61 97 157
63 99 168
62 99 167
61 97 159
63 99 164
62 98 161
62 98 158
62 98 166
63 99 168
61 97 158
62 98 162
62 99 167
62 98 167
62 98 162
61 98 160
62 99 168
61 97 158
62 98 163
62 98 165
62 98 162
61 97 160
62 98 164
62 98 162
61 98 160
62 98 161
62 98 161
62 98 165
62 98 161
62 98 164
62 98 159
62 98 161
61 97 161
62 98 163
61 97 154
62 98 163
62 98 162
61 97 158
61 97 158
63 99 161
62 98 165
62 98 162
61 97 158
62 98 159
62 98 163
62 97 152
61 97 158
62 98 161
63 99 162
62 98 159
62 97 154
62 98 162
62 99 168
62 99 169
61 97 157
62 97 153
61 97 159
62 98 160
62 98 159
62 98 158
61 97 155
62 98 154
62 98 159
63 98 160
61 97 155
62 98 161
62 97 158
62 97 157
62 98 159
60 96 148
61 97 152
61 96 155
61 96 153
61 96 148
61 97 163
62 98 157
62 98 159
62 97 157
61 96 147
61 96 145
61 95 142
62 97 152
60 95 145
61 97 149
61 95 148
61 96 145
60 94 146
60 95 150
59 93 141
60 94 140
58 92 138
60 94 142
58 91 137
59 92 132
67 93 128
85 90 55
97 95 0
91 88 0
88 85 19
95 93 14
87 85 12
87 84 14
84 83 14
85 82 0
87 85 9
89 87 11
86 86 25
93 91 0
89 87 16
96 94 0
90 89 14
99 98 23
99 97 8
94 93 21
108 105 25
100 98 20
100 97 11
95 95 18
104 102 23
112 108 26
106 104 32
104 103 23
113 111 14
111 109 29
106 104 31
112 109 24
108 104 0
115 112 30
113 111 27
108 106 20
112 111 26
124 120 30
112 109 32
118 114 39
128 124 36
127 124 32
126 122 37
125 121 31
131 128 34
128 123 37
119 115 32
122 120 32
131 127 37
123 119 39
130 125 30
136 130 42
133 130 39
135 131 39
132 128 28
129 125 45
135 130 41
131 127 29
137 133 42
137 132 36
129 125 30
142 135 46
136 132 31
139 133 43
129 124 37
131 128 37
133 129 34
133 127 39
136 132 36
137 132 44
136 131 39
132 126 34
145 140 42
144 137 45
135 130 36
136 131 48
135 129 34
123 119 28
137 131 42
136 131 37
130 126 30
126 122 28
129 124 25
138 134 34
124 120 32
129 124 32
130 125 25
131 126 37
135 129 25
131 127 37
137 131 34
122 117 41
133 127 32
123 119 30
118 114 28
125 121 34
125 120 39
123 121 22
135 134 25
131 129 22
140 143 28
138 141 28
132 135 25
146 153 28
143 149 22
147 155 34
140 149 16
142 149 11
153 163 11
152 163 11
155 166 19
162 176 0
162 178 0
159 174 0
167 181 0
169 184 0
162 179 0
165 181 0
166 183 0
163 180 0
165 181 0
168 185 0
163 180 0
166 184 0
167 185 0
163 179 0
165 182 0
162 177 0
165 182 0
164 182 0
171 191 0
163 180 0
160 178 0
167 183 0
168 187 0
167 186 0
168 186 0
185 206 135
190 210 144
187 207 142
188 209 144
189 209 153
189 209 147
188 209 151
187 207 149
192 212 167
190 210 159
190 210 153
195 215 175
195 214 184
196 215 189
196 215 184
195 215 179
197 216 189
196 215 186
195 215 182
199 219 194
199 218 196
200 219 191
200 219 196
199 218 194
195 215 184
200 219 199
200 219 194
204 222 211
203 222 211
201 220 204
202 221 207
201 220 206
204 223 218
206 224 218
202 221 204
204 222 215
204 223 217
202 221 212
203 221 207
204 222 206
203 221 214
205 223 217
203 221 209
201 219 204
202 220 206
200 219 196
205 223 214
202 220 209
203 221 207
202 221 203
206 224 220
203 221 211
204 222 212
202 221 207
203 221 209
200 219 203
202 221 209
197 216 193
201 220 203
201 220 201
201 219 203
199 217 193
197 216 182
200 219 198
204 221 203
198 217 193
197 217 193
198 216 188
197 216 189
192 211 169
194 213 175
191 211 165
196 216 186
188 208 166
188 208 161
181 201 164
183 202 179
166 186 162
158 178 158
153 174 154
139 162 144
142 163 148
128 150 163
129 153 162
131 155 144
101 128 147
98 126 156
88 117 153
86 116 152
79 110 140
80 112 151
71 103 142
82 112 149
80 111 151
74 106 149
70 103 141
74 106 145
68 102 156
66 101 149
68 102 155
70 103 156
66 100 157
67 102 157
67 102 156
65 99 147
67 101 151
64 99 160
63 98 151
61 97 155
63 99 160
62 97 153
60 96 157
61 97 158
63 99 158
62 98 157
62 99 169
61 97 157
61 97 162
61 97 161
61 97 160
62 98 163
62 98 163
61 98 161
62 98 164
62 98 168
62 98 162
62 98 165
61 97 162
62 99 165
61 97 156
62 98 167
61 97 159
63 99 168
62 98 167
62 98 162
61 97 156
62 99 167
62 98 162
61 98 163
62 98 165
61 97 155
62 98 167
62 99 166
62 98 162
62 98 161
62 98 164
62 98 163
61 98 162
62 98 165
61 98 167
61 98 168
62 99 169
62 98 164
62 98 164
62 98 166
60 96 156
62 98 165
62 98 162
62 98 164
61 98 163
62 98 161
62 98 167
63 99 172
61 98 162
61 98 164
62 98 160
62 98 166
61 96 157
62 98 165
62 98 162
62 98 159
61 97 160
62 99 166
62 99 169
61 97 158
62 98 161
62 98 167
61 97 157
62 98 164
62 98 168
61 98 163
62 98 166
62 99 170
62 98 163
62 98 164
62 98 162
61 97 158
63 99 165
63 99 168
62 98 165
62 98 166
62 98 163
62 98 161
62 98 164
62 98 163
61 98 162
62 98 159
61 97 155
62 98 162
61 97 153
62 99 166
61 97 160
62 97 157
61 97 156
62 98 163
61 97 155
61 97 157
62 98 162
62 97 152
62 98 158
62 98 163
62 98 161
61 97 162
62 98 161
62 98 161
61 97 162
63 99 166
62 98 165
61 97 153
62 98 163
61 96 148
62 98 165
61 97 163
61 97 155
62 99 163
62 97 152
63 99 163
61 97 153
62 98 161
62 98 158
61 97 158
61 97 157
62 97 153
61 96 158
61 97 152
60 96 147
61 96 153
62 97 156
61 96 150
62 98 165
62 98 158
61 96 148
63 99 165
62 97 154
62 97 153
62 98 160
61 96 149
61 96 146
60 96 154
61 96 144
60 95 140
62 97 154
60 95 149
60 94 141
61 95 143
61 96 147
60 94 136
60 94 143
58 92 130
60 94 145
60 95 140
59 93 149
58 91 134
71 95 120
83 88 55
94 95 0
85 85 14
76 76 11
89 86 9
93 91 3
93 89 21
95 92 14
95 92 0
96 92 14
98 94 14
87 85 8
82 80 3
88 86 14
89 87 16
96 94 16
98 95 8
86 83 12
104 100 24
97 95 21
96 94 22
109 107 20
97 94 18
110 106 18
108 104 20
103 101 21
111 109 22
112 110 23
108 105 22
117 113 26
114 111 24
112 109 18
102 101 24
115 113 28
118 115 37
115 111 29
128 124 35
131 128 21
119 116 28
126 123 25
115 111 28
122 118 37
125 122 35
118 115 30
134 129 34
121 118 39
123 119 36
126 120 36
128 124 32
126 121 39
129 124 42
132 127 32
122 118 29
132 128 38
134 128 44
134 130 32
134 129 40
129 124 37
138 133 37
136 131 37
131 128 34
132 126 36
131 126 36
137 133 39
140 137 32
135 131 34
131 127 28
131 127 32
137 133 28
139 133 44
140 134 42
136 131 39
139 134 28
132 126 39
137 132 41
120 115 22
134 129 39
131 126 36
125 120 25
134 129 34
131 127 32
124 119 36
129 124 39
135 130 34
129 123 30
127 122 36
132 126 41
131 125 25
129 124 39
123 119 25
124 118 28
131 125 34
126 121 34
127 122 30
123 121 32
134 132 36
137 137 28
128 126 28
133 130 28
140 141 22
130 132 22
142 147 28
148 153 28
145 152 16
150 158 22
149 156 22
150 162 19
162 174 16
148 161 11
161 176 0
159 174 11
159 173 0
159 172 0
167 184 0
165 182 0
163 177 0
164 182 0
162 179 0
162 176 0
163 181 0
165 182 0
160 178 0
164 182 0
162 182 0
166 185 0
165 183 0
164 183 0
167 186 0
161 178 0
165 184 0
167 185 0
165 185 0
163 182 0
168 187 0
166 184 0
164 182 0
184 205 137
191 211 149
187 207 137
191 211 155
194 214 179
192 212 159
191 211 161
194 213 179
194 214 173
198 217 188
195 214 173
195 215 184
197 216 184
197 216 191
197 216 179
199 218 198
197 217 191
202 220 207
193 213 182
199 218 194
201 220 203
205 223 217
199 218 194
201 220 204
202 221 207
201 220 201
203 221 207
206 224 218
202 221 206
202 221 209
205 223 218
205 223 217
207 224 221
203 221 209
205 223 212
205 223 218
205 223 217
203 221 207
203 221 206
208 225 221
205 223 218
206 224 220
202 220 198
206 224 215
204 223 214
205 223 214
204 223 218
208 226 231
209 226 230
207 225 220
206 224 217
203 222 207
202 220 203
206 223 215
201 220 204
200 219 199
205 222 217
202 221 207
204 223 217
205 223 214
206 224 217
205 223 214
196 214 191
198 218 193
197 216 189
201 219 193
193 212 165
198 217 189
199 218 191
196 215 177
197 216 184
195 214 189
201 219 194
192 211 181
198 217 191
188 207 174
175 195 180
165 185 177
163 183 186
157 178 181
157 178 178
146 167 182
139 160 170
126 150 151
131 155 156
111 136 162
108 134 157
98 125 144
102 128 143
80 111 155
93 122 153
76 109 156
84 115 150
82 112 153
82 113 152
78 109 144
70 104 164
75 107 154
78 109 145
65 99 154
73 106 153
63 98 151
66 99 143
69 102 154
63 98 153
65 100 158
66 101 163
72 105 152
66 101 152
61 97 156
62 98 163
63 99 161
63 98 154
66 100 157
66 101 159
60 96 156
60 97 160
61 97 159
62 97 157
61 97 160
61 97 153
61 97 160
61 98 163
61 97 163
61 97 161
62 98 164
61 97 164
61 97 158
61 98 165
61 97 157
62 98 165
62 98 159
62 98 164
61 97 162
62 99 165
62 98 161
62 98 162
61 97 160
62 98 165
62 98 169
62 98 162
61 98 160
61 98 163
62 98 163
61 97 161
62 97 156
62 98 163
62 99 167
62 99 169
61 97 159
61 97 161
62 98 161
62 99 167
61 98 165
63 99 168
62 98 164
61 97 154
62 98 160
61 97 160
61 97 159
62 98 166
61 97 161
61 97 162
62 99 166
62 99 167
62 98 166
61 98 163
62 98 163
61 98 167
62 98 163
62 98 164
62 98 160
62 98 164
62 98 165
61 97 160
61 97 159
62 98 160
62 98 160
62 98 162
62 98 159
61 96 153
62 98 165
61 98 160
62 97 153
63 99 165
62 98 161
62 98 164
62 98 157
62 98 160
61 98 163
62 98 165
61 97 158
61 97 162
63 99 165
62 98 164
62 98 160
61 97 155
62 98 159
63 99 168
62 98 155
61 97 156
62 98 162
63 99 166
62 97 156
62 98 161
62 98 159
61 97 156
61 98 159
62 98 165
62 98 158
61 97 155
61 97 157
62 99 167
61 96 150
62 99 163
62 98 157
61 97 157
61 97 163
61 97 155
62 97 160
61 97 161
62 98 157
62 98 160
62 98 161
62 97 157
61 98 159
62 98 155
62 97 155
62 98 161
62 97 155
61 97 150
61 97 155
62 97 155
62 98 157
60 96 153
62 98 155
62 97 160
63 98 158
61 96 152
62 98 157
61 97 152
60 96 144
62 97 151
63 99 159
61 96 152
62 97 152
62 97 152
60 95 142
61 96 150
61 96 148
62 97 154
61 96 147
61 96 150
61 96 148
61 95 141
61 95 147
60 94 145
61 95 144
60 96 149
59 93 143
61 96 149
59 92 135
58 91 137
61 87 115
94 99 52
87 85 8
112 111 24
87 84 16
77 75 8
80 78 14
92 89 14
87 83 8
83 81 11
96 92 12
92 89 5
78 78 11
90 86 16
93 92 10
99 97 16
86 85 8
81 83 18
97 95 18
94 92 26
95 95 18
91 90 11
103 101 24
102 101 23
102 100 21
99 98 14
114 111 23
113 111 14
103 101 14
103 101 22
112 110 21
111 108 21
110 107 19
119 115 29
122 120 22
116 114 0
111 108 24
110 108 25
117 114 26
117 113 35
122 120 29
119 117 29
123 118 24
116 113 19
123 120 31
120 116 28
130 125 37
135 132 33
126 122 26
126 123 38
121 118 28
124 122 29
136 131 42
134 131 32
131 127 36
131 127 30
142 138 25
135 131 30
128 126 34
128 123 29
134 130 34
127 123 34
128 123 34
135 130 37
140 135 36
139 133 45
132 127 34
129 126 30
127 123 32
136 132 36
136 129 34
130 125 37
141 136 41
141 136 34
130 125 30
131 127 28
128 124 32
131 125 37
125 119 32
133 128 30
133 127 32
124 121 19
140 134 42
132 126 41
135 128 39
136 130 36
129 124 39
125 119 30
129 123 28
127 122 32
124 119 32
131 126 34
134 130 30
124 120 25
128 122 34
139 135 37
136 134 25
130 130 11
135 136 22
135 136 19
137 140 22
140 144 25
141 146 19
149 154 19
149 156 16
152 164 11
156 170 11
159 173 16
155 165 11
155 167 11
156 169 0
164 177 0
164 179 0
160 175 0
157 171 0
157 172 0
164 181 0
168 183 0
165 181 0
167 184 0
165 182 0
158 174 0
164 181 0
165 181 0
167 185 0
170 189 0
166 182 0
164 182 0
165 182 0
167 186 0
168 187 0
168 186 0
163 181 0
168 188 0
167 185 0
166 185 0
167 187 0
192 211 167
195 213 173
192 212 167
197 216 177
190 210 159
195 214 179
201 219 191
194 214 173
195 214 181
191 212 171
195 215 179
197 217 193
201 220 204
197 217 184
201 220 198
201 220 198
198 218 194
203 222 211
202 221 206
202 221 206
204 222 215
201 220 199
205 223 217
206 224 224
204 223 215
199 218 194
204 222 212
206 224 218
204 223 215
209 226 231
206 224 217
208 225 224
208 226 227
204 222 212
206 224 223
207 225 223
206 225 226
210 228 237
208 226 231
210 228 234
206 224 223
205 223 212
208 226 227
208 226 226
207 225 227
206 225 226
209 226 228
206 224 221
208 226 228
206 224 220
207 224 220
205 223 215
207 225 220
207 224 224
205 223 215
205 224 220
206 224 221
205 223 215
206 224 217
205 224 220
207 225 217
203 221 206
204 223 212
203 221 211
203 221 207
202 220 199
201 219 199
202 221 199
203 221 204
199 217 199
200 218 194
194 213 179
197 216 186
198 217 192
188 208 187
182 202 178
180 199 199
168 188 186
149 170 165
156 176 189
147 168 184
142 163 189
138 160 168
127 150 159
132 155 176
113 138 169
109 134 154
106 133 162
96 123 153
84 114 144
88 117 148
85 115 152
76 108 153
83 114 142
79 110 147
77 109 153
83 114 153
71 104 152
66 101 159
67 101 153
67 102 163
76 108 155
65 100 155
68 102 159
70 104 153
65 100 161
64 99 156
63 97 154
69 103 153
63 99 159
63 98 152
62 98 153
62 97 149
62 97 159
63 98 155
61 97 159
61 97 154
62 98 165
61 97 158
61 98 160
60 96 155
61 98 165
62 98 164
62 98 168
61 97 158
62 98 158
61 98 163
62 98 165
61 97 157
61 98 166
61 97 157
62 98 167
62 98 167
61 97 160
62 99 172
61 97 162
61 98 161
62 98 166
62 98 164
61 98 159
62 98 170
61 97 165
61 98 166
62 98 159
62 99 169
62 98 167
62 97 161
62 99 167
61 97 162
61 97 160
61 97 160
63 99 166
63 99 165
61 97 156
61 98 166
63 99 163
62 98 165
62 98 164
63 99 162
62 98 160
62 98 167
61 97 156
62 98 165
63 99 170
62 98 167
63 99 163
62 97 156
61 97 157
62 98 158
61 97 159
63 99 166
63 99 169
61 97 158
62 98 163
61 97 157
61 97 156
62 99 166
61 97 157
62 98 167
62 98 160
62 98 158
62 98 162
62 98 162
61 97 154
62 98 159
61 98 161
61 97 162
62 98 163
61 97 154
62 98 165
63 99 169
61 97 157
62 98 160
62 98 162
61 97 154
62 98 165
62 99 168
61 98 158
61 97 158
62 98 160
63 99 162
61 97 160
62 98 161
62 99 166
62 98 162
62 98 163
62 98 155
62 97 156
62 98 161
62 98 160
62 98 163
63 99 168
62 98 162
62 98 159
62 98 164
62 98 163
61 97 158
63 99 163
62 98 155
62 98 157
61 97 156
62 98 162
62 98 161
62 98 161
61 97 155
61 97 157
62 98 158
63 99 166
61 97 157
61 97 154
61 97 152
61 97 154
62 97 155
61 97 156
61 97 154
60 95 143
61 96 149
60 96 153
60 95 150
61 97 151
61 96 148
61 97 155
60 96 149
60 95 149
62 97 154
62 98 154
62 97 150
61 96 153
61 96 152
62 97 153
61 96 150
61 96 146
62 96 150
60 95 142
61 96 146
61 96 151
59 94 145
60 95 148
61 95 146
59 93 139
58 91 134
61 95 150
59 92 136
62 82 87
85 89 33
93 93 0
101 100 0
97 98 18
96 98 8
100 99 18
96 95 8
92 88 14
89 87 8
81 80 14
87 84 11
89 87 12
84 83 3
91 89 8
92 91 14
95 93 8
86 87 12
101 97 18
97 94 12
115 111 19
97 94 18
108 104 14
105 102 8
103 101 9
96 93 12
95 94 12
115 109 16
122 119 16
113 109 19
104 102 8
116 111 19
110 109 16
116 112 16
124 121 24
112 109 22
115 111 30
116 113 25
120 118 11
111 109 27
114 110 21
108 105 19
126 121 32
122 119 31
116 113 36
128 123 32
124 120 30
129 125 34
124 120 31
127 122 34
124 121 26
122 119 25
134 130 24
127 124 35
131 125 30
129 125 28
121 116 29
126 121 25
135 131 36
123 119 33
134 130 25
126 122 25
127 122 32
134 129 28
128 125 28
134 128 39
128 122 32
136 131 32
127 122 28
141 135 39
132 128 30
136 132 28
135 129 44
132 128 28
138 133 30
131 127 28
131 125 36
125 121 25
134 129 34
136 131 34
131 127 30
125 120 32
133 128 30
116 112 30
123 118 36
126 121 34
132 126 32
112 108 22
127 123 32
120 115 25
127 122 30
123 121 30
131 128 44
139 138 32
138 138 19
126 127 11
133 133 34
132 133 28
144 145 34
135 135 22
140 144 25
142 147 19
141 148 0
152 161 16
147 153 16
148 158 11
152 165 0
154 165 0
153 164 0
157 170 0
161 175 0
157 171 0
165 181 0
161 175 0
166 182 0
160 176 0
162 176 0
158 173 0
160 176 0
164 179 0
167 183 0
165 183 0
165 182 0
164 182 0
168 186 0
163 179 0
165 182 0
166 184 0
168 185 0
168 185 0
163 181 0
169 188 0
168 187 0
162 181 0
169 189 0
168 184 0
165 185 0
196 215 177
189 209 155
197 216 175
194 214 169
201 220 204
192 212 165
194 214 179
196 215 182
198 217 186
193 213 169
202 220 199
195 215 182
201 219 203
199 218 191
203 222 209
203 222 207
203 222 214
202 221 211
204 222 206
204 222 211
205 223 217
203 222 212
206 224 220
207 225 223
208 225 224
204 222 211
205 224 220
208 225 226
210 227 231
206 224 224
206 225 226
208 226 226
207 225 223
208 225 223
210 228 233
208 226 224
210 227 230
208 226 224
209 226 233
211 228 236
212 229 236
210 227 228
211 228 234
211 228 234
211 228 237
209 226 230
208 225 227
209 226 221
210 227 230
210 227 233
207 225 220
211 228 236
208 226 226
209 226 227
208 226 226
207 225 224
207 225 223
208 225 226
206 224 217
208 225 221
204 223 214
205 223 214
206 224 215
202 220 203
203 221 204
205 223 215
205 223 215
202 220 199
202 221 203
204 222 212
202 220 203
201 220 201
199 218 193
199 217 194
187 206 198
179 198 196
175 195 187
164 183 175
153 173 187
150 171 186
162 182 192
128 151 173
131 154 179
134 156 184
119 143 173
126 149 168
117 140 168
91 119 161
97 125 152
90 119 157
87 117 158
83 114 159
81 112 151
77 109 152
79 110 154
72 105 144
77 110 156
79 109 139
69 103 154
82 113 147
71 104 154
70 104 160
71 104 153
77 109 153
64 99 157
63 98 145
63 99 158
64 99 142
69 103 151
63 98 157
61 97 159
65 99 154
68 102 154
65 100 155
63 98 156
61 97 160
63 99 163
61 97 153
60 96 151
61 97 158
62 98 162
61 97 156
61 96 154
62 98 164
61 97 157
61 97 152
62 99 169
59 95 151
62 98 166
62 98 167
62 98 164
61 97 161
62 98 163
61 97 159
60 96 152
62 98 166
62 98 163
61 98 163
62 98 160
61 97 159
61 97 163
61 97 161
62 98 165
61 97 159
62 98 163
62 98 158
62 98 162
62 98 162
62 98 158
61 98 160
61 98 167
62 98 165
62 98 160
62 98 158
62 98 163
62 98 160
62 98 161
61 97 155
61 98 163
63 99 163
62 98 167
62 99 170
61 97 158
62 99 165
61 97 158
62 98 164
61 97 155
62 98 164
62 98 166
62 98 166
62 98 163
62 99 165
61 98 160
62 98 164
62 98 157
63 99 165
62 98 166
62 98 164
63 99 166
62 99 166
61 97 156
60 96 154
62 98 163
61 98 166
63 99 162
62 98 157
62 98 159
61 97 159
61 97 151
63 99 165
63 99 168
62 98 167
62 98 160
62 98 157
62 98 164
62 98 163
62 98 160
62 98 162
61 97 154
61 97 158
62 98 158
63 99 161
62 98 163
62 98 161
61 97 151
62 98 161
62 99 167
62 98 159
62 98 157
62 98 161
61 98 159
61 97 155
62 98 161
61 96 149
62 98 158
61 96 152
63 98 159
62 98 168
61 97 156
63 99 169
61 97 155
62 98 165
62 98 161
62 97 155
61 97 155
62 98 160
61 96 150
62 98 150
61 97 155
61 96 150
63 99 168
61 97 155
61 97 153
62 98 158
63 99 162
61 97 153
62 98 162
63 98 157
61 96 147
62 97 152
62 97 144
61 97 164
61 96 148
60 95 145
62 97 155
62 98 152
62 98 158
61 96 144
61 96 152
62 97 152
61 96 154
62 97 154
61 97 145
59 94 136
60 94 146
62 96 151
60 95 142
60 94 142
60 95 142
60 93 135
61 95 143
58 90 128
58 91 132
77 93 99
102 105 50
98 99 11
92 91 16
101 99 16
84 84 0
93 90 0
88 87 9
93 91 8
97 94 0
95 92 18
84 83 8
94 92 11
90 87 8
82 78 12
96 93 18
100 96 16
98 94 8
92 89 9
88 87 12
90 89 18
85 83 3
102 99 11
91 90 16
103 102 19
105 103 0
104 102 11
107 105 22
114 112 18
101 98 18
95 94 14
111 108 21
106 102 11
113 109 22
110 106 18
109 105 18
116 112 19
118 114 19
114 111 14
118 115 22
124 120 30
116 112 22
114 111 16
122 118 16
122 117 25
126 122 24
114 112 29
126 121 35
124 119 30
129 124 32
133 128 32
120 117 30
134 131 31
125 122 22
131 126 32
135 130 37
121 115 22
127 124 30
134 129 34
135 129 30
132 128 32
127 122 25
133 128 32
138 132 36
127 124 22
134 130 25
136 131 30
136 131 39
132 126 30
135 131 22
128 125 25
121 117 22
130 125 36
126 120 32
129 125 32
133 128 30
120 117 25
131 125 34
132 127 39
127 121 32
127 123 28
127 123 28
123 118 28
125 119 34
119 116 30
120 114 22
123 118 28
120 115 36
125 120 34
124 119 30
127 124 22
125 121 22
130 128 16
135 134 30
124 124 22
128 127 32
138 141 19
122 123 25
136 138 25
140 146 19
142 151 19
137 142 19
145 154 11
159 171 16
152 160 11
157 171 11
157 166 16
159 171 11
160 173 0
157 169 0
160 172 0
163 177 0
161 175 0
162 177 0
164 178 0
166 181 0
165 181 0
166 183 0
164 177 0
162 178 0
158 172 0
169 185 0
163 180 0
160 174 0
161 176 0
165 181 0
168 186 0
165 181 0
165 182 0
166 184 0
163 179 0
168 187 0
166 183 0
170 189 0
168 188 0
165 182 0
165 186 0
193 212 173
195 213 171
190 211 155
192 213 169
200 218 196
201 220 203
197 217 188
198 217 198
198 218 196
198 218 193
198 217 196
203 221 212
200 219 198
200 219 199
206 224 221
203 221 207
203 222 215
202 221 206
205 223 218
205 224 217
205 223 220
205 223 215
207 225 224
206 225 224
206 224 221
209 227 230
208 225 226
210 227 230
212 229 238
207 225 223
212 229 238
209 226 231
211 228 234
212 229 236
213 229 238
213 230 241
210 227 231
212 229 240
206 224 223
210 228 233
213 229 238
211 228 234
211 228 236
211 228 234
214 230 240
211 228 236
215 231 245
212 228 231
211 228 234
212 228 238
213 229 234
211 228 234
211 228 233
216 232 248
211 228 233
210 227 231
208 225 223
210 227 228
211 228 233
206 224 218
212 228 238
203 222 209
210 227 231
211 228 233
205 222 207
207 225 220
209 226 223
209 226 224
205 223 215
202 220 199
206 224 217
204 222 206
199 217 198
198 217 196
191 209 211
184 203 210
178 196 195
168 188 201
155 175 191
159 179 200
151 172 198
147 168 197
135 157 187
125 148 177
115 140 171
116 140 173
109 134 166
109 134 166
112 137 161
101 128 158
86 116 158
98 126 164
84 115 153
76 108 142
78 110 152
76 107 144
74 106 150
74 106 152
78 110 158
71 104 147
73 106 155
65 99 147
73 106 157
64 99 148
69 102 148
66 101 156
64 99 154
65 100 155
62 98 161
63 99 163
64 99 156
66 101 159
61 97 160
64 99 162
62 97 149
64 99 157
63 98 149
64 99 157
64 99 163
62 98 163
62 98 162
62 98 161
62 98 162
61 97 159
62 97 158
61 97 159
60 96 158
61 98 169
61 97 160
61 96 154
62 97 154
61 97 155
61 97 157
62 97 156
61 98 163
61 97 160
62 98 163
61 97 159
61 97 160
63 99 169
61 97 158
61 97 158
61 97 158
61 98 165
63 99 172
62 97 154
61 97 163
62 98 158
61 98 161
62 99 166
61 97 155
62 98 163
61 97 162
63 99 162
62 98 163
61 97 157
62 98 162
62 98 163
62 98 166
61 97 160
62 99 170
62 98 162
62 98 159
62 98 159
62 98 160
62 98 165
62 98 160
62 98 163
62 98 165
62 98 164
61 97 158
62 99 167
63 99 167
61 98 161
62 98 162
62 98 166
62 98 164
62 98 161
61 97 155
62 98 159
62 98 164
62 98 162
63 99 166
62 98 162
62 99 165
63 99 167
62 99 165
62 98 161
62 98 160
61 97 154
63 99 163
62 98 162
62 98 160
62 98 161
61 97 161
62 98 164
63 99 168
62 99 166
62 98 160
61 97 151
62 98 165
62 98 161
62 98 163
63 99 167
61 97 160
62 98 161
62 98 167
62 98 161
62 98 161
62 97 158
61 97 155
61 97 156
60 95 150
62 98 155
62 98 159
62 98 162
61 97 161
62 98 158
62 98 161
62 98 166
61 97 155
62 98 155
61 97 150
61 97 157
61 97 156
62 97 156
61 97 154
64 100 167
62 98 158
61 97 153
61 96 158
61 96 156
62 98 156
61 96 147
61 96 156
63 99 160
61 96 149
61 96 150
61 96 154
61 97 147
60 96 147
60 96 150
61 97 154
61 96 147
62 97 157
61 96 150
61 97 154
61 96 150
60 95 139
61 97 156
61 95 136
61 96 145
61 95 148
61 96 153
60 95 141
60 95 139
59 93 132
61 95 145
59 92 134
60 94 141
60 93 135
58 91 124
61 91 132
84 97 87
96 101 42
108 111 11
95 96 0
86 86 0
102 102 14
92 90 8
97 96 14
93 91 12
91 88 0
94 90 8
98 96 18
87 86 0
100 98 11
93 90 12
97 94 0
95 92 12
97 93 0
85 83 0
97 94 16
97 95 14
94 91 0
90 88 18
96 94 18
98 97 21
106 102 16
103 99 21
95 94 8
102 98 8
108 106 16
109 106 0
113 110 22
111 107 27
113 110 24
109 108 20
103 101 19
125 121 29
107 104 24
112 107 18
114 111 8
116 111 24
123 119 30
125 121 24
112 110 11
116 112 24
113 110 25
120 117 22
119 115 16
130 126 24
130 125 25
123 118 25
126 123 19
121 117 25
125 121 22
127 122 30
126 123 30
128 124 30
126 121 14
128 123 31
128 125 29
131 126 25
128 124 30
124 121 11
118 115 25
129 123 34
130 126 16
132 127 34
132 126 41
130 126 30
131 126 30
122 117 34
127 123 30
120 116 19
130 125 36
122 117 25
128 123 28
125 121 22
126 122 28
125 119 28
124 119 22
136 131 28
129 124 34
125 120 19
128 123 30
121 117 16
123 120 34
107 102 19
117 113 25
128 123 32
125 122 22
116 111 25
122 119 16
129 128 22
131 128 25
130 131 19
132 132 25
132 134 19
135 135 19
135 137 16
145 154 19
137 144 11
144 150 11
146 153 16
146 152 16
149 161 0
161 173 11
158 170 0
163 177 11
152 165 0
157 171 0
165 180 0
165 182 0
155 171 0
160 175 0
165 182 0
166 182 0
158 172 0
165 181 0
159 174 0
165 183 0
165 181 0
162 178 0
164 182 0
168 184 0
164 183 0
164 182 0
166 184 0
164 181 0
166 183 0
170 190 0
165 184 0
167 185 0
165 181 0
164 181 0
168 185 0
166 186 0
169 188 0
200 219 194
199 218 201
198 217 193
199 218 193
200 219 199
199 218 193
201 220 201
199 218 191
203 221 209
202 220 204
204 223 218
200 219 203
207 225 223
206 224 215
205 223 215
204 221 207
206 224 220
205 223 218
206 224 218
206 224 217
208 226 226
208 226 227
207 225 223
208 226 227
212 229 240
209 226 230
215 231 244
213 230 238
212 229 237
212 229 241
215 231 246
211 228 236
214 230 244
209 226 227
211 228 231
214 231 245
212 229 238
214 231 244
213 230 241
214 231 242
212 229 241
212 229 236
211 228 233
211 228 234
210 226 228
211 228 234
210 227 228
209 227 228
212 229 238
211 228 237
211 228 236
214 230 240
212 228 236
213 229 237
212 229 238
212 229 236
210 227 228
213 230 240
211 228 234
213 230 238
207 225 226
213 229 238
213 229 241
210 227 230
210 227 231
211 228 233
210 228 236
209 226 226
206 224 218
204 222 214
206 224 215
210 227 230
198 216 214
200 218 217
197 215 220
186 205 214
177 196 207
174 194 211
156 176 196
150 170 197
143 164 199
152 173 202
140 162 192
126 149 178
138 160 199
127 150 194
123 147 184
104 129 174
103 129 174
105 131 171
96 123 158
86 116 163
89 118 158
78 109 150
77 109 157
72 105 155
73 106 157
76 109 157
70 102 143
65 99 149
70 103 152
71 104 154
73 106 157
67 101 149
67 101 156
69 103 152
65 100 162
61 97 155
67 102 160
61 96 149
63 98 153
63 98 155
61 98 160
63 98 154
63 98 151
63 98 152
63 99 154
63 97 151
62 98 162
61 97 159
61 97 157
62 98 160
62 98 159
61 97 156
62 98 160
61 97 156
61 97 165
61 96 157
60 96 155
60 97 158
61 98 160
62 98 165
61 97 158
62 98 162
62 99 168
61 97 156
62 98 162
62 98 163
61 97 150
61 97 159
62 98 159
61 96 156
61 97 160
62 98 162
61 97 156
61 98 161
62 98 159
62 98 160
63 99 167
61 97 155
61 97 154
61 97 160
62 98 166
61 97 155
61 97 155
62 98 161
63 99 170
62 98 164
62 98 159
61 97 161
62 98 163
62 98 163
62 98 162
62 98 157
62 98 162
61 97 156
62 98 162
62 98 164
62 98 159
62 98 161
61 97 157
61 98 165
62 98 164
61 98 163
62 98 159
62 98 158
62 98 162
62 98 167
63 99 167
63 98 158
61 97 161
62 98 158
62 98 166
62 98 162
62 98 163
62 98 162
62 98 160
62 98 160
62 98 158
61 97 158
61 97 163
61 97 155
62 98 158
61 97 159
62 99 166
63 99 164
62 98 161
62 97 156
63 99 161
61 96 150
61 97 159
62 98 162
61 97 156
62 98 161
62 98 161
61 97 159
62 98 159
61 97 160
62 98 164
61 98 159
61 97 156
62 98 165
62 99 165
64 100 168
61 96 148
62 98 158
62 98 156
62 98 162
62 97 155
62 98 161
62 98 157
61 96 149
62 97 158
61 97 152
61 97 151
62 98 158
62 98 158
62 97 152
61 97 155
61 96 153
61 97 160
62 97 152
62 98 154
62 97 155
62 98 157
61 97 154
61 97 144
61 97 156
62 98 157
61 97 154
62 97 154
61 97 147
62 97 150
61 97 151
62 98 156
61 96 148
62 98 156
62 98 153
61 96 146
61 96 145
61 96 150
61 97 145
61 96 150
61 95 144
61 96 147
60 95 143
61 95 150
59 94 136
60 94 134
59 93 137
59 91 131
60 93 134
59 90 116
79 89 72
106 108 44
87 89 14
87 87 14
102 99 11
98 100 14
93 95 16
101 98 12
88 86 0
98 93 18
95 93 11
82 78 14
100 101 16
84 82 0
83 81 8
91 88 8
87 83 14
94 91 8
97 94 0
98 94 11
99 96 11
103 101 18
100 96 11
92 91 16
105 101 8
90 90 8
99 96 11
102 100 14
105 104 0
109 106 16
108 106 18
103 102 12
101 97 18
109 105 11
100 97 16
121 117 28
123 119 26
109 106 21
102 99 16
107 105 11
111 108 21
120 117 19
120 117 21
119 115 19
126 122 22
113 111 16
120 116 21
117 113 16
121 118 22
125 121 23
123 121 18
131 126 34
121 117 26
124 120 22
130 126 28
127 123 30
123 118 19
125 120 30
123 119 22
129 124 30
120 116 21
133 128 22
134 128 30
140 133 45
129 123 32
129 124 22
130 125 25
130 125 22
137 131 36
122 116 25
127 122 19
131 125 25
134 127 36
133 126 30
124 120 30
135 129 36
133 127 30
118 114 16
123 118 30
129 125 25
122 116 22
112 108 16
130 125 30
124 120 28
108 103 32
127 124 22
124 119 32
123 120 25
116 114 11
123 121 22
132 129 34
130 128 25
136 136 34
136 136 16
129 129 11
140 143 16
136 135 19
139 142 28
148 153 11
149 155 22
144 152 11
151 159 16
156 166 11
156 165 0
158 168 0
157 170 0
156 167 0
156 167 0
161 174 0
163 178 0
156 171 0
166 181 0
162 176 0
167 185 0
163 178 0
162 177 0
164 178 0
169 183 0
166 182 0
164 182 0
162 176 0
165 182 0
165 182 0
164 180 0
162 179 0
160 178 0
168 187 0
167 184 0
164 181 0
165 183 0
165 185 0
163 180 0
165 185 0
164 182 0
165 184 0
167 185 0
166 183 0
196 215 182
200 219 198
200 218 198
199 218 196
201 220 203
203 222 209
201 220 201
200 219 196
201 220 206
202 221 204
204 222 211
205 223 209
206 224 215
207 225 221
209 226 230
211 228 234
205 222 214
208 225 226
211 228 231
211 228 233
212 229 237
211 228 233
211 228 237
213 230 241
212 229 236
213 230 242
211 228 234
211 228 236
211 228 236
211 228 234
212 229 236
212 229 237
213 230 237
212 228 234
210 227 231
211 228 233
211 227 230
212 229 237
209 226 224
212 229 237
212 228 236
213 229 238
213 229 237
211 228 231
214 230 240
211 228 231
213 229 240
210 228 233
212 229 233
215 231 244
212 228 231
214 230 237
215 231 244
213 229 236
213 229 236
211 228 233
211 227 230
211 227 230
211 228 234
213 229 236
210 227 228
211 228 234
209 226 230
213 230 238
213 230 238
209 226 226
212 229 234
211 227 231
208 225 218
208 225 218
209 227 228
205 223 216
198 217 214
190 209 204
196 213 207
180 199 207
173 192 214
175 194 217
168 187 217
163 182 212
153 174 205
139 160 199
142 164 199
133 155 194
138 160 190
127 150 188
112 137 178
124 147 188
118 142 185
106 131 167
111 136 165
91 120 167
89 118 163
75 107 160
75 107 158
82 113 151
71 104 157
83 114 153
74 106 149
69 103 152
71 105 158
68 102 150
67 101 154
64 99 152
72 105 156
79 111 158
68 102 155
70 103 159
63 98 159
63 98 156
63 98 151
65 100 154
62 98 158
62 98 161
61 97 160
64 99 158
61 97 160
63 98 151
61 97 156
61 97 160
61 97 157
62 98 161
61 98 162
60 97 158
62 98 165
62 97 155
61 97 160
61 96 148
62 98 160
62 98 165
61 97 160
62 98 163
61 97 161
61 97 160
62 98 163
62 98 158
62 98 160
62 98 166
61 97 156
61 97 162
62 98 162
62 98 162
62 98 169
62 98 163
61 97 156
62 98 162
62 98 166
61 97 156
61 97 156
62 98 160
61 97 160
61 97 159
62 98 163
61 97 158
62 98 162
62 98 164
62 98 153
61 97 154
61 98 160
62 98 164
62 98 160
62 98 159
62 97 155
61 97 156
62 99 165
62 98 160
63 99 167
62 99 165
62 98 159
62 98 167
62 97 156
61 98 164
62 98 159
61 97 157
62 98 159
61 97 154
61 97 150
62 98 167
61 97 154
62 98 165
62 98 159
62 98 163
62 98 160
61 97 158
61 97 163
61 98 164
62 98 164
62 97 157
62 98 162
62 97 159
62 98 165
62 98 162
62 98 164
62 98 160
61 97 159
61 97 151
61 97 156
61 97 157
62 98 158
62 98 158
63 99 162
61 97 155
63 99 162
62 98 159
61 98 162
62 98 162
63 98 162
61 96 152
63 99 164
61 97 154
60 96 147
62 97 157
63 98 159
61 97 150
61 97 151
61 97 155
62 98 162
61 97 152
62 97 155
61 97 156
61 97 149
62 98 163
62 98 155
62 97 152
61 97 149
61 97 159
61 96 143
61 97 151
62 98 159
62 98 160
61 97 158
62 98 156
61 96 143
62 97 157
60 96 144
62 98 154
61 96 150
62 98 161
61 97 154
61 97 152
61 97 152
61 96 155
61 97 158
61 96 145
61 96 154
61 97 153
60 95 145
61 96 145
59 94 134
62 98 154
61 96 148
61 95 145
62 97 155
60 95 149
60 94 141
61 96 150
59 94 136
60 95 142
58 91 135
59 94 139
59 92 132
58 91 131
67 94 124
78 90 68
101 103 25
96 98 0
103 104 11
107 108 14
95 93 11
88 89 0
88 86 8
99 98 0
91 90 0
90 89 16
100 97 0
91 88 16
88 85 0
89 86 8
84 83 8
93 88 12
104 98 8
91 87 12
104 100 20
98 94 18
100 96 11
89 86 19
103 100 14
102 100 14
95 93 3
108 104 8
103 99 0
98 95 14
107 104 0
100 96 0
106 103 14
119 114 18
97 96 16
113 108 22
111 108 14
113 108 11
98 96 0
117 113 12
108 106 18
117 113 18
121 117 22
122 117 22
116 113 28
125 120 22
121 116 20
121 117 22
120 115 29
119 116 22
119 115 16
126 123 22
119 114 26
122 117 25
129 124 28
117 112 19
115 112 21
133 129 28
118 115 25
126 122 25
124 121 25
125 120 22
133 128 30
127 123 28
128 123 34
117 112 25
131 125 30
125 121 25
125 120 22
123 118 22
130 125 16
113 108 25
122 118 19
126 121 37
132 127 30
114 110 11
123 118 28
122 117 25
124 119 32
111 107 16
122 117 16
119 113 25
117 113 30
123 117 22
117 112 16
128 124 22
127 123 11
128 123 19
121 119 22
128 127 22
119 118 22
125 126 19
128 125 11
131 132 16
131 131 22
137 139 11
130 133 19
135 139 16
142 148 22
142 146 16
150 160 19
140 148 16
151 161 11
152 161 16
157 167 16
158 172 11
159 171 0
158 169 0
160 175 0
161 174 0
157 169 0
161 173 0
158 171 0
162 176 0
164 179 0
158 173 0
161 177 0
157 173 0
160 176 0
162 176 0
158 172 0
162 178 0
159 175 0
159 174 0
164 181 0
164 181 0
164 182 0
165 182 0
168 184 0
161 174 0
161 179 0
167 185 0
163 181 0
164 179 0
167 185 0
170 187 0
165 179 0
167 186 0
200 219 196
199 218 199
199 218 194
201 220 201
204 222 207
198 218 194
205 223 217
201 220 199
203 222 209
205 223 212
208 225 221
209 227 230
209 226 224
207 225 224
208 226 226
208 226 228
211 228 237
208 226 224
211 228 234
212 228 234
210 227 231
209 227 230
212 229 238
212 228 233
213 229 241
212 229 236
215 231 245
212 228 230
214 231 244
211 228 234
209 227 228
212 229 237
211 228 231
210 227 230
212 229 236
211 228 233
211 228 228
212 229 236
209 226 224
212 229 237
208 225 220
211 227 230
212 229 234
210 227 230
213 230 242
211 228 231
213 229 236
208 225 223
212 229 237
211 228 233
211 228 231
209 226 227
209 226 228
213 230 240
210 227 227
215 231 242
210 227 227
211 227 228
214 230 240
213 229 237
211 227 228
210 227 226
212 228 234
211 228 231
210 227 228
213 230 238
209 227 228
208 225 220
213 230 242
208 225 223
210 227 227
208 226 227
205 222 217
198 217 217
192 210 224
180 198 218
171 189 213
170 189 213
157 177 211
162 181 217
158 177 214
151 171 209
146 167 207
139 161 203
131 154 194
140 161 200
117 141 183
112 137 186
115 140 183
108 134 185
91 120 172
88 118 165
100 127 168
84 114 168
89 117 165
76 108 157
70 103 155
65 100 158
71 104 153
73 105 154
80 112 155
68 101 154
67 101 154
73 106 154
73 106 153
73 106 155
63 98 152
65 99 155
66 100 154
63 98 150
65 99 151
63 98 154
63 99 155
65 100 154
63 98 151
65 101 160
62 98 163
61 97 157
61 97 160
61 97 159
61 97 154
62 98 161
60 95 153
61 96 151
61 98 166
61 97 165
61 98 161
62 98 164
62 98 159
61 97 157
61 97 158
62 97 157
61 97 154
62 98 158
61 97 160
62 98 162
62 98 160
62 98 166
61 98 165
62 98 159
61 97 158
63 99 166
61 97 157
61 98 163
62 98 158
60 96 155
61 98 162
62 98 163
61 97 157
62 98 162
61 97 156
62 98 165
62 98 157
62 99 167
62 98 156
62 97 158
62 98 162
62 98 167
63 99 165
63 99 164
62 98 157
61 96 156
62 98 159
61 97 160
62 98 162
62 98 162
61 97 159
61 97 157
61 97 153
61 97 158
62 98 164
63 99 168
62 98 164
62 98 162
62 98 164
62 98 157
62 97 162
61 97 154
61 97 158
62 98 160
62 98 157
61 97 156
61 96 152
61 97 155
62 98 161
61 97 155
61 96 157
62 98 160
62 98 163
61 96 150
62 98 162
61 97 156
61 96 151
62 98 162
61 96 152
60 96 153
62 98 164
61 97 150
62 98 167
61 97 152
62 98 160
62 98 160
61 97 157
62 98 157
62 98 164
62 98 163
62 98 160
62 98 162
61 97 154
62 98 163
62 98 160
62 98 157
61 97 159
62 98 157
61 97 155
61 97 155
63 99 166
62 98 160
61 97 158
62 98 158
62 98 158
62 97 156
61 97 154
60 97 155
62 97 158
60 95 137
61 97 154
61 97 152
62 98 156
62 98 159
61 96 148
62 97 150
61 97 152
62 98 159
61 96 148
61 97 150
63 99 166
62 97 154
62 97 153
62 97 149
62 98 151
61 97 141
62 97 156
61 96 144
61 97 153
61 97 151
60 95 141
61 96 141
61 96 145
61 96 150
61 96 150
61 96 144
61 95 143
61 96 145
61 95 146
60 95 142
59 93 141
59 93 136
59 93 134
59 92 139
61 95 141
57 89 130
67 91 113
98 102 44
101 101 0
106 105 0
102 103 11
99 99 11
106 105 16
104 105 0
103 102 19
92 93 8
101 99 11
89 88 14
93 92 0
99 95 12
90 87 0
101 99 12
84 82 8
84 79 8
94 89 11
81 80 14
94 91 11
87 84 11
93 90 9
94 92 16
95 90 0
92 90 0
97 93 11
98 95 11
96 94 26
108 105 14
93 91 8
101 98 0
111 105 14
104 100 16
102 102 14
101 98 0
106 100 14
110 104 16
110 107 14
118 114 11
107 104 20
113 107 16
108 106 11
111 108 11
117 112 5
113 109 18
122 117 16
116 112 11
110 105 11
111 109 18
119 114 16
122 119 11
117 114 16
119 116 11
113 111 11
119 116 19
116 111 16
125 122 28
127 123 28
120 115 25
121 118 25
123 118 25
116 113 28
121 116 25
127 123 22
125 121 28
126 121 22
115 111 19
119 116 19
122 118 22
122 118 19
121 116 28
115 109 19
112 107 16
124 118 22
123 117 25
123 118 25
115 110 28
125 121 22
116 110 22
121 115 30
119 115 30
122 117 36
122 116 22
122 120 19
115 112 22
125 122 25
124 122 28
136 136 19
132 130 30
127 130 11
127 128 11
125 125 28
126 127 19
137 139 19
130 133 0
143 149 16
145 151 0
147 151 22
145 150 16
140 147 11
146 154 16
153 164 11
154 166 0
153 164 11
153 164 0
160 172 0
160 173 0
157 170 0
158 172 0
158 170 0
158 170 0
161 175 0
164 181 0
157 171 0
163 176 0
160 175 0
162 178 0
160 174 0
165 182 0
161 175 0
160 175 0
165 178 0
166 184 0
166 183 0
161 179 0
164 181 0
163 179 0
165 181 0
166 184 0
165 184 0
164 180 0
164 180 0
165 184 0
163 181 0
166 186 0
165 185 0
168 186 0
201 219 201
204 222 209
198 217 194
202 221 204
207 225 221
203 221 206
207 224 221
204 223 212
206 224 218
206 224 215
208 226 224
209 226 224
211 228 231
214 230 241
212 229 236
211 228 236
213 229 238
212 229 238
213 230 241
212 228 234
212 229 237
212 229 237
211 227 230
212 229 237
210 227 231
211 228 233
210 228 233
208 225 221
211 228 234
213 229 238
211 228 231
212 229 236
211 228 234
211 228 231
210 227 230
212 229 238
212 228 234
211 228 231
210 227 228
208 225 221
211 227 228
210 227 227
210 227 228
207 225 220
207 224 218
211 227 227
210 227 227
212 229 233
208 226 224
211 228 233
209 227 228
211 228 233
212 228 231
212 228 233
208 225 221
208 226 224
209 226 223
213 229 238
213 230 238
209 226 227
212 228 236
207 225 218
210 227 228
212 229 234
212 229 236
209 225 223
209 226 227
212 228 233
208 226 221
214 230 240
211 228 233
209 226 224
208 224 238
201 218 233
187 205 227
180 198 222
175 193 221
166 185 222
166 185 217
157 177 212
150 170 206
160 180 217
152 172 212
146 167 207
138 160 203
131 154 201
128 151 198
115 140 185
109 134 187
115 140 192
115 140 186
96 123 178
98 125 169
92 120 166
81 112 160
70 103 151
77 110 157
79 111 156
71 104 156
71 105 160
69 103 157
71 104 157
72 105 159
73 106 150
70 103 160
67 102 157
65 100 160
61 96 150
68 102 156
64 99 160
64 99 152
64 99 151
61 97 158
66 100 158
61 96 152
62 98 155
60 96 161
62 97 154
61 97 157
61 96 159
62 98 161
62 98 165
60 96 155
61 97 159
61 98 160
60 96 153
62 98 161
62 97 154
61 98 164
62 98 158
61 97 151
62 98 161
60 97 158
62 98 163
62 98 166
62 98 162
60 95 149
62 98 162
60 96 157
62 98 160
61 97 159
62 98 162
61 98 163
62 98 167
62 98 168
61 97 154
61 97 162
61 97 160
60 96 152
61 97 161
60 96 154
61 98 158
62 98 162
61 97 162
62 98 165
61 97 162
62 98 165
61 97 149
62 98 164
61 98 160
62 98 162
61 97 157
62 98 163
62 98 164
62 98 164
62 98 164
62 98 167
61 97 156
62 98 161
62 98 162
62 98 163
62 98 158
61 97 157
62 98 161
62 98 160
62 98 163
62 98 161
61 97 157
61 97 159
62 98 162
62 98 162
62 98 159
62 98 160
61 97 160
62 98 161
63 99 164
62 98 163
61 97 156
61 97 153
62 98 160
62 98 162
61 97 159
61 97 155
61 97 156
61 97 154
61 96 147
61 97 157
61 96 156
62 98 161
62 98 155
62 98 162
60 96 148
61 97 155
63 99 165
62 98 161
62 98 164
61 97 152
62 98 155
61 97 159
62 98 159
62 98 158
62 98 157
61 97 154
63 99 166
63 99 167
61 97 155
61 97 151
61 97 158
62 97 151
61 96 151
61 97 153
62 98 158
62 98 158
61 96 149
62 98 156
62 97 151
61 97 145
61 97 156
62 98 155
62 98 158
61 96 153
62 97 154
61 97 148
61 97 154
61 97 149
61 97 154
61 96 148
61 97 150
61 96 147
61 97 153
62 97 152
60 96 140
60 95 140
60 95 138
61 96 149
60 96 145
61 97 154
60 96 148
61 96 147
61 96 142
62 97 151
60 94 138
61 96 150
59 93 140
60 94 141
59 93 134
60 94 136
59 92 130
60 94 137
58 92 123
59 93 131
58 90 126
81 99 92
99 106 40
110 114 0
105 104 0
104 103 0
105 108 0
104 108 8
97 97 0
104 104 11
95 95 0
96 94 11
96 95 0
87 84 0
99 96 11
87 86 0
89 88 14
89 86 3
77 77 8
97 95 0
98 96 8
96 94 0
99 95 8
99 96 0
83 79 8
95 92 11
97 93 11
100 97 21
100 98 11
98 95 8
104 100 8
96 94 11
99 98 11
115 110 16
105 100 16
106 102 19
103 100 0
113 108 0
102 100 0
107 103 14
107 104 18
106 103 11
113 108 11
118 114 12
105 103 23
114 111 19
125 122 22
111 106 11
119 116 16
110 106 16
115 112 16
122 117 18
109 106 11
110 105 14
124 120 19
115 111 21
127 122 21
120 117 19
120 116 22
113 112 11
123 119 28
123 118 19
127 122 28
129 123 22
121 118 11
129 123 22
123 121 0
129 123 22
118 111 19
127 122 28
115 111 16
130 126 25
130 124 30
126 120 25
117 111 11
114 110 25
118 113 22
121 115 19
105 101 22
116 111 22
118 113 19
117 113 22
117 113 25
127 121 22
124 120 34
122 121 22
122 118 19
124 121 16
129 127 19
136 135 22
134 134 19
125 127 22
136 139 22
139 141 19
136 136 19
134 136 11
134 140 0
144 151 16
145 155 19
151 160 11
143 152 11
143 149 22
156 166 16
155 168 11
155 168 0
154 168 0
163 178 0
155 169 0
154 166 0
158 170 0
159 171 0
163 178 0
163 177 0
156 171 0
166 181 0
166 182 0
152 166 0
158 172 0
159 170 0
161 175 0
161 179 0
163 180 0
165 181 0
168 184 0
164 181 0
161 179 0
161 177 0
162 179 0
165 182 0
163 179 0
164 182 0
167 186 0
164 180 0
166 182 0
162 181 0
165 183 0
167 183 0
170 187 0
167 183 0
201 220 198
201 220 206
207 225 220
208 225 223
208 226 226
203 221 212
207 224 218
204 223 214
210 227 228
211 228 233
210 227 231
212 229 236
212 228 234
211 228 233
209 226 227
210 227 228
214 230 242
209 227 230
211 228 236
211 228 234
210 227 228
212 229 234
206 224 218
211 228 233
209 226 224
211 228 236
210 227 226
209 226 226
209 227 230
212 228 233
207 225 218
210 227 227
205 222 207
206 224 217
209 226 221
210 227 226
209 227 230
213 230 241
206 224 215
205 223 215
205 222 209
210 227 226
207 225 218
208 225 220
208 225 221
207 224 217
207 225 218
206 223 214
205 222 209
205 222 211
206 224 215
208 225 221
207 224 218
206 224 215
205 223 212
208 226 223
206 223 212
207 225 220
206 223 214
210 227 228
207 224 217
209 226 223
208 225 223
211 228 231
206 224 214
211 227 230
209 226 223
210 227 227
208 226 224
212 229 234
210 226 226
204 221 222
207 224 235
200 217 236
192 209 232
185 203 228
165 184 214
164 184 215
171 190 223
147 168 206
142 163 205
143 164 205
141 162 206
155 175 211
127 150 196
116 141 192
113 138 195
113 138 188
96 124 182
106 132 184
106 132 182
104 130 181
94 122 182
85 115 172
77 109 170
88 117 167
78 110 167
82 113 152
74 107 158
67 101 155
74 106 160
68 102 158
67 101 157
74 107 159
66 100 153
71 104 148
67 101 155
74 106 153
69 103 158
62 98 156
61 97 151
63 99 157
63 98 147
69 102 148
68 103 163
65 100 153
61 96 153
61 97 161
64 99 155
63 98 152
61 97 158
61 97 159
61 97 154
60 96 157
61 96 152
61 97 157
61 97 156
61 97 157
61 97 153
62 97 158
60 96 155
62 98 166
61 97 157
62 98 161
62 98 162
62 98 163
61 97 157
62 98 164
61 97 151
61 97 157
61 97 155
61 97 158
61 97 161
61 97 158
60 97 160
62 99 166
61 97 155
61 97 154
62 97 155
61 97 158
61 97 161
62 98 161
62 98 162
61 97 157
61 97 156
61 97 152
61 97 157
61 97 162
63 99 162
61 97 161
61 97 158
60 96 155
61 97 158
62 98 158
61 97 161
62 98 158
62 98 163
61 97 159
61 98 165
62 98 165
61 97 159
60 96 151
61 97 158
62 98 161
62 98 162
62 98 165
62 98 160
62 98 158
62 98 157
61 98 166
62 98 159
62 98 163
62 98 162
62 98 157
61 97 157
61 97 157
61 97 157
62 98 164
61 97 148
61 97 154
61 97 151
61 97 157
61 97 153
62 98 160
62 97 157
61 96 151
62 98 154
61 97 153
62 98 159
61 97 156
61 96 149
61 97 154
62 98 158
62 98 158
61 97 154
62 98 156
62 98 158
61 96 145
62 98 156
62 98 157
61 97 154
62 98 161
62 98 160
63 99 162
61 97 153
60 96 143
62 97 154
62 97 153
62 97 157
62 98 156
61 97 153
61 96 148
62 98 157
62 97 153
61 97 153
60 96 137
62 98 158
61 97 156
61 96 148
61 97 152
61 96 150
62 98 160
61 97 151
62 98 154
62 97 153
62 98 159
62 97 147
61 97 149
61 97 153
61 97 157
62 98 156
60 96 147
60 96 151
62 97 158
61 96 145
61 97 143
61 96 157
61 96 133
61 96 146
60 96 149
60 95 145
61 96 141
60 94 137
61 96 144
60 94 140
60 94 142
60 95 138
59 92 131
59 92 131
60 94 142
59 93 134
59 92 134
82 98 87
105 108 40
111 114 0
121 124 11
115 120 0
107 107 11
100 101 0
103 102 11
110 110 0
96 97 0
107 107 11
104 104 11
84 83 11
97 95 0
95 93 0
91 91 8
99 95 0
95 93 8
93 93 14
87 81 0
100 98 8
90 88 0
103 101 0
98 95 8
96 92 8
96 93 0
92 88 8
98 91 11
94 90 8
102 99 11
99 95 8
106 101 8
99 96 0
111 107 11
99 96 11
107 102 11
107 103 8
111 108 8
99 94 11
109 104 11
112 107 25
107 103 14
112 108 11
112 107 22
100 97 8
121 115 25
109 107 18
122 116 19
114 110 16
109 106 14
119 116 16
116 112 16
125 120 11
117 113 16
126 121 19
127 122 25
114 110 16
126 121 16
120 114 25
124 118 19
128 124 25
127 123 16
128 122 25
131 126 19
127 122 19
116 112 22
125 121 22
119 115 22
123 119 22
123 118 30
125 120 25
117 111 16
118 114 25
118 113 22
117 112 16
116 110 22
109 104 0
119 114 11
120 113 25
125 120 25
119 115 16
125 123 22
122 121 22
118 114 19
128 123 25
120 118 19
134 133 30
139 141 25
127 127 19
143 146 11
136 135 16
134 139 11
125 126 0
131 135 11
149 155 16
146 153 11
150 158 16
148 155 16
150 159 11
154 167 0
160 170 11
156 165 0
154 164 11
160 174 0
157 171 0
159 172 0
154 164 0
162 175 0
156 171 0
163 179 0
160 173 0
162 175 0
157 172 0
165 180 0
164 177 0
156 168 0
164 181 0
158 173 0
161 175 0
160 175 0
160 178 0
163 176 0
163 180 0
163 180 0
161 175 0
164 181 0
166 183 0
165 182 0
164 181 0
162 178 0
164 182 0
164 181 0
161 180 0
165 180 0
163 178 0
170 188 0
167 186 0
163 180 0
202 220 207
207 225 224
204 223 212
209 226 226
207 224 218
210 227 230
212 229 237
208 225 223
212 228 233
210 228 236
212 229 237
208 226 226
212 229 237
213 229 240
215 231 242
210 227 228
210 227 230
210 227 230
211 228 233
210 227 228
213 229 236
210 227 226
210 227 230
206 224 218
209 226 226
207 225 221
212 228 233
208 226 226
209 226 221
207 224 218
206 224 214
207 225 221
208 225 223
206 223 211
205 222 207
205 222 212
203 221 206
207 224 215
206 224 214
206 224 215
204 222 209
202 221 204
203 221 201
202 220 196
207 224 223
208 225 218
201 220 194
203 221 204
205 223 212
205 222 207
205 222 206
204 222 206
206 224 212
206 223 214
209 226 221
208 225 224
206 224 212
208 225 220
204 222 209
209 226 224
210 226 223
208 225 217
207 224 214
209 226 224
208 225 218
206 224 215
212 229 237
206 224 218
210 226 223
207 224 216
209 226 231
205 223 223
202 219 228
192 209 222
175 194 214
188 206 234
173 191 225
157 176 214
156 176 212
162 181 217
150 170 207
159 178 211
146 167 209
148 169 213
132 154 200
123 147 194
116 140 190
126 149 198
115 140 196
118 142 194
118 142 194
106 132 184
99 126 179
90 118 172
99 126 179
83 113 170
77 109 164
73 106 164
77 109 160
65 100 163
73 106 154
68 102 156
68 103 162
76 107 145
68 102 153
66 101 159
64 99 160
63 99 161
65 100 149
73 106 151
68 102 157
65 99 153
63 98 153
65 100 155
62 98 163
63 98 151
60 96 150
61 97 154
61 97 155
61 97 153
61 96 150
61 97 156
61 97 155
61 97 159
60 96 152
62 98 154
60 96 155
61 97 159
61 97 159
61 97 153
61 97 160
61 97 159
60 96 156
62 98 163
62 98 161
61 97 162
62 98 157
62 98 161
60 96 156
61 97 154
61 97 153
62 98 161
61 97 151
62 98 159
61 97 155
61 97 159
62 98 158
62 97 159
61 97 158
61 97 157
62 98 162
62 98 164
62 98 169
62 98 162
61 97 155
62 98 161
61 97 155
62 98 164
62 98 158
62 98 163
62 98 162
61 97 155
61 96 151
61 97 155
62 98 159
61 97 157
61 98 159
62 98 158
62 98 164
61 97 161
61 96 156
62 98 158
60 96 153
61 97 155
62 98 160
62 98 160
62 98 163
61 97 157
62 98 158
62 98 158
62 98 159
61 97 159
61 97 157
62 98 163
61 97 153
61 97 151
62 98 161
61 97 159
61 96 149
61 97 154
62 97 156
61 97 153
60 96 153
61 97 155
62 98 161
63 99 163
61 97 156
62 99 165
62 98 162
62 98 160
61 97 157
61 97 155
61 97 154
62 98 158
60 95 148
61 96 148
62 98 160
63 99 161
61 97 154
61 97 154
62 97 151
61 97 156
61 97 151
61 97 152
63 98 159
61 96 151
61 97 156
61 97 152
61 97 155
60 96 150
62 98 156
63 99 163
61 96 153
61 96 144
62 98 163
61 97 161
61 97 152
62 98 157
62 97 156
60 96 152
62 97 155
61 97 153
62 98 154
61 96 152
61 97 150
60 96 142
62 98 155
62 97 150
60 96 149
62 97 154
61 97 150
61 96 147
60 95 136
61 97 148
62 97 154
61 97 149
60 95 146
60 95 141
60 94 134
61 95 141
61 96 142
61 96 142
60 95 149
60 94 133
59 92 137
60 94 135
60 94 138
62 96 143
59 93 132
59 92 127
58 91 135
59 90 120
107 122 79
106 110 18
114 114 0
105 112 0
97 98 0
106 107 0
102 103 14
108 110 16
108 108 0
116 116 11
102 99 14
102 100 0
91 91 0
91 85 11
99 97 11
95 94 0
96 94 3
99 94 0
84 79 0
94 91 0
100 98 16
96 94 0
93 89 8
87 87 0
104 100 0
94 89 0
100 94 11
95 91 0
108 104 11
106 99 0
99 94 8
100 95 11
98 95 8
105 99 0
108 103 11
105 101 16
109 104 21
103 99 0
102 100 8
108 105 21
109 104 11
95 92 0
92 87 19
102 98 0
103 101 11
112 107 11
115 110 11
111 106 22
114 110 11
108 104 16
118 114 16
117 114 0
121 116 25
121 116 22
118 114 28
112 108 16
113 109 16
116 112 19
127 122 29
125 120 16
121 115 22
122 117 22
115 109 22
117 112 19
106 102 16
119 113 11
126 121 19
117 111 19
116 112 19
114 108 11
111 104 16
126 119 28
115 112 0
120 114 11
118 111 16
124 118 19
119 114 0
122 119 19
117 113 11
122 120 22
120 117 16
126 121 25
131 129 16
131 129 19
119 118 22
130 131 11
127 126 16
123 125 22
134 134 19
136 138 11
137 141 19
138 142 11
131 135 0
134 140 0
150 155 16
142 148 11
143 150 0
151 159 16
153 161 0
147 154 11
151 157 0
150 159 0
157 170 0
158 168 0
161 174 0
153 164 0
158 171 0
160 173 0
158 170 0
162 179 0
162 176 0
163 176 0
162 175 0
160 176 0
163 177 0
162 177 0
164 178 0
163 178 0
167 183 0
161 177 0
159 174 0
164 181 0
162 178 0
165 182 0
160 175 0
166 182 0
164 181 0
168 185 0
168 188 0
165 183 0
166 185 0
167 184 0
169 187 0
165 181 0
165 182 0
166 186 0
164 181 0
166 185 0
205 223 223
208 225 221
209 226 227
209 226 226
209 226 226
209 226 227
211 228 231
208 226 226
214 230 242
211 228 233
210 227 230
211 228 236
209 226 224
209 227 227
212 228 233
209 226 226
213 229 238
208 226 224
211 228 230
209 226 227
210 227 228
212 228 233
206 223 214
207 225 221
207 225 218
208 226 224
205 223 212
207 224 217
205 223 211
205 223 207
203 221 199
200 219 193
207 224 217
203 221 206
206 223 207
205 223 212
199 218 189
205 222 209
202 220 196
204 222 209
202 220 199
202 221 204
204 222 207
200 219 194
202 221 201
199 217 186
200 218 191
199 218 188
199 217 186
198 218 189
196 216 179
200 219 194
202 220 196
202 220 201
198 217 182
198 217 189
203 221 203
206 223 211
203 222 206
204 222 207
204 221 207
207 225 218
205 223 212
206 223 211
206 224 214
206 223 207
205 223 207
204 222 206
211 228 232
208 225 218
207 224 217
201 218 223
198 215 229
198 215 228
183 201 225
170 189 220
170 189 223
162 181 215
153 174 215
162 182 219
143 164 211
150 171 211
150 171 210
142 163 206
130 153 201
125 149 199
111 136 188
115 139 188
123 147 198
109 134 189
109 134 189
107 132 182
99 126 183
101 127 180
90 119 177
91 120 177
68 102 162
73 107 165
81 112 162
72 106 163
67 102 163
70 103 156
69 103 159
67 101 155
66 100 155
67 102 158
69 103 159
69 103 155
66 100 154
66 100 151
65 100 154
67 101 141
63 98 151
63 98 155
65 100 156
63 98 153
65 100 154
63 98 156
62 97 155
64 99 157
63 98 153
61 97 154
62 98 165
61 97 158
62 97 151
61 97 152
61 97 160
60 96 149
62 98 163
61 97 161
63 98 163
62 98 160
61 97 154
62 98 158
62 98 167
61 97 152
62 98 165
61 97 159
61 97 162
60 96 152
61 96 145
62 98 163
62 98 162
61 97 159
61 97 159
61 97 156
61 98 163
62 98 157
61 97 160
61 97 158
62 98 158
61 97 154
62 98 169
61 98 160
62 98 164
61 97 158
62 98 153
61 97 158
62 98 161
61 97 157
61 98 164
62 98 161
61 97 155
61 98 158
63 99 171
62 98 163
61 97 156
61 97 161
62 98 161
61 97 158
61 96 152
62 98 158
61 97 154
61 97 153
62 98 162
62 98 158
62 97 154
62 98 157
61 96 156
62 98 158
60 96 149
61 97 153
62 97 158
61 97 155
61 97 156
61 96 150
61 97 155
62 98 160
61 97 151
62 97 157
61 97 151
62 98 161
60 96 147
61 97 160
61 97 158
61 98 161
63 98 158
62 98 159
62 98 158
61 96 152
62 97 153
61 97 151
62 98 159
61 97 153
61 97 151
63 99 164
62 98 158
61 97 152
61 97 155
61 97 149
62 98 156
62 99 168
61 97 153
61 97 153
62 97 154
61 97 151
60 96 149
60 96 147
62 98 158
61 97 152
61 97 154
62 98 156
62 98 158
60 96 148
61 96 145
61 97 150
61 97 150
61 96 144
63 99 159
61 96 150
61 96 145
61 97 153
62 97 155
61 96 156
62 98 155
61 96 150
61 97 153
61 97 143
61 97 151
62 98 154
62 97 153
60 95 141
61 96 143
61 96 144
61 96 142
62 97 150
60 95 142
61 97 143
60 95 140
60 94 139
61 96 151
61 96 150
60 95 139
60 95 139
59 93 142
61 96 143
60 94 132
62 97 149
59 93 139
59 93 136
57 90 119
70 94 103
89 99 63
105 113 31
116 119 0
106 111 0
105 110 0
105 107 11
107 110 0
101 102 11
104 103 14
99 99 11
109 109 11
101 101 0
90 91 0
94 92 0
89 88 0
98 97 8
93 90 11
90 88 0
86 82 0
101 99 0
97 93 11
80 77 0
94 90 0
95 90 0
84 82 8
96 90 8
93 90 0
108 104 11
86 84 8
93 90 8
88 84 0
93 90 0
101 98 0
103 99 8
97 95 14
99 94 8
108 103 0
103 98 0
103 99 0
96 92 0
102 97 0
106 102 11
118 114 11
101 96 11
101 97 11
110 106 0
104 99 14
110 105 18
109 104 0
116 110 11
110 105 16
117 113 0
112 106 11
94 91 0
112 108 14
108 107 19
123 115 22
113 108 11
118 114 16
114 109 11
118 113 11
113 109 16
115 110 16
121 114 19
116 111 16
124 119 22
117 113 16
118 112 28
116 113 22
122 118 19
122 118 22
121 116 11
122 117 16
112 108 19
112 108 16
117 112 11
122 117 11
109 106 22
114 112 0
123 120 22
128 127 16
119 115 16
118 113 16
134 132 19
126 124 19
128 126 22
135 135 22
138 141 11
125 127 16
135 134 22
133 137 19
135 137 19
147 153 19
149 155 0
139 144 0
149 159 19
142 150 11
145 152 11
159 169 0
159 171 0
158 169 0
156 168 0
154 163 0
154 165 0
144 155 0
155 165 0
160 174 0
158 172 0
162 176 0
162 173 0
158 169 0
161 172 0
161 175 0
162 175 0
162 176 0
160 176 0
155 168 0
162 179 0
158 171 0
159 174 0
159 175 0
162 178 0
161 177 0
166 181 0
166 184 0
165 180 0
168 185 0
163 179 0
164 181 0
165 181 0
167 185 0
167 187 0
163 180 0
165 183 0
169 186 0
166 183 0
161 178 0
168 184 0
209 226 224
207 224 220
208 226 226
210 227 231
210 227 230
211 228 231
210 227 228
212 229 238
211 228 234
210 227 228
210 227 227
208 226 224
207 225 217
211 228 231
210 228 234
211 228 231
211 228 234
206 223 217
206 224 220
206 224 215
206 224 217
205 222 207
207 225 218
207 225 221
205 223 211
208 225 223
209 226 223
206 223 215
204 221 203
201 220 196
201 219 193
201 220 201
200 219 193
200 218 189
202 220 199
199 218 189
198 217 181
197 215 184
201 219 193
198 217 182
201 219 194
201 219 194
197 216 177
195 215 173
196 215 177
200 218 193
196 216 177
202 220 198
193 213 161
197 216 184
198 217 184
198 217 182
199 218 186
199 218 189
203 221 198
197 217 182
198 217 188
198 217 184
204 222 203
201 219 194
204 222 204
203 221 206
203 221 201
202 220 198
207 225 215
202 221 201
201 219 194
205 223 214
205 222 214
206 224 223
199 216 217
200 217 223
193 210 223
182 199 219
181 199 220
181 198 224
165 184 217
156 176 217
158 177 214
141 162 207
154 174 215
140 161 206
137 158 195
143 164 211
134 156 207
105 131 184
114 139 188
113 137 188
105 132 188
114 139 189
111 136 194
91 120 182
105 131 187
109 134 184
105 132 191
94 123 184
77 108 168
77 109 174
76 107 160
85 115 169
64 99 166
80 112 158
62 98 160
74 107 159
69 103 164
66 101 162
74 106 152
67 101 149
66 101 159
71 104 147
72 105 162
65 99 151
72 105 155
68 102 160
63 98 153
65 100 153
62 97 153
63 98 156
65 99 147
63 99 157
67 101 157
61 97 158
61 97 160
60 96 151
63 99 161
62 98 159
61 97 153
61 96 149
60 96 151
61 96 152
61 97 159
61 97 157
61 97 159
61 97 161
62 98 159
61 97 162
61 97 156
61 97 158
62 98 165
61 97 156
61 97 156
61 97 152
61 97 157
61 97 159
62 98 162
62 98 157
62 97 155
61 97 155
61 97 158
63 99 168
62 98 167
62 98 161
62 98 161
61 96 154
60 96 154
61 97 160
61 97 161
60 96 153
61 97 152
62 98 158
62 98 162
62 97 154
61 97 160
61 96 153
61 96 156
61 97 155
61 96 156
62 98 159
62 98 158
62 98 159
61 97 157
62 98 164
61 97 158
62 98 159
63 99 164
61 97 153
62 99 163
62 98 160
61 97 159
61 97 157
61 97 152
61 97 150
61 96 151
62 98 160
61 97 159
61 97 158
61 97 155
62 98 162
62 98 161
62 98 159
62 97 149
61 96 151
62 97 151
62 98 162
61 97 156
62 98 159
61 97 158
62 98 158
62 97 155
61 97 154
62 98 156
61 97 151
61 97 157
62 98 158
62 98 159
62 97 148
62 98 163
60 95 143
62 98 155
61 96 149
61 97 149
62 98 160
61 96 151
62 98 160
62 97 154
62 98 157
61 97 147
62 98 159
62 97 152
62 98 154
62 98 159
62 97 155
61 96 145
63 99 162
62 98 155
62 98 154
62 97 160
61 97 158
62 98 153
62 98 153
63 98 157
61 97 151
62 97 154
62 98 157
62 97 151
60 95 141
62 98 155
62 97 149
62 98 149
61 96 147
61 97 149
62 98 155
61 97 150
61 97 151
59 94 135
62 97 150
62 97 150
61 96 147
61 96 144
62 97 152
60 94 142
61 96 148
60 95 147
60 94 145
59 93 129
59 93 140
60 94 138
59 92 136
60 94 140
59 93 135
58 92 132
68 91 109
103 115 70
107 112 0
113 119 0
106 110 0
101 105 0
87 88 0
99 100 0
94 95 0
107 107 0
102 102 0
110 111 0
104 106 11
102 103 11
102 102 11
104 101 0
106 103 16
103 102 11
91 89 0
101 98 11
98 94 0
103 100 11
98 96 8
94 93 0
79 76 8
101 95 2
92 88 0
94 89 0
102 96 0
86 81 0
97 94 0
106 100 0
97 93 0
93 89 8
94 89 8
94 89 0
95 89 0
105 100 0
107 100 11
99 94 0
107 103 0
102 95 0
103 99 11
102 99 0
115 108 0
106 100 16
105 101 11
108 103 14
110 106 0
109 103 0
107 103 0
108 105 14
101 97 0
114 109 19
121 115 11
109 105 14
119 112 11
114 109 0
115 110 11
111 107 0
106 101 16
109 103 11
113 107 16
109 104 16
112 106 0
104 99 16
114 108 19
121 116 22
118 112 16
110 104 22
110 105 16
115 111 11
111 107 19
128 125 19
118 115 11
124 120 22
129 125 19
124 121 11
126 123 19
123 119 25
126 124 16
129 130 19
133 132 0
122 122 16
130 130 16
131 130 0
132 132 11
136 138 11
139 140 16
135 139 11
135 136 0
143 147 19
146 153 0
143 150 22
139 145 11
144 151 0
144 151 0
155 164 11
153 161 0
159 170 0
154 164 0
160 172 0
153 164 0
156 167 0
157 169 0
162 175 0
159 170 0
153 165 0
155 168 0
160 173 0
156 170 0
154 165 0
154 168 0
156 168 0
155 169 0
154 167 0
160 175 0
161 176 0
166 180 0
165 180 0
157 169 0
160 174 0
158 173 0
165 183 0
161 176 0
162 177 0
162 176 0
168 187 0
163 181 0
162 179 0
165 182 0
166 182 0
164 183 0
166 182 0
166 184 0
164 182 0
163 181 0
166 184 0
168 185 0
211 228 236
210 227 233
208 225 220
210 227 227
213 229 236
213 229 238
210 227 228
211 228 230
208 225 221
208 226 226
209 226 227
209 226 223
212 228 231
209 226 224
208 225 218
207 225 223
207 224 217
207 225 218
205 223 214
203 221 203
204 222 207
205 223 211
200 218 186
199 218 189
202 220 196
203 222 206
201 220 193
204 222 209
198 217 188
194 213 165
197 217 184
200 219 193
201 219 191
199 218 189
200 219 191
197 216 179
195 214 169
195 214 173
193 212 163
193 213 167
196 215 169
196 216 181
190 210 149
194 214 163
195 215 169
197 216 179
196 215 175
193 213 161
192 212 157
200 219 188
195 214 173
196 216 177
192 213 161
199 218 188
196 215 171
199 217 181
194 213 159
202 220 199
200 219 198
197 216 181
195 215 171
198 217 182
200 218 189
203 221 201
198 217 182
202 220 198
201 219 198
197 216 183
198 216 195
200 218 215
198 215 219
197 214 219
185 203 212
170 189 209
174 193 220
166 185 216
163 182 217
165 184 220
159 179 216
139 160 204
143 164 208
126 149 200
129 152 199
133 156 203
136 158 204
135 157 203
113 138 194
123 146 197
130 153 202
103 130 190
97 125 186
96 124 181
95 122 181
100 127 181
104 131 184
92 120 175
97 124 185
89 118 174
87 116 175
71 105 174
70 104 165
73 106 157
61 98 168
69 103 156
61 97 157
70 103 158
69 103 161
64 99 153
69 102 152
67 100 153
64 99 157
65 99 149
64 99 148
65 99 149
62 98 149
61 97 151
63 99 154
62 98 156
63 98 151
60 96 153
61 97 158
61 97 150
65 99 150
61 97 160
61 97 154
61 97 153
62 98 160
61 96 154
60 96 154
60 96 152
60 96 149
61 97 155
60 96 155
61 97 161
62 97 158
61 97 157
61 97 154
62 98 162
61 97 152
62 97 159
62 97 153
61 97 155
61 97 154
61 98 163
61 96 153
60 96 157
62 98 158
62 98 159
61 97 153
61 97 156
61 98 165
60 95 145
61 97 156
62 98 159
61 97 154
61 97 155
60 96 148
62 98 156
61 96 154
62 98 162
62 98 159
62 98 158
61 97 160
61 97 156
62 98 158
62 98 158
61 97 155
61 97 151
62 98 162
62 98 165
61 97 160
61 97 152
62 98 156
61 96 154
61 98 161
62 97 156
61 97 154
62 98 157
62 98 161
62 98 163
62 99 164
62 98 160
61 97 156
62 98 158
61 97 156
61 97 156
62 98 159
62 98 157
62 98 160
61 97 152
62 98 159
61 97 155
61 97 155
62 98 158
61 97 154
61 97 158
62 98 158
61 97 156
61 97 153
62 98 155
61 97 151
62 97 152
61 97 157
61 97 157
60 96 151
62 98 155
61 97 156
61 96 151
62 98 154
60 96 149
62 97 153
61 97 150
62 98 156
61 96 148
61 97 155
61 96 151
62 97 153
61 97 156
62 97 151
61 96 148
61 96 151
62 97 152
61 96 149
62 97 148
61 97 152
61 96 148
61 96 148
62 97 151
61 96 145
61 96 147
62 97 153
61 97 151
61 96 143
61 96 151
62 97 150
61 96 143
61 96 149
60 95 140
61 96 151
61 96 155
60 95 134
62 97 154
61 97 145
61 96 147
61 96 142
60 96 142
61 96 145
61 97 148
61 96 153
60 95 139
60 95 144
60 95 136
59 94 139
59 94 140
60 95 140
60 94 133
60 93 138
60 94 135
59 92 137
60 93 134
59 92 131
85 102 97
112 124 72
118 124 0
114 121 0
118 123 0
108 115 0
118 123 0
108 111 0
109 112 0
114 117 0
105 106 11
87 88 16
96 95 11
101 98 0
96 95 0
100 98 0
105 106 0
93 94 0
95 91 0
107 105 0
102 98 0
97 92 0
95 91 0
94 89 0
98 94 0
99 97 0
99 95 11
104 97 0
95 90 0
95 91 0
100 95 0
94 92 0
92 85 0
90 86 0
101 95 8
103 97 0
93 89 8
108 102 0
108 104 0
107 104 3
102 97 11
89 85 0
105 98 0
106 101 11
101 96 8
109 104 0
108 103 11
97 94 0
107 102 0
106 101 0
101 97 11
113 108 0
106 103 0
107 102 0
107 105 0
109 104 11
111 106 11
106 102 0
114 106 16
112 108 19
110 106 11
104 99 16
110 104 0
111 107 11
111 106 22
110 107 0
116 111 22
113 108 0
110 107 19
121 118 19
119 118 11
120 114 22
120 116 19
119 115 28
125 120 11
114 110 0
115 111 16
124 120 19
121 121 11
126 126 16
123 121 16
123 122 0
122 122 0
125 125 11
128 127 19
137 139 16
134 136 11
132 130 11
132 135 0
137 144 0
140 144 11
137 143 16
143 149 11
147 154 0
148 157 11
153 162 0
148 156 0
156 167 0
159 171 0
158 167 0
153 161 0
146 153 0
157 169 0
157 170 0
160 172 0
158 169 0
159 170 0
156 168 0
158 168 0
158 170 0
162 174 0
160 174 0
165 179 0
162 177 0
161 174 0
163 178 0
154 168 0
162 177 0
155 170 0
163 179 0
161 175 0
161 174 0
160 174 0
162 176 0
163 179 0
162 181 0
161 177 0
161 177 0
164 180 0
164 181 0
159 174 0
169 188 0
166 184 0
166 185 0
168 184 0
167 184 0
165 181 0
169 187 0
166 183 0
212 228 234
211 228 234
212 229 237
208 225 220
207 224 218
213 230 238
213 229 240
208 226 224
212 228 233
209 226 227
209 226 224
203 221 203
209 226 227
209 226 220
205 223 214
208 225 218
207 225 218
204 222 206
202 220 201
202 220 201
204 222 203
198 217 186
200 219 194
198 217 184
202 220 198
199 218 186
195 214 169
195 214 173
193 213 175
196 215 173
194 214 169
194 214 173
195 214 165
193 212 161
196 215 177
193 213 163
194 214 169
190 211 151
192 212 157
196 215 177
193 213 165
192 212 161
190 210 149
191 211 155
191 211 151
195 214 163
191 211 151
190 211 147
195 215 171
192 212 161
191 212 155
188 209 147
193 213 159
197 216 177
197 217 182
195 215 169
196 215 173
193 213 161
193 212 155
191 212 161
191 211 155
196 215 171
193 213 157
197 216 182
195 214 169
195 215 175
201 219 196
197 215 187
200 219 198
191 209 195
183 202 194
187 205 191
173 192 203
167 186 215
169 188 213
163 182 214
158 177 212
167 185 219
159 179 217
136 158 203
135 157 202
131 154 203
122 146 194
127 150 199
125 149 202
125 149 199
119 142 192
114 139 191
122 145 194
113 138 195
105 131 188
112 137 191
107 133 190
89 118 178
96 124 185
85 115 180
94 121 178
82 112 172
77 109 176
80 111 178
71 104 169
71 104 168
66 101 161
66 101 164
63 98 153
71 105 161
70 104 159
63 99 163
62 97 154
61 97 160
63 97 148
67 102 157
64 100 164
62 97 148
63 97 145
61 97 160
64 99 147
65 100 151
65 100 152
63 98 150
64 99 153
62 97 150
62 97 154
64 99 161
60 96 155
61 97 156
61 97 150
61 97 154
61 97 157
61 97 154
60 96 157
62 98 159
61 97 157
61 97 157
62 98 162
60 96 149
62 98 159
61 97 159
61 97 158
61 97 155
62 98 161
62 98 163
62 98 159
61 97 154
61 97 156
61 98 159
61 96 154
61 97 161
62 98 159
61 97 151
62 97 155
62 98 161
62 98 163
61 97 157
61 97 155
61 97 153
62 98 161
61 97 157
61 97 162
62 99 167
60 96 156
62 98 160
61 97 154
62 98 163
61 97 157
61 97 156
61 97 158
61 97 159
62 98 162
62 98 163
61 97 148
62 98 157
62 98 160
61 97 157
61 96 152
63 99 164
62 98 158
61 97 152
61 97 156
62 98 158
62 97 155
62 98 160
61 97 156
62 98 161
61 97 155
60 95 144
60 95 145
61 97 155
62 97 157
61 97 149
62 98 156
62 98 153
61 97 156
63 99 163
61 96 152
62 98 160
62 98 157
62 98 158
62 97 156
61 97 151
61 96 147
60 96 147
62 97 153
62 97 153
62 98 158
61 97 157
61 97 151
62 97 157
61 97 155
61 97 153
61 97 155
62 97 149
61 97 151
61 97 150
62 98 158
61 96 147
62 97 153
62 97 153
61 96 141
62 98 152
62 98 154
62 97 153
62 98 155
61 97 155
61 96 149
62 97 150
61 97 149
61 96 150
61 96 147
62 97 155
60 95 142
61 96 149
61 97 149
61 96 139
61 97 152
61 96 150
61 96 150
60 95 135
62 98 155
60 95 141
61 96 144
60 95 147
62 97 155
62 97 151
60 95 139
61 96 140
59 94 134
62 97 149
60 95 135
61 95 149
61 96 147
60 95 136
59 93 136
61 95 139
59 92 136
61 96 150
60 93 140
59 93 131
57 90 132
60 94 134
59 90 122
89 104 88
101 109 37
113 119 0
106 109 0
111 116 0
120 125 16
111 114 11
112 116 0
118 123 16
113 117 0
114 116 0
103 106 0
87 87 0
107 106 11
89 91 0
93 93 0
98 100 0
88 87 0
101 99 0
96 94 0
93 91 0
95 97 3
102 99 0
96 94 0
107 103 0
90 88 0
95 93 8
97 94 0
102 96 0
96 91 0
103 99 0
103 97 0
99 92 0
106 102 0
100 95 0
105 100 11
106 105 0
102 97 0
105 100 0
100 96 0
104 99 0
105 100 0
107 101 11
106 101 11
104 99 0
101 96 0
105 102 11
106 101 0
103 98 16
107 102 0
99 94 0
108 103 8
108 103 0
108 103 0
109 104 12
112 106 0
107 102 11
109 102 8
100 94 11
114 111 0
114 110 0
107 101 16
99 96 0
117 114 16
106 102 16
123 118 16
119 113 19
101 96 16
121 116 11
109 104 16
121 117 16
124 121 22
117 116 16
126 126 0
128 123 0
123 121 11
119 116 11
112 109 11
128 128 19
126 124 11
129 130 0
124 123 11
120 120 11
138 141 19
138 141 16
135 137 19
136 137 16
145 151 16
140 143 16
148 155 0
143 149 0
146 150 0
145 152 11
145 150 11
144 150 0
147 159 11
149 159 0
156 164 0
148 158 0
154 165 0
159 170 0
155 164 0
158 173 0
157 168 0
157 167 0
158 170 0
162 175 0
153 165 0
159 172 0
158 170 0
162 176 0
161 175 0
159 174 0
159 173 0
164 181 0
159 173 0
163 177 0
160 175 0
161 177 0
166 184 0
165 180 0
158 170 0
165 183 0
164 180 0
159 174 0
156 170 0
164 181 0
162 179 0
166 183 0
162 179 0
165 183 0
168 185 0
166 183 0
161 179 0
166 183 0
164 182 0
161 178 0
161 181 0
169 187 0
210 227 224
209 226 226
210 227 227
210 227 228
208 226 221
212 229 234
207 224 212
208 225 223
208 225 221
207 224 218
210 227 227
208 225 221
205 223 211
204 222 206
201 220 198
206 224 214
201 220 196
197 217 182
197 217 182
195 214 169
203 221 204
197 216 179
197 216 184
200 219 189
193 213 179
195 215 175
194 213 165
193 213 159
187 208 133
193 213 165
192 212 157
191 211 155
195 214 163
186 207 137
189 210 144
187 208 137
186 207 128
188 208 135
186 207 137
186 208 133
188 209 137
187 208 133
185 207 130
187 208 130
194 213 159
187 208 133
188 209 133
190 210 147
189 210 144
187 207 135
182 204 111
188 209 147
190 210 153
190 210 147
187 208 137
189 210 140
189 209 140
188 209 144
187 208 135
184 205 130
193 213 159
190 210 147
190 210 153
189 209 149
190 211 151
190 211 147
196 215 179
197 215 193
195 213 191
189 208 185
178 198 179
186 204 202
175 194 196
159 179 210
152 172 200
158 177 207
137 158 199
139 161 204
143 164 206
124 147 192
129 152 199
122 146 197
127 150 202
119 143 191
124 147 199
110 135 192
109 135 191
109 135 188
125 149 199
105 131 188
97 125 188
105 131 190
94 122 183
88 117 180
92 121 184
83 114 181
87 117 181
80 112 179
77 109 174
79 110 171
83 113 178
71 104 164
67 101 159
64 99 165
66 101 162
67 102 168
69 103 159
67 101 157
67 101 157
67 101 153
65 100 161
62 98 156
64 99 160
70 104 154
62 97 157
61 96 156
69 103 153
64 99 159
61 96 148
62 97 147
64 100 163
62 98 162
61 97 159
60 96 157
62 97 151
61 97 154
61 96 150
60 96 148
61 97 155
60 96 153
61 97 159
62 98 162
61 96 158
62 98 158
61 97 159
61 97 157
62 98 159
61 97 149
62 98 158
60 95 144
61 97 155
61 97 157
61 97 159
62 97 160
61 97 161
61 97 160
61 97 153
61 96 155
62 99 165
61 97 152
62 98 159
61 96 149
61 97 160
61 97 157
62 98 155
62 97 160
61 97 156
62 98 158
62 98 156
62 98 156
62 98 159
62 98 158
61 97 158
61 97 155
61 96 154
61 97 157
62 98 155
61 98 158
61 96 153
61 96 154
62 98 162
62 98 159
62 98 159
61 96 154
63 99 161
61 96 152
62 98 164
62 98 158
62 98 155
62 98 157
62 98 157
61 97 160
62 98 159
61 96 153
62 98 158
62 98 156
61 97 151
61 97 154
62 98 159
62 98 160
62 97 154
61 97 157
63 99 163
62 98 161
62 97 149
62 97 159
61 96 144
62 98 160
61 96 149
62 97 155
62 98 157
62 98 158
61 97 150
61 97 153
62 98 158
61 97 153
62 97 156
62 97 154
61 96 150
61 96 152
61 97 145
61 96 153
61 96 142
61 97 158
61 97 152
61 97 150
63 99 161
63 98 156
61 97 150
61 97 157
61 97 151
63 98 157
62 98 156
60 96 145
61 97 152
61 97 144
62 98 161
61 97 156
61 96 151
61 96 148
61 96 151
62 97 151
61 97 150
60 95 145
61 96 145
60 95 145
61 97 151
61 96 148
62 97 152
62 98 156
61 96 145
60 95 143
61 96 143
61 96 149
59 94 139
60 95 150
61 96 148
61 96 150
61 95 140
61 97 151
59 93 131
60 94 134
60 94 139
60 94 137
59 94 130
60 94 137
61 96 145
59 93 129
59 93 131
59 92 121
63 92 122
96 108 76
108 116 18
121 127 0
106 111 0
120 126 0
106 112 0
113 119 0
109 113 0
104 106 0
109 113 0
104 105 0
96 100 0
106 109 0
97 101 0
99 101 0
105 103 0
99 98 0
107 104 0
98 99 0
91 88 8
101 101 0
98 97 0
103 102 0
100 100 0
101 100 11
90 86 0
105 103 0
101 99 0
94 89 0
91 89 0
106 101 0
100 95 0
98 96 0
82 80 0
103 99 0
94 91 0
106 101 0
101 98 0
96 92 8
105 103 11
106 103 0
102 96 0
97 93 0
101 95 0
106 100 11
111 108 0
96 90 8
104 99 16
102 97 0
101 97 0
101 95 0
114 108 0
110 105 0
105 99 0
105 99 0
106 100 11
111 107 0
117 113 0
111 107 11
104 101 11
104 99 0
109 105 16
113 110 0
114 111 0
114 109 11
114 111 11
112 107 0
112 107 0
117 113 11
111 108 11
118 114 22
108 106 0
116 113 0
120 118 11
120 121 19
128 121 19
127 126 11
127 126 16
127 127 0
122 120 22
128 130 16
136 140 11
131 131 11
124 124 11
134 134 0
138 141 0
134 136 11
140 147 0
139 142 11
143 150 0
141 147 0
158 165 0
145 151 0
147 155 0
143 150 0
153 163 11
152 164 0
153 163 0
147 155 0
143 153 0
155 167 0
145 155 0
146 154 0
154 168 0
157 168 0
157 168 0
152 163 0
155 165 0
158 170 0
156 169 0
160 173 0
163 177 0
167 181 0
156 171 0
158 171 0
159 173 0
158 171 0
162 178 0
163 179 0
162 178 0
165 182 0
159 176 0
158 176 0
163 179 0
159 174 0
165 180 0
161 178 0
157 170 0
158 173 0
164 182 0
160 178 0
164 179 0
164 181 0
163 178 0
169 187 0
163 180 0
162 176 0
166 184 0
168 188 0
212 229 234
209 226 224
212 228 231
209 226 223
210 227 226
209 226 224
207 224 212
205 223 212
207 224 217
207 224 217
203 220 199
206 224 215
203 221 204
203 221 203
201 219 193
202 220 198
201 220 199
194 214 169
198 217 184
199 217 182
200 219 189
193 213 161
192 212 161
192 212 159
194 213 157
195 215 171
190 211 147
191 212 161
190 211 149
188 209 135
187 208 135
191 211 151
185 207 122
187 208 133
190 210 147
187 207 144
192 212 161
183 204 108
189 209 140
186 207 135
187 208 130
184 206 120
186 207 122
184 205 120
184 205 111
186 207 135
182 203 102
184 205 117
187 208 133
186 207 133
185 206 120
180 201 111
184 205 128
188 208 130
182 204 105
185 206 128
185 207 120
187 207 128
189 209 130
188 209 142
187 208 140
185 206 128
187 208 137
192 212 153
191 211 147
192 211 153
192 212 159
186 206 148
182 202 174
189 207 182
175 195 169
169 188 183
150 171 185
166 186 203
150 170 207
154 174 211
142 163 204
132 154 197
133 155 199
133 155 200
134 156 199
128 151 197
113 138 188
117 141 195
117 141 197
110 136 189
99 126 189
103 129 186
103 129 186
109 135 191
95 123 185
85 116 181
99 126 188
80 111 173
91 120 181
94 123 183
96 124 181
91 120 179
77 109 174
87 117 182
74 107 176
80 111 171
68 102 168
61 98 167
65 100 165
65 101 170
63 99 159
62 98 165
63 98 156
64 99 156
63 98 154
61 97 161
62 97 144
65 100 159
72 105 149
63 99 157
64 99 154
62 97 149
61 97 158
61 97 156
61 97 157
60 96 150
61 97 154
61 96 145
61 96 153
61 96 154
61 97 157
61 97 152
60 96 145
60 95 141
61 97 158
62 97 151
62 97 155
61 97 154
62 98 162
61 97 154
61 97 157
62 98 157
61 97 162
62 98 157
60 96 154
61 97 157
61 97 160
62 98 162
61 97 153
61 97 154
61 97 154
61 98 164
61 97 157
62 97 157
60 96 161
62 99 164
61 97 160
62 98 162
61 97 153
62 98 160
62 97 155
63 99 161
61 97 152
63 98 159
61 97 158
61 97 153
62 98 158
61 96 152
62 98 158
62 98 161
62 98 161
61 97 153
61 97 157
61 97 160
61 97 157
61 97 154
61 97 157
62 98 159
62 98 152
62 98 156
62 97 150
62 97 155
61 96 147
61 97 150
61 96 152
62 98 161
61 97 145
62 98 162
62 98 156
61 96 145
61 96 151
61 97 156
61 96 151
61 97 152
61 98 158
62 98 163
62 98 156
61 97 154
61 98 158
62 98 159
62 98 162
61 96 152
63 98 160
61 96 145
62 98 157
63 98 155
62 98 163
61 97 151
62 98 156
61 97 154
60 95 150
62 98 164
61 97 154
62 98 156
63 98 157
62 97 153
61 96 144
62 97 152
61 96 144
62 97 153
61 97 151
62 98 156
62 98 158
62 97 154
60 96 141
61 97 151
61 97 154
62 97 150
61 96 142
60 96 156
62 98 156
61 96 141
61 97 155
62 97 152
61 96 151
60 95 143
61 96 142
61 96 148
60 95 141
61 97 147
61 97 147
62 97 153
60 95 149
60 95 137
61 96 145
61 95 137
61 96 143
62 97 150
61 96 149
60 94 141
61 96 143
60 95 135
61 95 140
60 94 138
60 95 140
60 95 143
59 94 129
60 95 139
60 94 141
59 93 135
60 94 138
59 92 129
59 92 127
59 92 135
77 99 107
103 111 51
109 115 0
115 123 0
109 113 0
117 124 0
116 119 0
114 119 0
108 109 0
93 95 0
101 104 0
101 106 0
97 103 0
114 117 0
108 111 0
101 100 0
107 110 0
94 96 0
107 105 16
114 116 0
95 97 0
97 96 0
99 101 0
99 98 0
97 97 0
88 84 11
96 95 0
102 102 0
90 89 0
98 95 0
100 100 0
93 90 0
103 99 11
110 105 0
94 88 0
91 87 0
104 101 0
105 102 0
88 84 0
101 97 0
104 98 0
94 89 0
104 99 0
93 89 0
106 101 11
107 104 0
114 109 0
105 99 0
100 95 0
108 103 0
108 104 0
110 103 11
98 93 16
106 100 11
109 105 0
112 107 11
112 108 11
111 106 11
100 94 0
116 113 0
106 102 0
103 98 16
115 112 0
115 110 11
106 103 0
117 113 16
117 111 0
116 113 0
107 102 0
121 118 11
122 121 0
118 115 0
114 113 11
129 125 0
124 123 0
116 114 16
114 112 0
118 116 0
134 135 0
125 126 11
130 130 16
128 130 11
139 140 11
127 127 11
146 151 0
136 139 11
142 147 0
143 147 19
133 135 11
138 144 16
138 144 0
145 153 0
145 149 0
144 152 0
147 157 0
155 164 0
157 165 0
149 159 0
150 158 0
154 164 0
154 164 0
151 161 0
156 168 0
159 170 0
154 166 0
163 176 0
158 170 0
162 172 0
160 175 0
155 169 0
151 164 0
160 172 0
160 175 0
158 169 0
159 172 0
160 175 0
165 180 0
165 179 0
164 178 0
162 176 0
166 182 0
155 170 0
163 177 0
162 177 0
164 179 0
161 177 0
161 177 0
168 185 0
169 183 0
161 177 0
163 178 0
165 184 0
165 184 0
164 180 0
164 180 0
162 179 0
163 184 0
166 183 0
167 185 0
167 186 0
208 225 221
209 226 227
209 226 226
204 222 209
205 223 211
210 227 228
204 222 209
203 221 203
206 223 211
202 220 199
204 222 206
203 221 204
199 218 189
196 215 169
198 217 184
195 215 173
200 218 194
198 217 182
198 217 184
198 217 188
191 212 157
195 214 171
189 209 147
187 208 135
191 211 151
190 210 149
186 207 128
188 208 140
187 208 133
183 205 120
186 208 133
187 208 130
188 208 135
187 208 137
183 205 108
183 204 102
183 204 125
185 206 114
184 205 108
180 202 102
183 204 95
182 203 95
179 202 84
181 202 105
181 203 105
180 202 92
179 201 76
184 205 108
182 204 105
183 204 105
178 200 76
181 202 99
182 203 88
181 204 102
183 205 108
179 200 95
181 202 102
185 206 117
182 203 102
186 207 128
185 206 122
185 206 125
185 206 128
186 207 128
188 209 140
187 208 137
188 208 141
183 204 147
184 205 161
162 182 142
167 188 168
163 184 170
147 168 193
151 171 197
140 161 197
135 157 189
125 147 188
127 149 195
125 148 197
137 159 201
124 147 190
96 123 179
103 129 182
111 136 187
115 139 189
111 136 188
103 129 188
118 142 191
99 126 178
111 136 193
99 126 185
107 132 188
95 123 184
94 122 183
92 120 182
82 113 177
79 110 173
83 114 181
79 110 174
82 112 173
65 100 165
82 113 180
78 109 161
69 103 167
68 103 170
65 101 164
62 98 163
70 104 159
64 100 165
63 99 162
68 102 159
64 99 151
67 102 161
65 99 152
63 98 156
62 97 144
60 96 154
63 98 151
65 100 153
61 97 159
62 97 159
62 98 152
60 96 145
61 96 153
62 97 154
63 98 152
60 96 152
63 98 153
61 96 152
62 97 156
61 97 155
61 97 155
61 96 142
60 95 152
60 96 153
61 97 158
62 98 158
61 97 162
60 96 150
61 97 152
62 98 158
61 96 149
60 95 149
61 96 154
61 97 159
60 96 148
62 99 166
61 97 154
61 97 157
61 96 149
62 98 164
62 98 161
62 98 159
61 97 159
62 98 162
60 96 149
62 98 158
60 95 144
62 97 159
62 98 161
61 97 156
61 97 156
61 97 156
61 97 149
60 95 151
62 98 159
61 97 163
61 97 157
62 98 155
61 97 159
62 99 163
62 98 156
62 98 157
61 97 150
62 98 161
61 96 154
61 97 154
61 97 150
61 97 156
62 99 163
61 97 154
62 97 157
61 97 153
61 97 153
61 97 154
61 97 150
61 97 157
61 97 153
62 97 156
61 97 151
62 98 160
61 97 155
62 97 149
61 97 149
60 96 148
61 96 150
62 98 157
61 97 157
63 98 159
62 98 154
63 99 159
62 97 150
61 97 153
61 96 151
61 97 154
62 97 156
62 98 160
61 97 153
61 96 152
62 97 153
62 98 155
61 96 151
62 98 156
62 97 153
62 97 154
62 97 153
61 96 150
61 97 150
61 97 155
62 98 157
62 97 150
61 97 151
62 97 148
62 97 152
61 97 150
61 97 152
61 97 154
63 99 161
62 97 153
61 96 148
62 98 159
61 97 155
62 97 145
61 96 141
62 97 145
61 96 147
61 96 145
61 97 151
61 97 145
61 96 150
61 96 149
60 95 140
62 97 154
61 96 151
61 96 149
61 96 141
62 97 149
60 94 141
60 95 135
60 95 140
59 93 125
60 95 140
61 96 143
60 94 139
60 94 133
59 92 130
59 93 129
58 91 119
58 91 125
60 92 125
84 103 103
123 131 47
108 114 0
128 135 0
125 132 0
111 115 0
120 123 0
109 112 0
123 127 0
110 112 0
116 121 0
107 112 0
109 110 0
96 99 0
102 103 0
106 105 0
103 103 0
106 107 0
103 105 0
112 110 0
102 103 0
103 100 0
95 92 0
114 114 0
104 106 0
109 111 0
101 101 0
98 98 0
95 92 0
97 94 0
95 93 0
97 98 0
93 90 0
95 91 0
89 82 0
98 98 0
100 98 0
92 86 0
98 94 11
103 100 0
105 100 0
102 97 0
100 94 0
96 91 0
103 98 0
102 97 11
88 86 0
112 110 0
109 104 0
111 108 0
111 106 0
104 100 11
107 103 11
112 107 0
118 116 11
112 106 0
102 98 0
108 103 11
113 110 16
119 114 0
117 114 0
110 108 11
116 110 11
113 110 0
119 116 0
101 96 0
111 109 0
121 121 0
123 120 16
119 118 0
115 111 0
116 117 0
122 120 11
111 107 16
123 123 0
120 114 0
120 119 16
130 130 0
126 126 0
131 131 16
125 124 0
133 134 11
139 143 11
143 148 0
132 136 0
137 139 16
136 138 0
140 144 0
142 148 11
142 147 0
142 152 0
141 146 0
143 150 0
153 163 0
151 159 0
147 157 0
153 167 0
153 164 0
154 166 0
156 165 0
151 158 0
157 169 0
155 166 0
156 166 0
148 157 0
152 163 0
161 176 0
153 165 0
158 170 0
156 169 0
158 169 0
162 176 0
162 178 0
166 181 0
154 168 0
156 169 0
160 177 0
161 176 0
157 171 0
166 180 0
162 178 0
157 172 0
161 177 0
161 175 0
162 178 0
158 174 0
161 176 0
162 178 0
159 174 0
165 182 0
166 184 0
160 175 0
166 183 0
166 184 0
158 174 0
163 178 0
168 187 0
166 184 0
165 184 0
167 186 0
209 226 224
205 223 212
209 227 227
204 222 207
202 220 199
206 224 217
206 223 212
203 221 203
202 220 201
200 219 193
200 219 191
195 215 175
197 216 175
195 215 173
191 211 144
193 213 165
194 213 163
195 215 171
190 210 149
190 210 147
191 211 149
188 209 147
186 207 130
183 205 117
182 204 111
182 204 108
184 205 120
187 208 133
182 205 117
181 203 99
181 202 102
181 203 95
183 205 105
181 203 99
181 202 92
178 200 88
181 203 102
180 201 88
181 203 92
177 199 80
180 201 88
179 202 84
181 203 92
183 204 99
179 201 76
175 198 67
177 199 62
179 201 80
178 200 72
178 201 76
182 203 95
181 203 84
182 203 105
173 197 62
176 199 67
180 202 80
181 203 95
178 201 80
178 200 95
180 202 105
182 204 108
182 203 105
179 201 84
184 205 122
185 206 120
182 204 108
185 205 141
185 205 143
177 198 144
168 188 151
165 187 135
160 181 161
138 160 168
136 158 177
125 147 181
110 134 183
128 150 191
133 154 193
108 133 187
111 135 181
107 133 186
113 137 186
97 125 182
101 128 186
97 124 178
90 119 181
88 117 181
105 131 187
103 130 188
92 120 181
92 121 181
94 122 184
80 111 177
87 117 182
74 107 169
83 113 175
87 117 175
85 115 181
74 107 175
80 111 175
68 103 173
78 110 177
77 109 173
65 101 171
74 107 169
65 100 165
62 98 165
62 98 159
66 101 162
63 99 163
64 99 156
66 101 156
63 99 155
69 103 156
61 97 157
65 99 156
64 99 145
63 99 156
65 99 153
63 98 154
64 98 152
63 98 153
63 98 150
61 97 149
60 95 152
60 96 151
60 96 152
60 96 150
61 96 151
60 96 144
60 96 152
62 97 154
62 98 159
61 97 157
61 97 157
62 98 162
60 96 151
60 96 149
61 97 152
60 96 154
62 98 161
61 97 156
62 98 161
60 96 149
63 98 158
61 97 158
61 97 156
61 97 150
61 96 148
61 96 149
61 97 151
61 97 150
62 98 163
62 98 157
62 98 159
62 97 152
61 97 156
62 97 156
62 97 157
62 98 161
60 96 144
62 97 157
62 98 157
60 96 153
62 98 161
61 97 151
62 98 158
61 97 153
61 96 151
62 98 159
62 97 155
62 98 159
61 97 155
62 97 153
61 96 150
61 97 156
62 98 156
60 96 154
61 96 155
60 96 154
62 98 155
62 98 161
63 99 165
62 98 158
61 97 149
62 98 163
61 96 149
61 97 152
61 97 154
61 97 155
61 97 152
62 97 155
61 97 153
62 97 157
62 97 156
61 97 149
61 97 154
60 96 140
62 98 160
62 97 155
61 97 158
62 98 158
62 97 156
62 98 155
61 97 149
60 95 145
59 94 136
60 95 142
61 97 156
62 98 157
61 96 149
62 97 152
62 98 156
60 96 150
62 97 152
60 95 142
61 97 150
62 97 148
61 96 150
62 98 155
61 97 151
61 96 150
61 97 150
60 95 143
62 97 153
61 96 145
62 97 153
60 96 142
61 96 147
62 98 158
61 96 149
61 97 152
62 97 151
60 95 143
61 96 142
61 96 143
62 98 153
59 94 136
60 95 140
60 95 142
61 96 143
62 97 153
61 96 142
61 96 142
60 95 143
59 94 139
60 94 134
60 93 136
60 94 132
61 96 144
60 95 138
59 93 124
60 94 134
59 92 125
60 94 128
59 92 128
60 93 138
59 93 133
59 92 128
58 89 117
89 106 84
113 119 25
109 115 0
105 112 0
104 111 0
111 117 0
116 121 0
111 119 0
115 119 0
113 120 0
115 117 0
113 115 0
117 121 0
116 120 0
105 106 0
108 108 16
103 106 0
104 106 0
106 105 0
89 88 0
101 99 0
91 90 0
95 96 0
104 106 0
110 109 11
95 93 0
102 101 0
102 103 0
99 99 0
99 95 0
94 94 0
99 93 0
100 98 0
99 96 0
94 94 0
96 92 0
104 101 0
97 94 0
95 91 0
99 91 0
95 91 0
100 95 0
100 96 0
95 93 0
103 96 0
103 95 0
100 97 0
93 92 0
104 98 0
107 101 11
107 102 0
107 104 0
111 108 0
112 109 11
97 93 0
101 95 0
107 103 11
97 95 0
107 102 0
107 102 11
122 119 0
104 101 0
105 101 0
105 102 0
106 101 0
116 115 0
128 126 0
122 120 0
123 122 11
123 122 0
111 111 11
115 115 11
107 104 0
132 133 11
111 109 0
129 128 16
125 127 11
126 127 0
131 131 11
133 137 16
134 135 16
134 139 11
140 143 0
138 142 16
136 140 0
134 135 0
142 149 11
148 154 11
147 152 0
151 159 0
140 146 0
146 150 0
150 158 0
154 162 0
152 163 0
148 156 0
153 161 0
153 161 0
145 155 0
146 156 0
157 170 0
152 159 0
158 170 0
157 168 0
160 173 0
151 162 0
159 172 0
159 172 0
157 169 0
157 170 0
158 172 0
159 171 0
154 168 0
162 178 0
154 169 0
163 179 0
154 168 0
156 169 0
161 177 0
168 184 0
154 165 0
161 176 0
168 185 0
160 176 0
162 176 0
163 178 0
159 171 0
167 183 0
161 176 0
163 181 0
162 179 0
162 179 0
160 177 0
165 182 0
162 178 0
161 179 0
164 182 0
167 184 0
164 182 0
166 182 0
206 223 214
205 223 209
208 225 218
203 221 203
201 220 198
202 220 196
198 217 184
201 219 189
200 219 193
194 214 167
195 214 169
194 214 169
195 215 171
193 213 165
189 210 147
193 213 163
191 211 151
188 209 133
186 207 130
186 207 130
186 207 133
183 205 108
183 204 114
183 204 102
180 202 99
184 205 108
182 203 108
180 202 95
183 204 108
180 203 99
180 202 88
182 203 99
179 201 84
180 202 76
178 200 67
180 202 80
180 201 76
179 201 76
178 201 67
177 200 72
173 196 51
178 199 57
175 197 51
176 200 62
176 199 44
175 198 67
172 196 25
174 197 51
175 198 57
176 198 51
175 198 57
178 200 57
177 199 57
179 201 72
175 198 36
171 194 36
178 200 80
177 199 62
177 200 67
178 200 72
179 201 80
180 202 80
179 201 88
177 200 80
181 202 105
180 201 95
181 202 110
183 204 118
178 200 143
173 194 131
149 171 144
151 172 154
136 158 172
129 151 172
105 131 175
106 131 178
97 124 172
119 143 194
110 134 182
99 126 175
107 133 188
101 128 184
106 131 184
97 124 178
95 123 181
104 130 186
94 122 173
82 112 175
101 128 186
85 115 180
93 121 182
90 119 179
94 122 182
85 116 181
80 112 183
77 109 170
82 113 178
66 101 172
74 107 172
71 105 173
71 104 165
74 106 167
65 100 167
74 107 179
68 102 167
61 97 163
68 103 169
62 98 166
62 98 165
63 99 157
69 103 154
67 101 153
61 97 161
61 96 154
64 99 161
65 100 159
63 98 157
63 98 147
65 100 152
63 98 150
63 98 150
60 95 151
63 98 151
61 97 156
60 96 148
60 95 148
63 98 155
61 96 147
60 96 155
62 98 160
59 95 140
60 95 149
59 94 148
61 97 150
60 96 154
61 96 148
60 96 150
61 96 154
60 96 145
61 97 158
62 97 150
61 97 156
61 97 161
60 96 153
62 98 160
62 98 158
60 96 157
62 98 159
61 97 159
62 98 162
61 97 162
62 98 157
61 97 153
61 97 158
61 96 155
61 97 156
62 97 157
61 97 152
60 96 148
62 98 162
61 96 148
61 97 153
61 97 150
61 96 156
62 97 155
61 97 154
60 95 148
61 97 154
61 97 153
62 97 154
62 98 155
62 97 160
62 97 154
61 97 155
60 96 148
62 98 160
61 97 160
62 98 162
61 97 156
62 97 159
62 98 153
62 98 157
62 97 153
62 97 149
62 97 154
62 98 154
62 98 153
61 97 149
63 99 165
61 97 149
61 97 150
63 99 161
62 98 157
60 96 147
62 98 156
60 96 149
61 97 152
61 97 151
61 97 152
61 97 153
61 97 155
61 96 143
62 98 156
61 96 152
62 98 157
61 96 145
61 96 149
62 97 152
61 97 152
62 98 155
61 97 151
61 96 150
62 97 155
61 97 148
61 97 153
61 97 150
62 98 155
62 98 153
60 95 142
62 97 148
61 97 148
61 96 143
62 98 154
62 98 158
63 99 162
62 98 152
61 96 147
61 96 145
61 96 150
62 97 150
61 97 150
61 96 147
60 95 139
61 96 151
61 97 150
59 94 135
59 95 143
62 97 144
61 96 151
59 94 137
61 96 147
58 93 128
59 94 133
61 96 140
60 95 143
62 97 155
59 94 142
61 96 144
61 96 145
60 94 137
59 93 131
61 96 141
60 95 140
58 91 129
60 94 140
58 92 126
58 91 128
59 93 131
57 90 118
71 95 112
94 105 51
110 117 18
125 129 0
117 125 0
115 117 0
114 119 0
119 125 0
111 115 0
115 121 0
121 124 0
99 100 0
99 104 0
105 106 0
108 112 0
117 119 0
115 120 0
99 99 11
110 113 0
100 102 0
108 110 0
112 111 0
91 93 11
102 103 0
95 93 0
99 98 0
101 101 0
90 85 0
97 97 0
97 94 0
100 98 0
104 101 0
96 91 0
100 101 0
107 106 0
97 95 0
101 99 0
103 101 0
98 95 0
97 93 0
106 103 0
105 99 0
106 103 0
106 105 0
104 102 0
100 98 0
102 101 0
107 102 0
108 104 0
102 101 0
110 106 0
110 103 0
115 111 0
94 90 0
105 101 0
110 107 0
114 111 0
106 104 0
112 109 0
111 106 0
113 106 11
118 115 0
114 114 11
109 104 11
120 120 0
124 120 0
116 114 0
125 121 0
120 121 0
119 116 11
115 118 0
119 119 0
117 114 0
117 119 0
119 118 0
122 122 0
134 131 11
140 142 16
134 137 11
139 142 16
125 125 16
137 138 0
141 144 11
140 142 11
131 135 0
140 147 0
142 147 0
140 147 0
142 148 0
147 152 0
154 161 0
146 152 0
149 154 0
152 159 0
157 167 0
152 163 0
151 159 0
149 156 0
146 154 0
156 168 0
154 164 0
148 160 0
154 164 0
160 174 0
159 171 0
162 175 0
157 170 0
155 166 0
157 170 0
161 173 0
164 178 0
156 170 0
159 171 0
163 174 0
158 173 0
160 174 0
160 173 0
158 172 0
152 167 0
160 175 0
161 174 0
164 180 0
162 175 0
164 181 0
161 179 0
161 177 0
163 177 0
163 179 0
163 181 0
163 180 0
164 181 0
165 181 0
161 179 0
164 180 0
164 179 0
166 183 0
169 187 0
166 185 0
165 184 0
166 185 0
165 182 0
207 224 217
201 220 198
199 218 188
201 219 194
200 218 188
195 215 173
195 215 173
200 218 186
193 213 165
196 215 173
193 213 163
193 213 163
190 210 149
189 210 149
188 208 135
192 211 157
189 209 142
183 204 111
186 206 130
186 207 125
188 208 125
184 205 111
179 201 88
180 202 88
179 201 76
179 202 84
182 203 99
179 201 80
179 201 80
177 199 67
177 199 67
180 202 92
178 200 76
179 201 72
175 198 44
177 199 51
177 200 57
175 198 57
177 199 51
171 194 25
174 197 25
174 197 25
172 196 25
173 197 25
174 197 0
175 198 36
173 196 0
177 199 36
173 197 25
172 196 25
174 196 44
175 198 0
172 195 36
173 196 25
173 196 0
175 198 44
172 195 44
175 198 36
173 196 36
177 200 44
172 194 51
176 199 72
178 201 72
175 198 62
176 199 80
172 195 44
174 197 67
170 192 86
170 192 105
160 183 99
147 169 134
138 161 153
149 171 161
103 129 163
103 129 172
112 136 177
108 133 177
105 131 179
98 125 177
108 133 182
85 115 172
93 121 183
89 118 172
85 114 168
103 129 187
92 120 179
99 126 181
88 117 181
88 117 183
82 113 175
90 119 181
77 109 176
71 105 172
77 109 179
71 105 170
90 119 185
71 104 172
71 105 173
72 105 169
62 99 174
83 113 180
62 98 164
68 103 169
68 102 164
72 105 173
77 109 172
73 106 166
63 99 170
66 101 170
61 97 159
62 98 157
69 102 153
61 98 164
68 103 161
67 101 159
64 98 151
60 96 154
67 102 165
67 101 155
62 98 154
59 94 153
66 101 159
63 97 142
59 95 136
61 97 157
61 97 160
61 97 160
61 96 147
61 96 151
61 97 157
61 97 156
61 97 156
61 97 158
61 96 156
61 96 148
60 96 156
61 97 154
62 98 159
60 96 151
61 97 148
61 96 149
60 96 151
62 98 157
60 96 149
62 98 160
62 98 161
61 96 151
62 98 158
61 96 150
62 98 157
61 97 154
61 97 153
61 96 152
62 98 158
62 98 165
62 98 161
61 97 156
62 97 154
61 97 156
62 98 160
63 99 163
61 97 157
62 98 156
61 97 155
61 97 153
61 97 155
61 97 157
62 98 160
61 97 154
61 97 150
61 97 151
61 96 144
61 97 145
61 97 149
61 97 156
61 97 150
62 97 157
62 98 162
60 96 153
61 97 154
61 97 156
61 97 152
62 97 152
62 98 160
61 96 144
62 98 156
61 97 148
61 97 152
61 97 153
62 98 160
62 98 162
60 96 153
61 96 153
62 98 160
59 94 139
62 98 157
61 97 152
61 96 147
61 97 151
61 97 153
62 98 154
61 96 144
61 97 153
62 97 155
61 97 155
62 97 152
62 97 156
62 97 153
60 96 147
62 98 156
62 97 150
62 97 150
62 98 155
60 95 143
61 96 150
60 95 140
62 97 152
62 97 157
60 96 148
60 95 142
61 96 147
60 95 141
60 95 140
61 96 147
61 96 143
60 96 139
61 97 151
61 96 145
61 97 150
62 97 150
61 96 142
60 95 135
61 97 152
61 96 143
61 96 145
61 95 137
61 96 152
61 96 140
61 97 149
61 96 148
61 97 153
61 95 139
60 95 144
60 94 129
61 97 147
61 95 145
59 93 128
61 95 134
60 95 139
59 94 134
60 94 141
59 93 125
57 90 113
58 92 117
59 94 126
59 92 130
57 90 122
57 89 112
61 93 121
88 106 97
108 120 44
114 123 0
113 119 0
117 125 0
115 120 0
122 129 0
112 116 0
105 111 0
107 112 0
117 120 0
105 109 0
114 116 0
107 111 0
112 115 0
107 112 0
111 114 0
117 121 0
113 116 0
99 97 0
103 102 0
107 109 0
95 98 0
110 113 11
94 95 0
87 85 0
107 107 0
111 110 0
106 105 0
100 100 0
103 104 0
111 109 0
102 99 0
96 98 0
91 89 0
103 103 0
101 99 0
97 95 0
98 96 0
106 103 0
110 109 0
109 106 0
107 107 0
101 99 0
115 115 0
104 100 0
106 104 0
104 101 0
109 105 0
111 108 0
105 103 0
102 98 0
113 111 0
114 111 0
112 109 0
110 108 0
108 104 0
111 108 0
112 108 0
114 113 0
112 108 0
114 110 11
116 115 11
111 109 0
116 115 0
111 107 0
124 121 11
124 122 0
122 122 0
126 128 0
114 110 0
130 130 0
107 103 0
127 126 0
126 127 0
128 125 11
121 121 0
126 126 0
127 131 11
132 135 0
149 152 11
130 135 0
129 131 0
142 147 0
142 147 11
143 148 0
142 147 0
148 153 0
137 141 0
144 148 0
141 146 0
145 153 0
152 162 0
151 160 0
153 160 0
157 167 0
152 163 0
148 157 0
156 168 0
154 165 0
147 155 0
151 163 0
147 157 0
149 159 0
153 162 0
159 170 0
160 172 0
154 166 0
161 173 0
162 173 0
159 173 0
164 177 0
161 174 0
156 170 0
157 171 0
157 171 0
163 176 0
162 178 0
161 176 0
155 168 0
161 173 0
157 172 0
158 174 0
162 180 0
162 176 0
161 178 0
161 176 0
164 181 0
164 181 0
162 178 0
166 183 0
165 182 0
168 184 0
166 182 0
165 181 0
164 181 0
168 188 0
163 182 0
164 181 0
166 185 0
166 185 0
200 219 193
201 219 196
198 217 182
198 217 189
195 215 173
198 216 179
192 212 151
194 214 163
194 214 167
191 212 155
194 213 163
188 209 135
193 212 155
190 210 153
181 203 105
186 207 122
184 205 117
181 203 99
182 204 102
183 205 111
179 201 102
179 202 76
180 202 92
179 201 80
179 202 76
177 199 62
178 200 57
179 201 80
174 197 44
175 198 36
175 198 57
172 196 0
175 198 25
174 197 44
172 196 36
175 198 25
172 195 0
172 195 25
174 197 0
171 194 0
173 196 0
170 194 0
173 196 0
173 197 0
172 195 0
171 195 0
173 196 0
170 194 0
172 195 0
168 192 0
170 195 0
172 196 0
173 195 0
171 195 0
173 196 0
174 197 0
174 197 25
170 194 0
174 197 0
172 196 0
173 197 25
174 197 36
175 198 25
175 198 57
172 195 36
180 201 67
171 195 67
171 193 65
166 189 84
150 174 86
143 167 130
133 157 131
132 156 145
92 120 153
95 123 170
97 124 174
96 123 172
116 139 185
85 115 172
85 115 173
83 114 172
84 113 167
85 115 177
77 109 169
92 121 181
83 113 175
99 126 182
82 113 172
80 111 171
74 107 175
80 112 178
87 117 175
72 106 175
77 109 177
69 103 174
83 114 180
77 109 174
72 105 173
65 101 172
68 103 172
65 100 171
74 107 173
65 100 169
74 107 174
61 97 168
71 104 172
65 101 167
62 99 172
65 100 168
62 98 165
61 97 161
63 98 158
63 98 153
61 97 160
67 102 163
67 102 157
64 99 159
61 96 151
63 98 145
64 99 147
60 96 153
66 100 149
59 94 141
62 97 145
61 97 152
63 99 159
62 96 142
61 96 153
61 96 150
62 97 153
60 95 145
60 96 145
61 97 155
59 95 145
60 96 147
60 96 148
59 94 145
62 97 156
59 94 139
61 97 156
61 96 153
61 96 150
60 96 154
61 97 155
60 95 148
61 97 153
61 97 154
62 97 160
62 98 162
61 96 155
61 97 150
61 97 153
62 98 161
61 97 153
60 96 152
61 97 154
62 97 153
60 96 152
61 97 154
61 97 157
62 98 160
61 97 157
61 96 152
61 97 159
60 96 145
61 97 154
61 96 144
62 98 155
61 96 145
61 97 155
62 97 152
61 96 150
61 97 157
61 97 156
61 97 154
61 97 151
62 97 152
61 97 153
62 98 155
61 97 156
62 97 158
62 98 161
61 96 145
62 98 159
62 97 156
60 95 144
61 96 150
60 96 147
61 97 152
62 98 156
62 97 147
61 97 151
61 97 157
60 96 152
61 97 153
61 97 147
61 97 149
62 98 156
61 96 147
62 97 149
62 98 154
63 98 157
60 96 149
59 94 136
62 98 162
60 96 147
60 96 147
61 96 142
62 97 156
61 96 144
61 96 149
62 98 157
62 97 157
61 97 150
62 97 152
62 97 150
62 97 153
62 98 159
62 98 158
62 98 153
61 96 145
61 97 154
62 97 154
62 97 154
61 96 145
62 98 156
61 96 140
61 96 150
60 96 140
61 95 140
62 97 148
60 95 136
60 95 140
61 96 145
61 96 149
61 96 145
61 96 148
61 96 147
61 96 147
61 96 149
59 94 135
62 97 153
61 96 148
61 96 145
60 95 143
60 94 139
59 93 125
59 93 129
61 96 144
61 95 141
60 94 145
60 94 135
61 95 142
59 93 133
59 93 126
60 95 133
58 91 125
57 89 119
64 94 104
85 100 76
112 122 36
119 122 0
115 122 0
105 112 0
121 126 0
111 117 0
101 105 0
101 107 0
108 114 0
113 119 0
100 107 0
123 128 0
107 109 0
112 116 0
108 111 0
110 112 0
109 115 0
110 114 0
108 111 0
112 117 0
100 100 0
105 106 0
100 101 0
114 115 0
97 98 0
101 100 0
109 108 0
111 110 0
107 107 0
93 94 0
104 102 0
98 99 0
94 94 0
109 107 0
103 105 0
108 108 0
106 106 0
95 91 0
111 109 0
106 103 0
105 102 0
94 90 0
109 108 0
99 99 0
100 95 0
108 104 0
99 96 0
94 90 0
112 111 0
103 104 0
107 103 0
102 98 0
109 105 0
107 106 0
119 115 0
101 98 0
115 113 11
108 107 0
94 91 0
110 109 0
120 120 0
112 109 0
109 108 0
114 113 0
128 129 0
122 117 0
115 116 0
118 116 11
130 132 0
128 131 0
126 127 0
122 121 0
130 130 0
133 135 0
122 124 0
135 139 0
125 126 0
135 136 0
130 131 0
131 134 11
150 158 11
138 144 0
142 147 0
140 146 0
148 155 0
145 151 0
148 155 0
152 159 0
146 153 0
147 153 0
141 148 0
152 161 0
149 157 0
153 161 0
143 151 0
146 152 0
152 161 0
154 163 0
149 154 0
152 164 0
158 169 0
149 159 0
158 167 0
152 164 0
161 174 0
153 162 0
160 174 0
158 169 0
156 169 0
156 170 0
154 165 0
160 171 0
152 164 0
153 166 0
162 179 0
160 175 0
159 172 0
156 170 0
158 170 0
159 173 0
164 180 0
160 175 0
160 173 0
164 180 0
164 180 0
166 181 0
161 174 0
165 183 0
162 179 0
162 178 0
164 183 0
163 180 0
165 183 0
164 180 0
163 180 0
165 182 0
163 182 0
163 180 0
166 183 0
166 184 0
201 219 196
196 215 177
197 217 182
196 216 173
196 216 173
196 215 173
191 211 155
189 210 151
192 213 163
190 210 149
189 210 142
182 204 108
187 208 133
184 206 114
187 208 133
183 204 111
181 203 105
181 202 95
183 205 102
179 201 84
178 201 76
178 200 62
178 200 76
178 200 62
177 199 57
175 198 51
175 198 44
178 200 51
175 198 25
174 198 25
174 196 25
172 196 0
171 195 0
172 196 0
171 195 0
170 194 0
174 197 0
174 198 0
173 197 0
171 195 0
169 193 0
171 194 0
171 194 0
173 197 0
172 196 0
173 196 0
172 195 0
173 196 0
172 196 0
171 194 0
172 195 0
172 195 0
173 196 0
172 196 0
172 196 0
171 194 0
170 193 0
173 196 0
173 196 0
169 193 0
170 194 0
174 197 0
172 195 0
170 193 0
173 197 25
172 196 25
170 193 25
170 193 57
159 182 54
152 176 92
151 175 108
135 159 118
122 147 141
99 127 143
75 107 162
77 108 159
90 118 166
82 111 166
78 108 151
87 116 169
74 105 158
77 108 163
88 117 173
82 112 167
85 114 174
77 109 170
71 104 166
65 100 168
71 105 175
65 101 171
68 103 173
65 100 168
68 103 173
77 109 176
70 103 165
75 107 173
68 103 170
62 99 169
71 105 170
68 102 171
66 101 170
64 100 165
69 103 175
69 103 169
69 103 174
71 105 169
71 104 168
62 98 167
65 100 168
68 102 170
64 99 159
62 98 159
62 98 163
62 98 167
63 99 159
66 101 161
65 99 155
65 99 144
60 96 150
61 96 154
58 93 141
64 98 150
65 100 153
59 94 150
61 97 161
63 98 147
61 97 153
60 96 150
60 96 145
60 95 145
61 96 152
61 96 145
60 96 154
61 96 150
62 97 149
61 97 148
60 96 149
61 96 153
60 95 145
61 96 147
60 95 147
61 97 155
60 95 144
61 96 143
61 96 150
61 96 153
60 96 151
60 96 150
61 97 157
61 97 156
61 97 152
61 97 154
61 96 147
61 96 150
60 96 152
61 97 157
61 96 150
62 98 156
60 96 155
62 97 152
61 97 155
61 97 159
62 98 156
61 97 156
62 98 157
61 96 148
62 98 163
62 98 155
62 98 157
62 97 154
61 97 158
61 97 151
62 97 155
63 98 153
61 96 150
62 98 158
61 97 156
61 96 149
61 97 152
62 98 159
61 97 154
60 96 149
62 98 153
62 98 160
62 97 156
61 96 153
61 97 154
61 97 150
62 97 151
61 97 150
61 96 142
61 97 147
60 95 151
61 96 149
61 97 154
62 97 155
61 96 144
62 97 153
61 97 153
61 97 149
62 97 151
62 97 155
61 97 150
61 97 151
61 97 151
62 98 157
62 97 149
60 95 136
62 97 156
61 97 149
60 96 143
61 96 148
62 97 152
61 96 147
61 97 154
62 97 153
61 96 148
61 96 143
61 96 142
60 96 140
62 97 149
61 96 151
61 96 144
62 97 153
61 96 148
61 96 145
61 96 143
60 96 144
62 97 152
60 95 141
60 95 134
61 96 140
61 96 149
62 97 147
61 96 147
61 96 144
61 97 149
60 94 149
60 95 137
60 95 140
60 95 139
60 95 144
62 97 151
60 95 140
58 92 128
60 94 135
59 94 131
61 95 135
61 95 135
60 94 130
60 94 136
60 94 135
59 93 135
61 96 145
62 97 147
59 93 133
59 92 128
59 92 127
70 93 101
90 101 54
122 129 0
120 127 0
121 129 0
121 129 0
122 129 0
118 123 0
125 132 0
110 116 0
115 119 0
112 117 0
111 114 0
106 113 0
113 121 0
108 112 0
108 114 0
114 117 0
115 117 0
112 116 0
116 121 0
104 108 0
109 112 0
112 116 0
105 109 0
108 109 0
112 117 0
96 96 0
104 104 0
104 105 0
110 110 0
90 89 0
103 103 0
108 110 0
108 107 0
94 96 0
98 97 0
100 97 0
91 89 0
104 101 0
99 97 0
97 93 0
101 98 0
112 111 0
112 111 0
112 107 0
113 108 0
105 100 0
111 106 0
88 86 0
99 98 0
110 109 0
108 108 0
120 120 0
110 109 0
114 113 0
109 105 0
117 116 0
109 113 0
111 110 0
100 98 0
113 111 0
123 123 0
122 121 0
135 136 0
117 117 0
129 126 0
122 122 0
119 118 0
117 118 0
122 123 0
130 131 0
129 133 0
126 127 0
133 136 11
136 138 0
133 135 0
135 136 0
129 130 0
134 138 0
139 145 0
139 142 0
133 136 0
142 147 0
149 157 0
137 140 0
148 155 0
142 147 0
147 152 0
151 157 0
147 155 0
144 151 0
142 147 0
153 159 0
154 163 0
148 157 0
154 163 0
154 166 0
149 157 0
144 151 0
153 160 0
155 170 0
155 164 0
163 175 0
152 160 0
152 165 0
155 168 0
150 162 0
163 178 0
156 169 0
158 171 0
153 164 0
161 176 0
153 164 0
157 170 0
160 173 0
153 164 0
158 174 0
158 173 0
162 175 0
161 175 0
158 174 0
162 176 0
160 176 0
164 181 0
163 179 0
166 182 0
165 181 0
160 176 0
165 182 0
167 184 0
161 176 0
169 186 0
168 186 0
167 182 0
159 175 0
162 181 0
161 179 0
162 182 0
168 187 0
167 185 0
165 184 0
201 219 193
195 215 171
193 213 165
189 210 151
194 214 167
190 210 149
194 214 163
191 211 149
187 208 128
186 207 122
185 206 120
184 206 111
184 205 120
182 204 102
181 203 102
179 202 80
179 202 88
182 204 95
179 201 57
176 200 62
173 196 44
177 200 67
171 195 36
175 198 44
173 196 0
174 196 25
174 197 0
175 198 0
173 196 0
172 196 0
173 196 0
173 197 0
173 196 0
171 194 0
175 198 0
174 197 0
174 197 0
173 196 0
173 196 0
171 194 0
169 193 0
173 196 0
174 197 0
171 195 0
173 196 0
171 195 0
171 194 0
170 193 0
173 197 0
171 195 0
172 195 0
171 195 0
169 191 0
173 195 0
172 195 0
173 196 0
173 197 0
173 197 0
171 195 0
172 195 0
170 193 0
174 198 0
172 195 0
172 195 0
170 193 0
169 192 0
171 195 0
165 189 40
159 183 54
157 181 57
144 167 99
136 160 105
106 133 114
91 120 141
81 112 153
67 100 144
69 102 158
74 106 162
87 116 164
76 108 162
85 114 166
80 110 170
72 104 159
78 109 173
81 111 165
73 106 163
65 100 160
69 103 167
71 104 170
77 109 172
62 98 163
68 102 170
68 102 166
69 103 176
72 105 169
69 103 175
65 100 165
72 105 173
65 100 168
62 98 168
68 103 174
68 103 169
62 99 169
65 100 161
68 102 165
72 105 171
68 102 169
62 99 171
64 100 165
62 99 167
62 98 164
62 98 163
61 97 157
63 98 157
67 101 155
60 96 155
65 100 154
61 97 158
70 104 154
64 98 152
63 99 158
66 100 153
67 101 150
62 97 148
62 98 158
62 97 153
64 99 151
61 97 156
60 96 149
61 96 157
60 96 156
59 95 151
62 97 145
61 97 153
60 96 157
61 97 151
61 97 156
62 97 152
60 96 155
60 96 151
61 97 152
61 97 151
61 97 150
61 96 143
60 96 150
61 97 153
61 97 153
61 97 156
61 97 153
62 98 161
60 96 155
61 98 163
61 97 152
61 97 158
61 97 153
60 95 148
60 96 150
60 96 150
61 97 156
61 96 150
61 97 153
62 98 161
61 96 150
61 97 153
61 96 145
62 97 155
62 97 153
62 98 157
61 97 155
62 98 158
61 97 154
61 97 154
61 96 150
61 97 152
61 97 155
61 97 155
60 96 140
61 97 155
61 97 151
61 97 160
61 97 152
63 99 164
61 96 148
62 97 153
61 97 155
62 97 151
60 96 152
62 97 151
61 97 159
62 97 154
61 96 152
61 97 147
61 96 148
62 98 159
61 97 153
62 97 151
61 97 149
60 95 139
61 96 142
61 96 154
61 97 153
62 98 158
61 96 141
61 96 140
61 97 148
61 96 147
61 97 150
62 97 154
60 95 142
61 97 150
62 97 150
63 98 155
61 97 149
62 97 154
61 96 149
62 98 160
61 97 148
62 98 152
61 96 150
61 96 144
62 98 157
61 96 143
61 97 147
61 96 147
62 97 154
61 96 147
60 96 147
60 95 135
59 93 129
60 95 142
62 97 150
61 97 148
61 96 149
61 96 143
60 95 139
60 94 131
61 96 143
60 95 136
60 95 137
60 95 139
60 95 147
62 97 145
61 96 151
59 93 128
61 96 143
61 96 145
60 95 141
60 95 130
59 93 124
59 93 132
61 95 136
59 94 138
61 94 136
60 94 129
59 93 135
57 90 115
58 91 120
61 95 140
85 102 94
106 115 31
118 127 0
114 121 0
111 118 0
115 123 0
114 125 0
118 125 0
107 113 0
120 129 0
113 121 0
121 128 0
122 131 0
115 119 0
115 120 0
121 127 0
123 131 0
119 122 0
110 115 0
98 103 0
101 104 0
96 98 0
113 113 0
111 112 0
112 113 0
89 89 0
107 110 0
112 115 0
105 107 0
102 104 0
100 101 0
100 104 0
106 108 0
101 101 0
109 109 0
92 94 0
90 90 0
108 108 0
111 114 0
105 103 0
108 108 0
111 114 0
102 101 0
101 102 0
111 111 0
112 113 0
111 111 0
103 101 0
111 108 0
107 105 0
105 106 0
106 106 0
112 109 0
97 97 0
107 104 0
106 107 0
114 113 0
115 115 0
113 111 0
124 127 0
115 114 0
120 119 0
119 121 0
124 126 0
124 124 0
113 113 0
120 122 0
122 121 0
124 125 0
128 127 0
122 120 0
136 135 0
125 126 0
129 127 0
134 142 11
130 130 0
140 143 0
136 137 0
135 136 0
144 149 0
141 147 0
146 155 0
144 148 0
137 138 0
147 152 0
147 152 0
146 150 0
140 148 0
138 142 0
151 157 0
148 158 0
144 152 0
151 158 0
151 161 0
145 155 0
153 162 0
154 165 0
150 158 0
147 155 0
150 159 0
162 175 0
146 156 0
159 171 0
148 156 0
153 164 0
157 171 0
159 172 0
157 168 0
163 176 0
161 173 0
159 173 0
156 168 0
156 168 0
160 175 0
156 169 0
157 172 0
154 168 0
166 182 0
161 177 0
154 168 0
156 169 0
164 177 0
162 177 0
161 176 0
156 170 0
158 174 0
164 182 0
163 180 0
160 175 0
162 178 0
162 178 0
161 177 0
166 183 0
163 180 0
169 188 0
167 184 0
164 182 0
167 183 0
165 184 0
160 179 0
168 186 0
163 181 0
194 214 165
192 212 157
191 211 153
191 212 155
189 210 149
186 207 133
185 205 125
185 206 122
186 207 130
183 205 117
184 205 108
179 202 88
177 199 72
182 203 99
174 197 51
178 200 62
180 202 84
177 199 51
179 201 76
176 199 36
176 198 44
173 197 0
173 196 0
171 194 0
172 195 0
173 197 0
173 196 0
173 196 0
173 196 0
171 195 0
175 198 0
175 197 0
171 195 0
173 197 0
169 192 0
172 195 0
174 197 0
172 196 0
174 197 0
170 194 0
171 195 0
171 194 0
170 193 0
174 197 0
169 194 0
171 194 0
171 195 0
173 196 0
172 195 0
172 195 0
170 194 0
170 194 0
169 193 0
171 195 0
171 195 0
169 192 0
169 193 0
170 193 0
169 192 0
172 196 0
171 195 0
171 194 0
172 196 0
168 191 0
172 194 0
171 194 0
171 194 0
163 186 40
154 178 62
154 177 78
150 174 86
132 157 103
109 136 117
86 116 140
83 112 137
61 97 151
64 98 151
65 100 163
71 104 163
70 103 149
80 110 163
68 102 160
66 101 163
77 108 163
68 101 155
74 106 162
65 100 157
74 106 171
65 100 162
65 100 166
68 102 166
61 98 161
72 105 172
65 100 166
62 99 171
65 100 167
66 101 174
65 100 162
62 98 169
69 103 171
65 100 164
62 98 164
62 98 166
64 100 168
61 98 163
61 98 168
62 98 168
60 96 159
71 104 171
68 103 167
62 98 167
68 102 169
62 98 164
62 98 162
61 97 160
61 97 153
64 99 162
66 100 158
61 96 151
68 102 159
63 98 151
63 98 143
59 94 147
63 98 156
64 98 152
64 99 158
60 96 145
62 97 147
64 98 142
61 97 155
60 95 147
60 95 147
60 95 142
61 96 147
59 94 141
61 96 152
61 97 154
60 95 145
61 96 152
61 96 151
61 97 155
60 95 150
60 95 144
62 98 153
61 97 157
62 97 149
61 96 150
60 95 142
61 96 154
61 96 150
60 96 147
62 98 157
61 97 159
61 97 154
61 96 150
60 96 152
61 97 155
60 96 150
61 96 150
60 96 152
61 97 154
61 97 155
62 97 156
61 97 157
60 96 144
61 97 154
61 96 151
61 96 154
60 95 137
62 98 156
61 96 151
61 97 153
60 95 149
60 95 145
61 97 154
61 97 149
61 97 154
62 97 154
62 98 157
62 97 155
61 97 155
61 96 145
63 99 161
61 96 151
61 97 151
62 97 155
61 97 150
61 97 154
60 95 143
60 95 142
61 96 152
62 97 150
61 96 145
61 96 149
61 97 151
61 96 148
62 97 153
61 96 147
62 97 156
62 97 148
61 96 144
61 97 155
60 95 144
62 98 158
61 96 149
61 96 143
60 96 147
61 96 148
61 96 145
61 95 140
61 97 148
62 98 153
62 98 155
61 96 151
62 97 157
60 95 142
60 96 140
60 95 136
61 97 149
60 95 143
61 96 145
61 96 147
61 96 148
60 95 142
61 97 153
62 98 153
61 95 141
62 97 150
60 96 141
61 96 142
61 96 141
61 96 145
59 94 130
60 94 137
61 96 141
59 94 128
60 95 139
60 95 140
61 96 136
60 95 142
61 96 135
60 95 142
59 94 131
59 94 125
60 94 136
60 95 137
60 95 136
61 96 143
59 93 128
61 95 140
59 94 136
58 91 126
59 92 128
61 96 143
58 91 119
58 91 115
61 95 137
64 93 116
104 118 66
120 130 25
116 123 0
98 106 0
114 122 0
110 116 0
115 123 0
101 106 0
112 121 0
119 129 0
109 115 0
118 123 0
107 113 0
112 114 0
112 118 0
105 109 0
123 128 0
112 116 0
108 114 0
105 111 0
113 119 0
109 114 0
110 115 0
116 118 0
121 129 0
111 115 0
111 116 0
108 110 0
113 113 0
108 111 0
101 100 0
107 108 0
101 99 0
107 108 0
107 108 0
106 107 0
115 119 0
103 105 0
111 113 0
102 101 0
116 120 0
103 102 0
100 99 0
115 113 0
109 109 0
115 115 0
102 99 0
118 118 0
115 116 0
114 116 0
100 98 0
112 113 0
114 112 0
118 118 0
114 115 0
124 122 0
117 118 0
120 120 0
119 117 0
114 110 0
119 118 0
125 127 0
125 128 0
129 129 0
129 130 11
127 129 0
131 131 0
128 131 0
130 131 0
133 136 0
122 126 16
129 128 0
132 136 0
132 133 0
130 131 0
137 140 0
142 148 0
141 147 0
141 144 0
136 142 0
142 147 0
140 145 0
146 151 0
149 154 0
144 150 0
142 146 0
144 152 0
146 154 0
144 151 0
145 151 0
148 156 0
146 154 0
152 161 0
150 160 0
147 157 0
150 160 0
161 171 0
150 160 0
159 168 0
154 162 0
156 166 0
146 156 0
154 163 0
152 162 0
153 164 0
153 164 0
153 163 0
158 165 0
154 168 0
155 169 0
154 166 0
162 174 0
153 167 0
161 175 0
159 173 0
161 175 0
157 168 0
164 179 0
160 173 0
158 172 0
159 176 0
166 182 0
160 174 0
165 182 0
164 181 0
165 180 0
164 179 0
161 177 0
162 181 0
166 182 0
157 172 0
168 185 0
166 184 0
161 178 0
162 178 0
165 182 0
161 181 0
161 180 0
167 186 0
164 181 0
162 179 0
164 181 0
196 216 177
190 210 149
193 213 163
189 209 147
190 210 147
183 204 114
183 205 114
185 206 111
179 201 88
185 206 122
180 202 80
180 202 99
180 202 84
179 201 76
178 200 72
176 199 51
174 196 25
175 198 25
173 197 0
172 196 0
170 194 0
174 197 0
169 192 0
174 196 0
175 198 0
174 197 0
172 196 0
175 198 0
170 194 0
173 196 0
174 196 0
171 195 0
173 196 0
169 193 0
171 195 0
174 197 0
169 193 0
171 195 0
170 194 0
171 194 0
171 194 0
170 194 0
173 197 0
173 196 0
168 192 0
170 193 0
170 193 0
173 196 0
171 194 0
170 193 0
172 195 0
172 195 0
170 194 0
171 194 0
171 194 0
171 194 0
171 195 0
174 198 0
173 196 0
170 193 0
171 194 0
170 194 0
170 194 0
169 190 0
169 192 0
167 191 0
171 195 0
170 192 18
156 180 65
150 174 78
142 166 92
132 157 102
109 137 121
98 127 128
78 109 144
60 95 142
62 98 156
60 96 149
65 100 153
67 100 155
68 102 154
65 100 156
65 99 154
68 102 162
64 99 162
66 101 166
62 97 156
60 97 159
61 97 159
61 97 156
61 98 162
62 99 168
61 97 158
61 97 162
61 97 164
65 100 168
61 98 166
65 101 168
62 98 170
61 97 164
61 98 168
62 99 170
66 101 165
62 99 170
62 98 168
62 98 167
62 98 169
62 99 167
62 98 167
62 99 171
62 98 167
66 101 169
61 98 163
62 98 162
62 98 162
62 98 164
63 98 157
60 96 152
69 102 149
61 97 153
63 97 149
61 96 150
63 98 151
62 97 153
63 97 145
64 99 150
65 100 151
61 97 157
61 96 154
59 94 136
61 96 144
60 96 149
61 96 147
60 95 143
60 96 150
60 95 144
61 96 149
59 95 151
60 95 147
61 97 155
62 97 152
61 97 158
61 97 153
61 97 155
60 96 150
59 94 147
61 96 150
62 97 155
61 97 153
61 97 155
60 95 145
60 96 147
62 97 151
61 96 150
61 97 153
61 97 153
62 97 158
61 97 156
62 97 152
62 97 151
61 96 150
60 95 143
61 96 147
60 95 137
61 97 152
60 96 144
60 96 151
62 97 151
61 97 154
62 98 153
61 96 148
60 95 145
61 96 153
61 97 157
60 96 141
60 96 145
60 96 144
61 97 152
61 96 148
62 97 152
61 96 149
61 96 149
61 97 152
61 97 149
59 94 134
61 97 157
61 97 151
62 98 157
61 96 157
61 96 150
60 95 145
61 97 152
61 97 151
61 96 144
60 96 148
61 97 152
62 98 155
61 96 139
61 97 157
62 98 158
60 95 149
62 98 150
61 96 149
61 97 144
62 98 155
62 97 151
61 96 147
61 96 137
62 98 154
61 97 153
60 96 142
60 95 135
61 96 149
60 95 135
61 97 148
62 98 154
60 95 141
62 98 155
62 97 151
61 97 151
61 96 145
61 97 150
61 97 150
62 97 150
61 97 151
61 97 155
60 95 140
61 96 142
60 95 136
61 96 148
60 95 140
61 96 142
60 95 130
62 98 154
61 96 144
60 95 141
61 97 143
61 95 136
60 95 140
61 96 150
62 97 153
61 96 142
60 95 141
61 96 145
58 92 131
58 92 131
60 95 139
60 95 132
59 93 133
59 94 134
59 93 125
59 93 129
60 94 134
57 90 118
59 93 125
59 92 125
57 89 121
81 105 102
116 129 40
117 126 0
122 131 0
121 130 0
120 130 0
124 133 0
116 124 0
119 126 0
121 128 0
115 121 0
112 119 0
118 124 0
121 127 0
112 120 0
111 116 0
114 121 0
115 119 0
124 132 0
121 126 0
127 136 0
102 105 0
117 122 0
112 116 0
117 121 0
112 118 0
101 100 0
111 115 0
108 112 0
111 115 0
110 112 0
113 114 0
109 116 0
111 114 0
117 119 0
115 117 0
109 112 0
117 118 0
108 106 0
103 102 0
123 126 0
111 112 0
112 112 0
107 107 0
110 111 0
110 112 0
112 115 0
114 116 0
112 112 0
98 93 0
120 123 0
118 120 0
108 107 0
124 126 0
116 116 0
123 125 0
114 114 0
118 118 0
113 113 0
115 117 0
125 126 0
117 117 0
113 114 0
109 110 0
125 127 0
116 118 0
115 117 0
124 125 0
134 136 11
122 124 0
132 135 0
135 138 0
131 134 0
140 144 0
128 127 0
132 138 0
134 137 0
140 144 0
144 150 0
137 140 0
141 145 0
138 143 0
138 143 0
144 149 0
151 159 0
140 147 0
141 147 0
149 154 0
136 141 0
150 160 0
142 144 0
148 156 0
144 151 0
149 156 0
150 159 0
148 158 0
158 169 0
154 163 0
158 170 0
155 165 0
160 172 0
156 169 0
151 160 0
149 161 0
151 159 0
153 163 0
149 161 0
151 164 0
159 172 0
150 162 0
157 170 0
161 175 0
157 170 0
153 168 0
159 173 0
161 176 0
158 172 0
162 176 0
161 175 0
158 171 0
160 176 0
160 174 0
162 177 0
163 180 0
161 177 0
159 171 0
163 181 0
164 181 0
164 181 0
159 175 0
163 181 0
164 182 0
161 177 0
165 181 0
158 175 0
166 183 0
163 179 0
162 178 0
160 176 0
167 185 0
165 181 0
165 182 0
165 183 0
189 210 142
187 208 137
189 210 142
186 207 122
183 204 102
187 207 122
183 204 105
176 199 72
179 202 76
181 203 92
180 201 88
175 199 57
175 198 51
174 197 25
173 197 25
172 196 25
174 198 25
174 197 0
173 196 0
173 197 0
175 197 0
172 196 0
174 196 0
173 197 0
171 194 0
172 195 0
172 195 0
172 196 0
173 196 0
172 195 0
176 198 0
169 194 0
173 197 0
169 193 0
172 195 0
171 194 0
172 195 0
170 194 0
170 194 0
171 195 0
172 195 0
170 193 0
172 195 0
171 194 0
175 198 0
169 193 0
170 194 0
172 196 0
171 193 0
171 193 0
165 189 0
168 191 0
172 195 0
168 190 0
171 194 0
171 193 0
169 192 0
171 194 0
171 194 0
173 196 0
172 195 0
169 192 0
170 193 0
173 196 0
174 197 0
170 193 0
170 193 0
169 191 0
165 189 44
156 180 60
142 166 88
132 157 97
127 152 110
98 126 131
81 112 147
70 102 137
61 97 150
61 96 151
62 97 150
61 96 151
60 96 147
66 99 150
60 96 153
68 101 159
65 100 159
64 99 159
62 98 164
61 97 158
64 99 153
62 98 164
65 99 160
62 98 168
62 98 159
61 97 163
61 97 162
63 99 170
61 98 168
60 96 159
61 98 167
62 99 165
63 99 166
61 98 161
62 98 169
62 98 168
62 98 169
62 98 165
61 97 164
65 100 168
62 99 168
61 98 163
62 98 162
61 98 165
61 97 159
62 98 166
62 98 163
61 97 161
62 98 163
62 98 157
63 98 153
62 98 156
61 96 149
61 97 155
64 99 154
60 96 145
62 97 149
61 96 150
59 94 143
62 97 156
63 97 144
60 95 147
60 96 150
60 96 155
60 95 149
61 96 152
60 95 149
60 95 143
60 95 144
61 96 143
61 96 152
61 96 152
60 96 144
61 96 149
61 97 154
61 96 150
60 96 154
61 97 149
58 93 141
60 95 144
61 96 155
60 96 148
61 97 149
60 95 144
60 96 151
60 95 153
60 96 152
61 96 149
61 96 149
61 96 153
61 97 154
61 97 152
61 96 145
60 96 151
61 97 147
61 97 151
61 96 147
60 96 144
61 97 152
61 97 150
60 96 147
62 97 154
61 97 155
61 97 153
61 97 159
61 97 149
62 98 156
62 98 161
60 95 143
61 97 155
62 97 151
61 97 152
61 96 144
62 98 154
62 98 155
61 96 147
61 96 147
61 97 150
62 97 154
61 96 145
60 95 142
62 98 157
60 96 144
62 97 153
61 97 153
62 97 151
61 96 148
61 97 148
62 97 154
61 96 151
62 97 151
61 97 154
61 97 145
61 96 148
61 96 148
61 97 148
61 96 145
60 96 149
61 97 149
61 97 152
61 96 143
61 97 142
59 94 136
61 96 147
62 98 156
61 96 145
62 97 150
61 96 142
61 96 150
61 97 147
60 95 136
62 97 149
61 97 148
62 97 156
61 97 149
63 98 159
60 95 147
60 95 143
60 95 140
62 97 147
61 96 143
61 97 149
60 95 139
60 95 148
61 96 145
60 95 142
63 98 154
60 95 134
59 94 134
62 97 147
61 96 142
61 96 144
60 94 136
61 96 144
61 95 137
60 94 142
60 95 134
60 94 132
59 93 121
60 94 133
60 95 139
60 94 135
57 90 122
60 94 139
60 94 138
58 92 118
58 91 133
57 90 110
67 97 120
91 108 88
130 142 31
119 129 0
109 116 0
121 130 0
116 124 0
110 119 0
112 120 0
124 131 0
114 122 0
117 127 0
106 111 0
116 125 0
111 117 0
110 115 0
102 106 0
127 134 0
116 122 0
103 108 0
119 125 0
109 115 0
125 132 0
121 126 0
120 125 0
109 113 0
112 118 0
108 112 0
113 119 0
119 122 0
118 123 0
116 117 0
98 100 0
109 110 0
108 109 0
112 116 0
112 116 0
117 118 0
117 119 0
111 112 0
112 114 0
111 112 0
114 116 0
114 115 0
113 113 0
110 110 0
112 113 0
100 97 0
119 118 0
113 116 0
116 117 0
122 125 0
111 111 0
119 118 0
118 116 0
106 103 0
125 126 0
121 123 0
127 127 0
114 119 0
131 135 0
122 121 0
118 119 0
125 128 0
114 115 0
128 129 11
125 126 0
131 134 0
128 129 0
131 136 0
131 136 0
132 133 0
137 141 0
131 135 0
130 135 0
133 134 0
130 133 0
135 138 0
140 146 0
138 143 0
136 138 0
138 144 0
142 145 0
149 158 0
139 143 0
139 143 0
142 147 0
144 149 0
145 152 0
151 161 0
146 155 0
149 160 0
149 156 0
144 154 0
156 167 0
155 167 0
150 161 0
145 153 0
155 165 0
143 151 0
148 157 0
159 172 0
150 157 0
156 167 0
152 162 0
156 167 0
153 164 0
156 170 0
154 167 0
156 168 0
154 165 0
160 175 0
158 171 0
156 167 0
150 163 0
155 169 0
163 178 0
161 176 0
157 172 0
156 171 0
163 179 0
162 177 0
160 174 0
159 172 0
161 176 0
160 175 0
163 179 0
161 176 0
156 173 0
169 185 0
160 176 0
163 181 0
159 176 0
165 183 0
166 184 0
161 180 0
168 185 0
162 179 0
163 179 0
161 178 0
168 187 0
164 183 0
165 181 0
167 184 0
188 209 140
186 208 135
186 207 128
186 207 120
182 204 92
182 204 99
179 201 72
178 200 62
176 199 62
177 200 57
174 198 44
174 197 25
172 195 25
172 196 25
173 196 0
172 195 0
171 194 0
173 196 0
174 197 0
175 198 0
172 195 0
172 195 0
174 197 0
173 196 0
172 195 0
172 196 0
171 195 0
171 194 0
173 196 0
172 196 0
173 197 0
172 195 0
171 195 0
172 195 0
169 193 0
174 197 0
170 194 0
172 196 0
170 194 0
172 196 0
170 194 0
170 194 0
171 194 0
169 192 0
170 195 0
169 192 0
170 193 0
170 193 0
167 190 0
172 196 0
173 196 0
171 194 0
169 191 0
170 193 0
170 194 0
171 194 0
170 193 0
173 197 0
172 195 0
170 193 0
172 194 0
167 190 0
173 195 0
172 195 0
169 192 0
168 192 0
170 193 0
168 192 0
166 189 36
163 188 47
150 174 74
144 166 82
134 157 82
110 137 111
99 127 137
75 106 134
63 98 147
61 96 141
62 98 155
60 96 141
60 96 153
60 96 149
61 97 152
61 97 154
61 97 145
60 96 150
62 98 159
61 97 155
61 97 160
62 98 166
61 97 157
62 98 160
63 99 168
62 99 169
62 99 170
62 98 168
61 97 159
62 98 167
61 97 161
62 98 156
62 99 174
61 98 172
62 99 169
62 99 172
62 98 170
62 99 170
61 97 161
63 99 171
62 98 165
62 98 163
61 98 167
62 98 162
61 97 160
62 98 164
61 97 162
61 98 159
60 96 157
62 98 167
62 98 156
60 96 154
60 96 151
63 98 154
64 99 144
60 95 143
69 102 155
62 97 151
62 97 150
61 96 150
63 98 155
60 96 149
60 95 141
60 96 144
60 95 144
61 97 153
61 96 142
61 96 153
61 96 150
61 96 157
61 96 141
61 96 152
62 97 155
61 96 154
60 95 144
61 97 151
61 97 152
60 96 149
60 95 140
61 96 150
60 96 140
59 94 135
60 96 149
62 97 154
61 97 155
61 97 150
60 96 149
61 97 148
61 97 148
60 96 147
61 96 148
61 96 154
60 96 149
61 97 151
60 96 141
61 97 150
60 95 142
61 96 150
61 96 150
60 96 145
62 98 152
61 97 151
60 95 148
61 96 142
60 95 147
60 95 149
61 96 154
61 97 149
61 96 150
62 97 151
61 97 147
61 96 148
61 97 153
61 96 144
62 97 151
60 96 137
62 97 156
61 97 148
62 98 154
61 96 142
60 96 140
59 94 149
60 95 143
61 96 147
61 96 142
60 96 144
60 95 139
61 96 148
62 97 149
61 96 144
60 96 143
61 97 148
61 97 148
61 96 150
62 98 156
60 95 143
61 96 148
60 95 137
62 97 154
60 95 136
61 96 147
61 96 142
61 96 144
61 96 148
60 95 137
61 96 145
62 98 155
61 96 145
61 96 147
61 97 149
62 97 149
61 96 145
61 96 140
62 98 154
61 96 147
60 95 137
60 95 144
60 95 140
59 94 135
61 97 149
59 94 137
61 97 152
61 96 147
61 96 149
61 96 142
61 96 149
60 95 148
61 96 143
60 95 141
60 94 135
60 95 133
59 94 133
61 96 143
59 94 130
61 95 137
61 96 135
60 94 134
60 94 138
60 94 134
58 92 134
60 94 133
60 94 139
58 92 128
57 90 116
58 92 126
58 92 125
58 91 121
58 90 122
72 96 95
104 117 57
117 127 0
117 125 0
116 124 0
111 120 0
105 116 0
104 111 0
115 124 0
115 124 0
111 121 0
121 129 0
114 121 0
117 125 0
114 123 0
111 117 0
115 119 0
116 123 0
115 123 0
128 135 0
103 110 0
106 111 0
109 117 0
110 116 0
108 113 0
118 125 0
127 132 0
103 107 0
115 123 0
116 120 0
117 122 0
101 104 0
121 128 0
125 131 0
118 121 0
113 116 0
114 118 0
121 125 0
123 124 0
108 109 0
116 118 0
120 124 0
114 114 0
116 118 0
112 115 0
112 111 0
121 124 0
124 127 0
110 113 0
128 134 0
127 129 0
117 120 0
119 121 0
116 118 0
118 119 0
124 125 0
121 119 0
123 124 0
117 116 0
123 124 0
126 127 0
125 128 0
126 127 0
119 120 0
122 125 0
127 128 0
131 133 0
124 125 0
125 125 0
134 136 0
138 141 0
135 138 0
131 136 0
128 132 0
130 136 0
134 138 0
131 134 0
140 145 0
145 149 0
144 151 0
143 151 0
139 145 0
138 144 0
133 138 0
140 146 0
143 149 0
144 151 0
143 148 0
145 153 0
144 151 0
148 155 0
147 155 0
146 155 0
150 158 0
147 153 0
154 164 0
151 161 0
149 159 0
153 164 0
148 160 0
151 161 0
155 165 0
150 160 0
154 165 0
155 165 0
145 155 0
154 166 0
153 162 0
151 162 0
156 168 0
150 163 0
157 171 0
157 171 0
154 166 0
152 163 0
160 173 0
161 176 0
157 168 0
161 174 0
159 175 0
159 174 0
162 178 0
156 169 0
164 178 0
163 178 0
162 177 0
162 177 0
159 174 0
163 179 0
168 185 0
163 177 0
163 178 0
157 172 0
161 178 0
163 179 0
161 177 0
164 181 0
161 177 0
163 177 0
163 181 0
163 180 0
165 182 0
167 186 0
165 184 0
181 203 114
185 206 122
181 203 95
180 202 92
180 202 80
174 198 51
176 199 51
177 199 57
177 199 72
173 196 36
175 198 36
172 196 0
174 197 0
174 197 0
173 196 0
176 199 0
172 195 0
174 197 0
173 196 0
170 193 0
175 198 0
174 197 0
173 196 0
171 194 0
172 196 0
167 191 0
170 193 0
168 192 0
172 196 0
171 195 0
170 193 0
171 195 0
171 194 0
169 192 0
166 189 0
168 192 0
171 195 0
168 191 0
172 196 0
172 194 0
170 194 0
169 192 0
169 191 0
170 193 0
171 194 0
167 191 0
171 193 0
170 193 0
170 193 0
170 193 0
169 192 0
168 192 0
171 195 0
173 196 0
167 189 0
172 195 0
167 189 0
169 192 0
172 195 0
166 189 0
171 195 0
169 192 0
167 190 0
168 191 0
170 193 0
167 191 0
169 193 0
171 194 0
166 188 18
157 181 51
155 179 60
142 166 74
130 155 92
119 144 102
96 124 129
77 108 129
64 98 151
60 96 139
61 96 139
60 95 142
61 97 154
61 97 151
61 97 149
61 96 152
61 97 156
61 96 152
62 98 162
62 98 159
62 98 159
62 98 156
62 98 159
62 98 164
62 98 163
59 94 147
61 97 167
62 98 167
62 99 167
62 98 167
62 98 167
62 98 166
61 98 166
62 99 168
62 98 167
61 98 167
62 99 169
62 98 167
62 98 163
62 99 169
62 98 166
61 97 157
62 98 167
62 98 166
61 97 166
63 99 166
62 98 160
62 98 160
61 97 153
61 97 160
62 97 157
63 98 152
62 98 156
62 97 154
64 100 156
60 96 151
63 98 150
62 97 148
60 96 153
60 95 148
68 102 156
63 98 154
61 97 152
60 95 145
60 95 148
61 96 143
64 99 151
61 96 152
61 97 152
61 96 144
61 96 145
62 97 154
61 96 148
61 96 150
60 96 145
61 97 153
60 96 152
61 96 152
60 96 149
61 96 148
61 96 150
61 97 152
61 96 140
60 96 148
62 98 157
61 97 155
61 97 152
61 97 152
60 96 154
61 96 148
62 97 155
61 96 151
61 96 152
61 97 151
62 98 161
60 96 143
60 95 141
61 97 154
61 96 152
61 96 141
61 96 149
62 98 160
61 96 147
61 97 158
61 96 147
60 96 149
61 97 144
62 98 161
60 95 139
62 97 151
61 97 152
62 98 157
61 96 141
60 95 144
60 96 147
62 97 145
62 97 150
60 96 151
61 96 155
62 97 155
60 95 145
60 95 142
61 96 150
61 97 149
61 96 143
61 97 148
61 96 147
61 97 147
60 96 153
62 97 150
60 95 143
61 97 149
62 98 151
62 97 150
61 96 150
60 96 147
62 97 151
62 98 154
61 96 149
62 98 158
60 95 137
61 96 148
61 96 137
60 95 143
60 95 136
60 96 140
61 95 148
60 95 147
61 97 148
61 96 137
61 96 142
62 97 140
61 97 149
62 97 151
61 96 143
60 94 135
61 96 144
61 96 147
60 95 140
61 96 145
61 96 151
61 96 141
59 94 131
61 96 145
60 95 142
61 97 148
60 96 143
60 95 141
61 96 145
60 94 135
59 93 134
59 94 130
59 94 137
59 94 130
61 96 147
61 96 145
60 95 134
59 94 135
56 89 118
61 96 145
58 92 130
58 92 126
59 93 132
59 93 124
59 93 130
60 94 131
56 88 119
62 93 113
85 106 103
101 114 47
117 129 0
112 120 0
121 131 0
124 133 0
116 124 0
122 132 0
113 120 0
120 130 0
113 115 0
116 123 0
116 124 0
109 116 0
113 121 0
118 126 0
124 131 0
116 122 0
116 122 0
117 122 0
120 123 0
117 124 0
123 130 0
119 123 0
117 124 0
119 126 0
114 120 0
117 123 0
108 112 0
115 120 0
112 117 0
115 118 0
112 115 0
113 118 0
114 120 0
114 121 0
113 117 0
114 117 0
107 110 0
111 113 0
113 119 0
109 114 0
115 118 0
125 127 0
116 119 0
118 120 0
120 121 0
121 125 0
116 118 0
123 125 0
126 132 0
121 125 0
122 127 0
127 131 0
118 117 0
121 120 0
121 122 0
121 122 0
130 133 0
122 123 0
119 121 0
125 125 0
131 136 0
125 127 0
120 122 0
134 138 0
125 130 0
135 139 0
133 137 0
126 130 0
132 134 0
134 138 0
138 144 0
136 140 0
131 134 0
138 145 0
137 146 0
137 144 0
137 142 0
139 146 0
144 151 0
145 150 0
148 157 0
137 142 0
131 133 0
143 150 0
137 143 0
141 149 0
152 161 0
141 148 0
150 159 0
154 164 0
151 157 0
146 153 0
147 154 0
150 160 0
146 155 0
150 157 0
148 158 0
151 158 0
147 156 0
153 163 0
147 156 0
157 170 0
153 163 0
153 164 0
154 168 0
155 168 0
154 167 0
156 169 0
158 169 0
162 176 0
152 163 0
159 172 0
156 168 0
158 172 0
154 167 0
154 167 0
160 176 0
154 168 0
159 175 0
155 168 0
161 176 0
163 179 0
166 182 0
157 174 0
161 178 0
161 178 0
165 181 0
161 180 0
166 186 0
164 181 0
163 179 0
166 183 0
160 174 0
158 173 0
166 185 0
159 176 0
164 181 0
167 186 0
165 184 0
162 181 0
165 184 0
160 176 0
181 203 88
181 203 95
181 203 92
180 202 84
179 201 76
176 198 57
176 199 44
175 198 44
172 196 0
174 198 25
174 197 0
170 193 0
174 197 0
173 196 0
172 196 0
174 198 0
173 196 0
172 196 0
173 197 0
174 197 0
172 195 0
173 196 0
173 196 0
172 196 0
172 195 0
170 193 0
172 194 0
169 193 0
170 194 0
170 194 0
167 190 0
174 197 0
169 194 0
172 195 0
173 197 0
173 196 0
172 196 0
172 196 0
170 193 0
173 196 0
170 193 0
165 189 0
170 193 0
167 190 0
172 196 0
171 194 0
170 194 0
170 194 0
169 193 0
171 195 0
168 192 0
164 188 0
169 193 0
169 192 0
165 189 0
169 192 0
173 197 0
169 192 0
172 196 0
170 193 0
174 197 0
169 193 0
164 187 0
169 193 0
166 189 0
168 192 0
169 191 0
167 190 0
164 187 18
162 185 25
156 180 54
146 170 74
133 158 78
119 144 95
118 144 111
93 121 128
66 99 141
61 96 148
59 94 136
61 96 147
61 97 153
62 98 157
62 97 156
61 97 150
60 95 147
61 97 156
60 95 149
60 96 156
61 97 148
61 97 155
60 95 147
62 98 164
62 98 164
61 97 155
62 98 161
62 99 169
62 98 164
60 96 156
62 98 164
61 97 159
61 98 163
63 99 170
60 96 157
62 98 165
61 98 163
61 98 164
62 98 164
61 97 163
62 99 169
61 97 160
62 98 164
62 98 165
61 98 163
62 98 164
62 98 160
61 97 161
62 98 165
62 98 163
62 98 161
65 100 157
62 98 152
61 96 149
66 100 154
60 95 153
61 97 154
64 99 141
61 97 147
64 99 150
63 97 142
60 95 149
62 98 156
60 95 148
63 98 150
60 94 139
61 96 147
60 96 152
60 95 141
61 97 156
61 96 151
60 96 148
60 95 142
61 96 155
60 96 151
60 96 147
60 96 148
61 96 151
60 95 148
61 96 149
61 97 152
60 95 147
62 97 156
61 96 150
60 95 142
62 97 150
60 95 139
61 96 148
60 95 143
61 96 148
60 96 147
60 96 145
59 95 141
61 96 150
60 96 144
61 97 154
61 97 153
61 96 147
61 96 152
61 96 150
61 97 157
61 96 152
61 96 142
61 96 145
61 96 153
61 97 147
61 97 148
62 97 154
61 97 149
61 97 151
61 96 144
60 96 142
60 95 143
62 97 156
61 96 145
61 96 143
62 97 154
61 96 147
61 96 137
61 97 150
62 97 151
60 96 149
60 96 148
61 96 148
61 96 148
61 97 152
60 95 139
62 98 156
60 96 148
60 95 140
62 97 151
60 96 144
60 96 139
61 96 147
62 97 147
60 95 139
61 96 139
61 96 147
61 97 149
62 97 148
61 97 150
61 96 144
61 96 143
62 97 149
61 97 150
61 96 140
61 96 147
61 96 149
61 97 148
60 95 141
60 96 144
61 96 147
62 98 154
60 95 142
60 95 136
60 95 135
60 96 143
59 94 139
60 95 145
60 95 149
60 95 139
60 95 134
61 96 149
61 96 143
61 96 141
60 95 140
61 96 143
60 95 133
61 96 142
59 94 135
59 94 135
61 96 140
60 95 137
60 95 141
60 94 140
62 97 144
59 94 134
59 93 126
59 93 129
61 95 143
60 95 131
58 91 121
59 92 122
58 91 128
58 92 117
58 91 121
56 89 108
78 103 113
104 117 57
114 123 0
113 121 0
111 120 0
116 125 0
118 131 0
108 117 0
118 126 0
109 119 0
110 118 0
120 130 0
120 127 0
107 114 0
113 119 0
115 122 0
121 129 0
107 112 0
121 128 0
110 118 0
119 124 0
106 113 0
119 124 0
119 125 0
115 122 0
125 131 0
118 124 0
111 118 0
112 116 0
117 124 0
108 110 0
104 108 0
112 115 0
117 122 0
118 124 0
113 117 0
103 105 0
112 118 0
118 123 0
126 133 0
109 113 0
118 122 0
120 125 0
116 118 0
123 128 0
110 113 0
120 123 0
110 110 0
117 120 0
121 122 0
126 132 0
120 125 0
120 124 0
125 128 0
120 120 0
116 118 0
129 134 0
121 125 0
125 129 0
124 127 0
124 128 0
130 132 0
133 140 0
127 129 0
132 137 0
138 142 0
137 139 0
133 137 0
138 143 0
131 134 0
132 136 0
135 139 0
136 137 0
138 145 0
139 143 0
131 136 0
132 138 0
140 147 0
143 150 0
143 152 0
143 151 0
138 145 0
145 152 0
149 156 0
149 159 0
139 146 0
137 143 0
142 150 0
143 152 0
142 150 0
147 155 0
145 153 0
153 162 0
147 155 0
142 149 0
146 155 0
150 161 0
152 163 0
155 166 0
147 156 0
150 161 0
157 167 0
156 169 0
155 166 0
153 165 0
158 171 0
161 174 0
159 173 0
156 170 0
154 167 0
151 163 0
154 166 0
153 165 0
155 169 0
157 170 0
157 170 0
159 171 0
153 165 0
155 169 0
157 171 0
160 179 0
164 178 0
162 178 0
160 175 0
166 180 0
164 179 0
159 174 0
156 173 0
157 171 0
162 179 0
161 179 0
154 168 0
163 179 0
168 185 0
166 183 0
161 179 0
167 184 0
163 181 0
163 181 0
166 185 0
160 177 0
165 183 0
165 184 0
162 180 0
164 183 0
176 199 67
178 201 76
177 200 67
176 198 51
176 199 51
173 196 36
174 197 0
171 194 25
174 196 0
173 196 0
174 197 0
173 197 0
174 197 0
172 196 0
172 195 0
175 198 0
172 196 0
173 196 0
172 195 0
174 197 0
172 195 0
173 196 0
172 196 0
171 194 0
173 196 0
173 197 0
169 193 0
171 195 0
172 195 0
167 190 0
172 195 0
173 196 0
169 193 0
172 195 0
171 195 0
166 189 0
165 190 0
168 192 0
172 195 0
170 193 0
170 193 0
172 195 0
170 194 0
169 192 0
166 189 0
171 194 0
171 194 0
172 195 0
170 194 0
168 192 0
167 191 0
166 190 0
171 194 0
170 192 0
170 193 0
166 190 0
164 187 0
168 191 0
172 195 0
169 193 0
168 192 0
168 192 0
163 186 0
167 191 0
165 188 0
167 189 0
166 189 0
168 191 0
171 194 0
166 189 25
160 183 57
152 176 54
138 161 99
128 152 92
106 132 114
93 121 124
75 107 133
60 95 141
61 96 145
59 94 137
60 96 148
61 96 147
61 96 151
61 96 152
61 97 149
60 95 142
59 94 143
61 97 157
61 97 156
62 98 157
62 97 157
61 97 157
61 97 151
61 96 154
61 97 159
61 97 157
61 97 155
62 98 164
61 98 164
61 97 163
61 97 159
62 98 164
62 98 168
61 97 159
62 99 168
62 99 169
62 98 161
62 98 162
62 98 165
63 99 170
61 98 161
60 96 160
62 98 165
62 98 168
62 98 165
61 97 159
61 98 165
61 97 164
61 97 154
61 97 153
62 98 166
63 98 150
60 96 151
69 102 151
67 101 155
64 99 157
65 99 148
61 97 153
59 95 144
61 97 152
62 98 159
60 95 148
60 96 145
61 97 150
60 95 149
61 96 149
60 95 141
59 94 148
60 96 147
60 96 149
60 95 137
61 96 144
60 95 147
60 95 143
60 95 148
61 97 154
60 96 145
62 98 157
60 95 136
60 96 144
61 97 151
61 96 148
61 97 152
62 98 157
62 97 154
61 96 151
61 96 147
61 96 155
60 95 139
61 96 151
60 95 144
60 95 148
60 95 142
61 97 156
60 95 142
62 97 149
61 97 152
61 96 148
60 95 144
60 96 148
62 97 145
62 98 160
61 97 156
61 96 151
60 96 145
62 98 158
62 97 150
61 97 145
61 96 147
60 95 145
62 97 151
60 96 147
61 97 155
61 97 152
62 97 144
61 97 151
61 97 147
60 95 136
61 96 148
61 97 150
62 97 150
61 97 152
61 97 151
61 96 141
61 97 145
61 97 144
61 97 150
60 95 141
60 95 142
61 96 144
61 96 144
60 96 148
62 97 147
61 95 140
61 96 142
61 96 143
59 94 140
61 96 150
60 95 134
60 95 137
61 96 142
61 97 145
61 96 149
61 96 141
61 96 142
60 95 136
60 94 134
60 94 137
60 96 141
61 96 137
61 96 144
61 95 145
60 95 133
60 95 143
61 96 143
61 95 135
62 97 144
60 95 135
61 95 139
60 95 136
60 95 148
60 95 133
59 93 131
59 94 120
60 94 133
60 95 140
61 96 141
61 96 138
61 95 135
60 95 137
61 96 139
58 92 128
58 92 129
58 92 124
60 94 131
59 94 130
60 94 136
59 93 126
61 96 137
59 94 131
59 93 128
59 93 128
57 90 117
57 90 123
62 93 116
81 103 91
117 128 25
128 138 0
116 124 0
123 133 0
121 131 0
108 117 0
109 121 0
122 132 0
118 126 0
120 129 0
121 130 0
124 132 0
113 120 0
118 125 0
100 109 0
128 138 0
122 131 0
111 117 0
122 127 0
117 125 0
118 125 0
121 125 0
124 131 0
104 111 0
120 127 0
133 138 0
117 122 0
116 122 0
124 131 0
123 129 0
129 135 0
114 118 0
121 128 0
124 132 0
117 120 0
120 125 0
114 118 0
118 122 0
115 118 0
119 121 0
117 121 0
118 123 0
115 119 0
131 134 0
121 127 0
120 123 0
117 122 0
110 114 0
123 125 0
121 127 0
133 136 0
134 141 0
125 128 0
128 134 0
126 131 0
128 135 0
136 140 0
120 126 0
128 133 0
113 116 0
135 140 0
119 121 0
122 126 0
128 132 0
135 138 0
140 148 0
137 142 0
131 133 0
131 136 0
135 140 0
138 145 0
129 133 0
133 139 0
137 141 0
141 147 0
141 146 0
143 149 0
137 142 0
132 137 0
153 162 0
144 152 0
150 156 0
147 158 0
144 151 0
143 147 0
149 158 0
147 156 0
148 158 0
146 156 0
150 159 0
148 155 0
147 154 0
149 158 0
147 155 0
155 167 0
150 162 0
149 159 0
146 154 0
154 169 0
160 171 0
152 163 0
152 162 0
155 168 0
150 163 0
154 170 0
155 166 0
157 171 0
157 170 0
154 167 0
159 172 0
156 172 0
160 172 0
156 167 0
163 178 0
160 174 0
159 175 0
159 175 0
158 173 0
154 167 0
160 174 0
159 173 0
155 168 0
158 173 0
159 174 0
157 171 0
157 174 0
162 180 0
165 182 0
162 178 0
160 174 0
164 183 0
163 180 0
167 184 0
163 180 0
166 182 0
164 180 0
164 182 0
166 184 0
161 180 0
166 183 0
162 179 0
165 184 0
163 181 0
162 179 0
179 201 76
178 200 67
178 201 62
176 199 44
173 197 36
172 196 25
172 196 0
175 197 0
172 196 0
172 195 0
170 195 0
171 195 0
170 194 0
173 197 0
171 195 0
171 195 0
172 195 0
168 191 0
170 194 0
173 196 0
170 194 0
171 195 0
171 194 0
170 193 0
171 194 0
172 196 0
171 194 0
170 193 0
168 192 0
172 195 0
171 194 0
171 195 0
171 195 0
168 191 0
172 195 0
169 192 0
170 194 0
169 193 0
170 193 0
171 194 0
167 190 0
170 192 0
166 190 0
164 187 0
169 192 0
168 192 0
171 194 0
167 189 0
168 190 0
164 188 0
172 195 0
163 187 0
167 189 0
166 188 0
170 194 0
168 190 0
167 190 0
168 191 0
169 193 0
168 191 0
166 189 0
168 190 0
170 194 0
164 186 0
170 192 0
171 193 0
163 187 0
165 187 0
166 189 0
166 189 0
164 187 36
151 174 62
149 173 67
142 166 80
124 149 100
97 125 122
75 106 142
71 103 137
59 94 128
61 96 144
61 97 149
59 94 136
61 96 143
60 95 141
60 96 149
61 96 151
61 96 149
60 95 144
62 98 162
61 97 152
60 96 153
61 96 151
61 96 151
60 96 158
60 96 155
61 97 157
60 96 158
61 97 161
61 97 158
60 96 159
61 98 162
61 97 160
61 98 166
61 97 162
61 98 164
62 99 167
62 98 166
61 97 157
62 99 171
62 98 160
61 97 159
62 99 164
62 98 166
62 98 161
62 98 167
61 97 160
62 98 161
62 98 156
61 97 159
61 97 157
61 96 152
62 98 157
60 96 156
62 97 142
63 98 149
65 99 140
64 98 150
61 97 144
60 96 145
60 96 148
63 97 141
60 96 151
59 94 141
59 94 143
62 97 144
65 99 147
65 98 144
60 95 145
60 95 139
60 96 147
61 96 143
60 95 145
60 95 145
60 96 147
61 97 151
60 96 147
60 95 141
61 96 144
60 95 142
60 95 144
61 96 147
62 97 155
61 97 148
60 95 149
60 95 139
60 96 143
59 94 143
60 95 144
63 99 164
61 96 151
62 97 150
61 97 148
61 97 154
62 98 155
61 96 143
61 97 155
61 97 150
59 95 136
60 95 149
61 97 145
60 96 149
61 96 149
60 95 143
61 96 143
61 97 147
61 96 154
61 97 151
61 97 148
61 97 147
62 97 154
60 95 147
61 97 147
60 96 144
62 98 150
61 96 150
62 98 152
60 95 140
61 96 150
62 97 153
60 96 142
60 96 143
61 97 152
62 97 153
60 96 145
60 96 150
62 98 157
62 97 150
60 94 134
61 97 147
60 95 144
60 95 143
61 96 147
61 96 143
60 95 139
60 95 149
60 96 149
61 96 143
61 95 143
60 95 134
61 97 151
61 96 140
62 98 154
60 96 139
60 94 142
61 96 154
61 96 141
60 95 141
61 96 143
61 96 142
61 96 143
60 95 140
62 97 153
61 96 142
59 94 134
60 95 140
61 97 152
61 96 148
60 94 135
61 96 144
62 97 149
61 96 141
61 96 140
61 96 144
61 96 139
59 94 130
60 95 137
59 93 126
60 95 133
60 95 136
60 95 135
59 93 126
60 95 141
58 92 120
60 95 134
60 95 130
60 95 138
59 92 128
60 94 136
59 93 133
60 94 132
59 93 133
58 92 125
57 90 121
57 90 120
73 100 108
105 120 65
114 125 0
128 139 0
133 144 0
126 138 0
115 125 0
123 134 0
114 123 0
126 134 0
118 128 0
118 128 0
122 132 0
121 134 0
117 124 0
114 123 0
114 123 0
110 118 0
117 127 0
115 125 0
124 132 0
120 130 0
113 122 0
98 103 0
128 135 0
112 116 0
110 116 0
110 117 0
115 121 0
112 120 0
111 119 0
120 127 0
124 132 0
118 124 0
114 115 0
122 126 0
119 127 0
114 118 0
119 126 0
115 120 0
119 121 0
122 128 0
130 134 0
117 124 0
124 128 0
118 123 0
117 122 0
120 126 0
124 127 0
130 136 0
130 139 0
121 126 0
119 125 0
122 125 0
121 125 0
132 136 0
120 122 0
130 135 0
131 134 0
127 128 0
133 136 0
122 125 0
134 139 0
134 138 0
132 135 0
133 137 0
139 144 0
137 142 0
138 140 0
133 140 0
129 134 0
132 137 0
138 143 0
145 153 0
137 146 0
135 140 0
137 142 0
134 138 0
128 136 0
144 151 0
152 161 0
139 149 0
143 149 0
138 145 0
133 140 0
150 158 0
146 156 0
146 155 0
151 158 0
151 160 0
153 161 0
144 152 0
150 159 0
151 160 0
144 152 0
143 151 0
154 166 0
158 168 0
154 165 0
156 167 0
150 161 0
153 163 0
152 164 0
158 172 0
155 167 0
154 167 0
155 167 0
155 169 0
154 164 0
155 168 0
157 169 0
159 172 0
160 175 0
163 176 0
168 185 0
157 172 0
154 167 0
161 178 0
152 165 0
158 173 0
154 167 0
158 172 0
161 176 0
159 176 0
164 178 0
164 180 0
161 177 0
163 178 0
160 176 0
162 176 0
159 176 0
162 179 0
160 177 0
161 178 0
159 175 0
163 181 0
162 178 0
163 181 0
161 178 0
163 180 0
166 185 0
164 182 0
167 186 0
170 188 0
161 179 0
166 184 0
176 199 44
176 198 51
176 199 57
174 197 0
173 197 0
173 197 0
171 195 0
174 198 0
171 194 0
170 195 0
171 195 0
170 194 0
170 194 0
171 194 0
172 195 0
170 193 0
172 195 0
172 195 0
171 194 0
171 195 0
170 194 0
168 191 0
167 190 0
173 196 0
169 193 0
166 190 0
170 193 0
169 191 0
173 196 0
173 196 0
167 191 0
166 190 0
171 195 0
173 196 0
172 196 0
173 196 0
171 194 0
171 194 0
170 194 0
169 192 0
170 192 0
167 191 0
171 194 0
171 193 0
170 194 0
170 194 0
168 192 0
164 187 0
166 190 0
170 193 0
173 196 0
172 195 0
170 193 0
165 189 0
167 191 0
167 191 0
166 189 0
167 191 0
171 194 0
166 189 0
166 189 0
167 191 0
168 191 0
169 192 0
168 191 0
167 191 0
163 186 0
161 184 0
165 188 0
169 192 0
166 188 0
160 182 36
153 176 57
139 162 70
120 146 103
111 137 114
91 119 120
72 104 126
61 95 140
60 95 140
60 95 140
60 95 144
60 95 134
60 95 134
61 96 145
61 96 152
61 96 145
61 97 151
61 97 153
60 95 142
61 96 152
62 98 156
61 97 148
60 96 154
60 96 145
61 97 155
61 97 153
61 97 161
61 96 152
63 99 164
62 97 166
62 98 168
61 97 160
62 98 165
61 97 161
61 97 162
61 97 162
60 96 157
62 98 168
62 98 164
62 98 163
61 98 167
62 98 161
62 98 163
62 98 167
61 97 157
62 98 160
62 98 164
61 97 160
62 98 162
61 97 161
61 97 153
62 98 163
65 100 153
71 104 162
60 95 144
65 99 151
59 94 130
63 98 148
62 97 148
61 97 156
60 96 147
61 97 148
61 97 152
62 97 152
62 97 145
61 96 144
62 98 154
59 93 135
61 96 147
60 96 151
60 95 147
60 96 147
61 96 149
60 95 147
60 95 141
60 95 142
60 95 142
61 97 144
61 97 149
60 95 149
60 95 140
60 95 142
61 96 143
61 96 151
61 96 150
61 96 145
60 95 139
60 95 141
61 97 152
61 96 144
61 97 154
61 96 141
60 96 147
60 95 140
61 97 145
61 96 151
60 95 145
60 95 143
61 96 144
61 97 145
62 97 154
61 97 151
61 96 148
61 96 149
61 97 145
61 97 155
62 97 153
61 97 144
61 96 148
60 95 143
61 97 144
61 96 134
61 96 145
61 97 149
62 97 155
62 97 152
60 96 149
61 97 148
61 97 148
60 95 135
59 93 141
61 97 148
60 95 141
61 97 144
60 95 148
61 96 145
61 96 139
60 95 135
61 97 149
61 96 142
60 95 136
61 96 139
61 96 141
61 96 144
61 96 143
61 97 147
61 96 144
61 97 151
62 97 154
61 96 137
61 96 149
60 95 137
62 97 156
61 96 143
61 97 144
60 96 140
61 96 142
61 96 145
60 96 143
60 95 139
60 94 133
61 97 145
60 94 139
60 95 134
60 95 144
61 96 142
60 96 139
60 95 136
61 96 144
62 97 144
60 95 148
61 95 135
59 94 133
61 96 137
60 94 136
61 96 140
59 94 133
60 95 130
59 94 130
60 94 135
58 92 124
58 92 128
59 93 123
60 95 137
60 95 132
60 94 137
59 93 126
59 93 125
57 90 115
59 93 135
57 90 119
59 92 128
60 92 122
91 110 72
123 136 31
118 126 0
118 126 0
127 140 0
116 126 0
117 128 0
117 126 0
112 123 0
116 124 0
119 131 0
110 119 0
127 137 0
122 131 0
116 125 0
117 127 0
116 125 0
122 132 0
126 136 0
124 135 0
117 127 0
113 121 0
127 137 0
126 133 0
125 133 0
122 129 0
134 142 0
121 129 0
114 121 0
128 135 0
123 129 0
117 122 0
119 126 0
110 116 0
122 127 0
119 125 0
120 124 0
120 128 0
117 123 0
122 129 0
115 121 0
122 129 0
114 118 0
116 119 0
109 113 0
122 127 0
128 135 0
116 121 0
133 140 0
123 130 0
127 130 0
116 120 0
129 134 0
133 138 0
132 138 0
123 129 0
138 143 0
121 123 0
126 131 0
135 140 0
123 126 0
130 135 0
135 141 0
127 134 0
132 139 0
126 130 0
134 138 0
138 146 0
133 136 0
138 145 0
141 148 0
131 137 0
140 144 0
140 146 0
136 142 0
133 139 0
141 150 0
142 147 0
140 147 0
139 148 0
141 145 0
136 143 0
148 156 0
143 151 0
143 148 0
143 150 0
152 159 0
145 154 0
147 154 0
150 161 0
148 155 0
148 157 0
151 161 0
146 155 0
144 151 0
145 156 0
154 168 0
152 161 0
149 160 0
149 161 0
150 158 0
154 165 0
155 170 0
155 167 0
157 169 0
152 163 0
156 167 0
147 159 0
155 167 0
156 169 0
159 171 0
158 170 0
157 173 0
165 180 0
156 169 0
161 175 0
158 172 0
159 175 0
161 174 0
156 173 0
168 183 0
163 178 0
162 178 0
160 176 0
160 176 0
161 174 0
163 179 0
160 177 0
158 174 0
162 179 0
159 176 0
159 174 0
161 178 0
160 177 0
162 179 0
152 168 0
161 178 0
165 183 0
161 178 0
158 175 0
167 185 0
166 185 0
167 186 0
164 182 0
165 181 0
165 180 0
175 198 44
172 196 0
173 197 0
173 197 0
173 196 0
172 194 0
173 196 0
174 197 0
169 193 0
175 198 0
171 194 0
173 196 0
169 193 0
176 198 0
171 195 0
174 197 0
174 197 0
172 195 0
171 194 0
172 195 0
172 195 0
173 197 0
171 195 0
167 191 0
171 195 0
170 193 0
171 194 0
167 190 0
170 194 0
171 194 0
170 194 0
167 191 0
172 194 0
170 193 0
173 196 0
171 194 0
167 191 0
171 195 0
167 191 0
169 192 0
170 193 0
171 194 0
167 191 0
172 195 0
166 189 0
172 195 0
167 190 0
168 191 0
167 190 0
170 194 0
166 189 0
166 190 0
165 189 0
163 186 0
166 190 0
166 191 0
169 192 0
169 192 0
165 189 0
160 182 0
170 194 0
169 193 0
168 191 0
165 188 0
165 188 0
166 190 0
165 187 0
165 188 0
172 195 0
166 189 0
167 190 18
163 186 31
155 179 51
145 168 72
137 160 74
114 139 97
106 131 97
70 101 120
60 94 124
59 94 129
60 95 140
62 97 152
59 94 135
61 96 143
61 97 156
60 95 143
61 96 149
61 97 151
61 97 159
60 95 151
61 97 153
61 97 154
60 95 149
62 98 165
60 96 156
60 96 152
61 96 155
61 97 159
61 96 156
61 97 158
61 98 162
60 96 158
60 96 158
61 97 161
62 98 158
61 97 157
62 98 167
62 98 161
62 98 164
62 98 161
61 97 162
62 98 163
62 98 164
62 98 163
62 98 168
62 98 169
62 97 159
62 98 162
62 98 158
62 98 162
60 95 154
61 96 150
59 95 148
63 98 157
63 99 152
64 99 150
62 97 155
66 101 154
66 100 143
60 95 142
61 97 148
61 96 150
63 98 148
59 94 151
58 93 137
60 96 149
61 96 150
61 96 149
60 96 147
60 94 142
61 96 142
60 95 140
59 94 143
60 94 139
60 94 139
59 95 149
61 96 149
60 96 147
60 95 137
61 97 147
60 96 151
61 97 144
61 96 147
61 96 151
61 96 144
61 96 149
61 96 148
61 96 143
60 95 142
61 96 147
61 96 148
62 98 155
60 95 139
60 95 137
60 96 144
61 97 153
59 95 145
62 97 149
61 96 150
61 96 153
61 96 145
61 96 150
61 96 144
62 97 151
61 96 150
62 97 153
62 97 151
61 96 148
62 97 150
59 95 139
60 95 142
60 96 141
61 97 152
61 97 149
61 97 151
60 95 148
61 96 142
60 96 148
61 96 148
61 96 144
61 96 143
61 96 143
61 96 140
60 96 140
62 97 148
61 96 143
61 97 150
59 94 137
61 97 147
61 96 147
62 97 145
61 96 148
62 97 148
60 95 137
61 97 145
60 94 126
61 97 147
61 95 139
59 95 139
62 97 152
61 96 140
59 93 129
60 95 140
61 96 145
60 95 139
61 97 149
61 96 141
60 95 148
61 97 147
63 99 156
59 95 139
61 96 140
61 96 147
61 96 143
61 96 142
59 94 130
59 93 126
60 95 140
60 95 144
62 97 152
60 95 131
59 94 130
60 95 141
59 94 137
59 94 131
61 96 144
60 94 130
61 96 139
60 94 130
59 94 133
59 93 128
59 94 128
59 94 126
58 92 122
59 93 133
58 91 115
60 94 130
60 94 129
58 92 118
59 92 119
57 89 118
57 90 121
58 91 124
76 100 95
100 115 54
110 122 0
117 129 0
124 137 0
131 143 0
114 126 0
124 135 0
122 132 0
111 120 0
126 137 0
119 129 0
120 130 0
107 119 0
130 141 0
110 120 0
124 133 0
110 118 0
121 129 0
115 125 0
110 119 0
127 137 0
119 127 0
111 120 0
123 131 0
116 120 0
113 121 0
118 127 0
114 120 0
125 132 0
122 127 0
114 119 0
110 117 0
115 126 0
123 129 0
121 127 0
125 132 0
113 119 0
126 132 0
123 129 0
128 136 0
128 135 0
123 130 0
121 126 0
123 129 0
134 142 0
125 133 0
118 125 0
132 138 0
124 131 0
131 136 0
126 132 0
121 123 0
128 135 0
132 138 0
131 141 0
132 140 0
132 136 0
127 133 0
132 137 0
129 135 0
127 133 0
125 129 0
135 140 0
127 132 0
140 147 0
135 140 0
144 148 0
138 145 0
125 128 0
132 137 0
136 144 0
133 140 0
140 145 0
147 153 0
136 141 0
143 151 0
135 142 0
133 139 0
143 151 0
136 145 0
139 146 0
142 150 0
138 148 0
149 159 0
143 149 0
142 152 0
150 162 0
145 153 0
148 157 0
146 153 0
152 162 0
152 162 0
153 163 0
147 158 0
159 170 0
147 158 0
157 168 0
139 147 0
160 172 0
152 163 0
149 160 0
153 164 0
152 162 0
160 171 0
150 163 0
161 174 0
148 161 0
157 171 0
158 171 0
154 168 0
149 163 0
155 169 0
157 172 0
159 173 0
155 168 0
156 171 0
156 171 0
153 166 0
156 171 0
159 175 0
159 171 0
161 176 0
157 174 0
158 171 0
163 180 0
164 181 0
163 178 0
159 174 0
160 178 0
164 181 0
164 181 0
153 167 0
161 176 0
160 177 0
167 184 0
160 176 0
161 177 0
166 183 0
165 184 0
166 183 0
160 179 0
159 175 0
164 182 0
163 180 0
166 186 0
162 179 0
173 196 0
173 197 0
169 194 0
176 199 0
173 197 0
173 196 0
173 196 0
171 195 0
171 195 0
171 195 0
174 196 0
174 197 0
172 195 0
172 195 0
171 195 0
169 193 0
170 193 0
173 196 0
171 194 0
173 196 0
171 195 0
168 191 0
170 193 0
170 194 0
170 194 0
172 194 0
170 193 0
170 193 0
173 196 0
171 194 0
169 193 0
169 193 0
171 195 0
171 195 0
165 189 0
166 190 0
167 190 0
168 191 0
170 193 0
167 191 0
171 194 0
169 193 0
171 194 0
171 194 0
166 189 0
164 187 0
169 192 0
167 190 0
168 191 0
166 189 0
169 192 0
168 191 0
169 192 0
166 189 0
165 187 0
166 189 0
171 195 0
166 190 0
171 194 0
165 188 0
165 187 0
165 187 0
167 190 0
166 190 0
165 188 0
166 189 0
159 182 0
165 188 0
167 190 0
167 189 0
164 187 0
161 184 25
157 180 44
148 170 54
134 158 76
115 140 94
122 147 97
85 115 122
72 103 135
60 94 128
60 95 137
60 95 139
59 94 139
60 95 140
61 96 141
60 95 147
61 96 152
60 95 144
60 96 145
59 94 147
60 95 148
61 97 151
60 95 142
60 96 140
61 97 153
61 96 155
61 98 162
61 97 153
60 97 156
61 97 159
60 96 154
61 97 159
61 97 158
62 98 157
61 98 162
61 97 158
62 98 167
62 98 163
61 97 156
62 98 165
62 98 165
62 99 169
62 98 165
62 98 168
61 98 165
61 97 157
63 99 168
61 97 162
62 98 161
62 98 158
61 97 160
60 96 145
61 97 160
61 97 155
63 98 156
60 95 147
62 97 152
61 96 144
67 101 147
60 95 143
66 100 147
61 96 144
63 98 147
60 95 144
60 96 149
61 95 140
60 95 144
60 95 143
59 94 144
60 95 141
60 96 144
59 95 136
60 95 147
60 96 145
59 94 145
60 96 149
59 94 133
61 96 148
60 95 142
61 97 151
60 96 143
60 96 149
60 95 149
61 96 150
61 95 139
59 94 134
61 97 149
60 95 144
60 95 143
60 95 137
61 97 148
61 97 149
61 96 147
60 95 140
61 96 148
59 94 134
61 96 149
61 96 143
61 96 143
60 95 142
60 96 143
60 95 143
60 95 140
61 95 140
60 96 142
62 97 142
62 97 149
61 96 145
59 94 134
61 96 142
61 96 143
61 96 151
61 97 155
61 96 149
62 98 157
60 96 144
61 97 149
61 96 147
60 95 139
60 96 148
61 96 147
61 97 148
62 98 154
61 96 141
62 97 154
61 96 142
61 96 143
61 95 136
62 98 154
61 96 147
62 97 154
60 94 140
60 95 135
61 96 150
60 95 131
60 96 141
61 97 147
59 94 137
61 97 144
59 93 133
61 96 143
61 96 144
61 96 147
59 94 135
61 97 151
61 96 144
61 96 141
62 97 151
61 97 143
60 95 136
60 95 136
59 94 129
61 96 148
59 94 124
62 97 148
61 96 148
60 94 135
60 95 142
59 94 131
61 96 144
60 94 136
59 93 128
60 95 139
61 96 140
60 94 139
58 92 125
60 95 135
62 97 151
60 94 130
59 94 139
59 93 118
60 94 128
60 94 139
60 94 134
59 94 126
57 90 121
60 94 136
60 94 132
57 91 121
57 90 125
58 91 114
57 90 126
60 92 114
94 112 75
108 120 40
131 144 0
111 121 0
121 130 0
118 129 0
116 124 0
125 138 0
119 129 0
126 138 0
118 126 0
114 123 0
124 135 0
130 139 0
119 132 0
120 129 0
123 133 0
120 128 0
104 111 0
120 129 0
124 134 0
123 133 0
115 124 0
113 122 0
126 134 0
110 118 0
124 133 0
112 122 0
117 125 0
108 116 0
121 128 0
112 123 0
115 121 0
124 133 0
117 126 0
126 134 0
127 136 0
128 135 0
128 136 0
126 134 0
129 137 0
129 133 0
124 131 0
129 137 0
122 127 0
117 124 0
124 132 0
123 126 0
124 130 0
127 133 0
124 130 0
135 141 0
127 135 0
127 136 0
132 140 0
130 134 0
123 126 0
126 131 0
137 146 0
127 131 0
144 151 0
125 132 0
130 136 0
125 133 0
140 144 0
134 140 0
131 139 0
129 135 0
131 134 0
136 142 0
134 138 0
136 141 0
132 142 0
141 148 0
143 151 0
146 154 0
139 147 0
145 153 0
145 154 0
142 152 0
145 153 0
138 147 0
148 152 0
142 151 0
144 151 0
154 164 0
140 148 0
147 158 0
145 153 0
141 152 0
148 157 0
152 162 0
151 159 0
147 157 0
151 165 0
146 154 0
152 161 0
154 166 0
154 164 0
159 172 0
152 165 0
157 169 0
152 164 0
157 169 0
158 168 0
152 162 0
155 166 0
156 169 0
159 174 0
151 164 0
163 176 0
162 176 0
157 167 0
156 167 0
156 168 0
160 176 0
163 178 0
158 173 0
163 177 0
159 175 0
162 178 0
161 177 0
162 177 0
164 178 0
161 178 0
159 174 0
161 179 0
161 176 0
162 180 0
158 175 0
166 181 0
161 177 0
160 175 0
159 173 0
161 179 0
166 184 0
166 183 0
161 178 0
166 185 0
162 180 0
166 184 0
164 181 0
167 182 0
164 184 0
161 177 0
162 180 0
165 182 0
174 197 0
172 196 0
174 198 0
173 196 0
174 197 0
171 195 0
170 193 0
169 193 0
172 196 0
173 196 0
175 198 0
173 196 0
171 195 0
169 193 0
170 194 0
169 193 0
172 195 0
171 194 0
173 196 0
170 195 0
170 193 0
172 195 0
169 193 0
170 194 0
168 191 0
170 192 0
171 195 0
170 194 0
172 194 0
172 196 0
171 194 0
164 187 0
171 195 0
172 195 0
172 195 0
172 195 0
168 192 0
163 187 0
171 194 0
171 195 0
165 188 0
166 189 0
169 192 0
167 191 0
168 191 0
168 192 0
167 191 0
170 193 0
169 192 0
168 191 0
169 193 0
166 190 0
166 188 0
165 188 0
168 190 0
161 184 0
163 187 0
165 189 0
164 187 0
168 191 0
168 192 0
164 187 0
164 187 0
164 187 0
167 191 0
166 189 0
162 184 0
164 187 0
167 191 0
168 190 0
167 191 0
160 183 0
160 183 25
157 179 44
135 158 70
139 163 92
116 141 95
91 119 130
84 113 129
65 98 139
61 95 143
60 94 129
60 96 142
60 95 143
61 96 150
60 94 140
61 97 151
60 95 141
61 97 152
60 95 145
60 95 142
61 96 148
61 96 148
61 97 158
60 95 149
61 96 152
60 96 147
62 98 158
61 97 154
62 98 161
61 97 154
61 97 151
62 98 165
61 97 162
62 98 166
63 99 166
61 97 158
61 97 163
62 98 162
61 97 154
60 96 157
62 97 158
62 98 159
62 98 168
61 98 166
62 98 166
61 98 163
61 97 154
61 97 154
62 98 162
61 97 152
61 97 156
61 97 157
62 98 156
61 97 154
60 96 149
67 101 152
62 97 142
60 95 140
63 98 150
62 97 148
60 95 148
61 97 153
60 95 141
60 95 148
63 97 153
63 99 153
61 96 145
60 95 144
60 95 139
60 95 137
60 95 143
60 95 144
61 96 143
60 95 133
59 94 144
60 95 147
60 96 139
59 94 144
59 94 142
60 95 145
61 97 155
60 95 142
60 95 135
61 96 152
61 96 145
60 95 143
60 96 141
61 96 147
60 96 147
60 95 140
60 96 145
62 97 151
61 96 145
61 97 153
61 97 154
61 96 142
60 95 145
59 94 136
60 96 145
60 95 139
58 93 135
60 96 144
61 96 152
61 97 148
61 97 150
60 96 143
60 95 141
61 96 140
60 95 143
60 94 137
61 97 148
60 96 144
59 93 130
60 96 142
60 95 134
61 97 147
59 94 144
62 98 158
59 94 133
62 97 151
59 94 131
60 95 140
61 96 142
62 97 153
59 94 140
62 97 151
62 97 149
61 96 147
60 95 144
60 95 148
62 97 151
61 96 139
60 95 140
61 96 147
60 95 141
61 96 142
62 97 148
60 95 139
61 96 147
60 96 149
60 95 135
61 96 143
61 96 136
60 94 134
61 96 141
61 96 144
62 97 148
62 97 148
60 96 140
60 95 141
60 95 140
61 95 147
60 94 136
60 96 135
60 94 135
60 94 137
60 95 133
61 97 149
60 95 137
60 95 135
60 94 137
58 93 122
60 94 133
60 94 129
60 94 135
59 94 129
59 93 122
61 95 139
60 95 141
61 96 141
60 94 129
59 93 122
58 92 124
58 92 124
60 93 134
59 92 124
58 91 116
59 94 130
57 90 108
57 89 115
57 89 116
74 100 105
100 114 65
120 132 18
118 129 0
120 133 0
120 132 0
127 138 0
118 128 0
122 133 0
106 116 0
122 137 0
119 132 0
127 138 0
129 142 0
109 119 0
124 135 0
112 123 0
112 121 0
122 132 0
120 129 0
123 133 0
106 117 0
114 121 0
120 128 0
121 128 0
130 140 0
115 126 0
134 145 0
126 137 0
119 131 0
121 128 0
126 137 0
114 123 0
121 129 0
111 120 0
126 134 0
124 131 0
122 129 0
131 135 0
121 128 0
116 121 0
121 128 0
129 136 0
125 130 0
115 124 0
134 142 0
120 124 0
120 124 0
124 132 0
125 131 0
133 140 0
135 141 0
125 132 0
124 132 0
127 135 0
134 140 0
130 136 0
129 136 0
135 142 0
135 143 0
143 150 0
134 141 0
133 140 0
138 145 0
132 140 0
129 133 0
143 151 0
131 136 0
140 143 0
144 149 0
140 149 0
130 136 0
133 140 0
135 141 0
134 139 0
142 150 0
143 151 0
144 148 0
141 149 0
133 139 0
146 155 0
142 148 0
145 154 0
146 155 0
147 158 0
152 160 0
144 153 0
139 149 0
150 163 0
148 160 0
150 162 0
148 159 0
149 160 0
153 165 0
144 154 0
156 169 0
153 166 0
145 155 0
153 162 0
146 158 0
151 163 0
150 162 0
154 169 0
153 167 0
154 167 0
157 171 0
158 170 0
150 161 0
158 171 0
155 169 0
155 169 0
155 167 0
155 167 0
157 169 0
159 174 0
160 176 0
157 172 0
159 174 0
157 172 0
157 171 0
160 173 0
162 178 0
162 179 0
157 170 0
164 181 0
164 179 0
161 178 0
161 175 0
155 172 0
162 179 0
162 176 0
159 175 0
157 172 0
162 180 0
163 181 0
163 182 0
163 178 0
164 182 0
159 175 0
162 178 0
165 183 0
166 184 0
162 179 0
165 183 0
161 179 0
158 176 0
162 181 0
163 180 0
173 197 0
169 193 0
174 198 0
172 196 0
171 195 0
172 196 0
170 192 0
173 197 0
172 195 0
169 193 0
171 195 0
171 194 0
172 196 0
172 195 0
171 195 0
170 194 0
172 195 0
173 196 0
170 194 0
170 195 0
172 194 0
170 194 0
171 194 0
172 195 0
166 191 0
166 190 0
169 192 0
172 196 0
170 194 0
166 189 0
170 194 0
173 196 0
165 188 0
170 193 0
169 193 0
169 193 0
170 193 0
168 192 0
166 189 0
170 194 0
171 195 0
171 194 0
172 195 0
168 191 0
165 189 0
166 188 0
168 192 0
169 193 0
167 189 0
167 190 0
166 189 0
165 188 0
168 191 0
165 188 0
171 194 0
166 189 0
168 191 0
169 193 0
166 189 0
163 186 0
164 187 0
166 188 0
163 186 0
164 188 0
163 187 0
168 191 0
164 187 0
164 187 0
165 188 0
166 189 0
167 190 0
166 189 0
163 186 0
160 184 36
148 171 54
141 165 82
122 146 86
101 128 113
82 112 120
64 96 120
59 94 130
61 96 143
60 95 134
60 95 141
59 95 134
60 95 140
59 94 140
61 96 149
60 95 143
61 96 144
61 97 154
61 96 145
61 97 153
60 95 142
59 94 137
61 96 151
61 96 156
61 96 149
61 96 150
61 97 153
61 97 157
61 96 147
60 96 150
61 97 159
61 97 161
61 97 161
62 98 165
61 98 163
61 97 158
61 97 165
62 98 163
62 98 165
62 98 161
61 97 157
60 96 156
61 97 157
62 98 157
61 97 158
61 97 156
61 97 159
61 97 159
62 98 162
60 96 159
62 98 160
60 96 155
62 98 160
63 98 153
68 102 151
60 95 142
60 95 151
66 100 152
62 96 140
63 97 144
61 96 149
67 100 142
60 95 135
60 95 150
59 94 130
60 95 137
59 94 144
61 96 148
59 94 137
61 95 133
60 95 141
60 94 137
60 95 142
60 95 142
61 97 143
59 94 142
60 95 137
60 95 139
60 96 148
59 94 140
59 93 142
60 94 131
61 96 141
60 96 147
60 95 135
61 96 144
61 97 153
61 96 144
61 96 145
61 96 140
59 94 143
61 97 145
60 95 148
61 96 143
60 95 141
61 96 145
60 95 140
60 95 144
61 96 149
61 96 153
60 95 142
60 94 134
61 96 145
62 97 147
60 95 133
61 96 141
60 95 136
61 97 151
60 96 144
61 97 148
61 96 150
60 95 141
61 96 148
61 96 145
59 93 130
61 96 145
60 95 144
61 97 145
61 96 149
61 96 147
59 94 139
61 96 149
61 95 141
61 96 145
61 96 141
60 95 135
60 95 141
61 96 142
60 95 137
59 94 129
61 96 149
60 94 130
60 95 141
61 96 137
61 96 143
60 96 144
62 97 147
61 96 145
60 95 131
62 98 151
60 95 139
61 96 142
60 95 135
60 95 137
62 98 150
60 95 145
61 96 136
60 95 141
60 95 136
60 94 142
61 96 137
60 94 137
59 93 126
60 95 134
61 96 137
59 93 122
59 93 128
61 95 143
61 95 140
60 94 134
61 96 139
61 95 137
60 95 141
60 94 139
61 95 129
60 94 141
60 94 135
61 95 136
57 90 118
58 92 122
59 93 120
59 93 131
58 92 125
58 92 129
60 94 130
59 93 131
58 91 121
58 92 118
57 88 111
93 113 92
102 115 44
118 127 0
121 133 0
127 138 0
122 133 0
125 135 0
134 148 0
120 131 0
117 129 0
114 122 0
121 131 0
118 128 0
119 130 0
115 123 0
124 135 0
117 129 0
120 132 0
116 125 0
126 133 0
114 126 0
120 129 0
127 137 0
125 134 0
122 131 0
109 118 0
129 140 0
124 132 0
126 137 0
118 123 0
128 136 0
128 136 0
121 133 0
118 125 0
126 133 0
126 134 0
125 132 0
127 134 0
130 142 0
123 129 0
129 136 0
128 135 0
118 122 0
120 127 0
116 126 0
128 136 0
125 129 0
129 137 0
124 130 0
129 136 0
124 131 0
120 127 0
130 139 0
129 138 0
127 136 0
133 140 0
137 145 0
128 133 0
136 141 0
127 132 0
125 130 0
132 138 0
130 134 0
138 143 0
130 138 0
135 144 0
129 135 0
144 152 0
138 147 0
136 143 0
141 150 0
135 143 0
135 145 0
145 155 0
136 141 0
136 144 0
143 152 0
136 142 0
144 155 0
143 153 0
147 158 0
140 147 0
143 149 0
136 144 0
146 158 0
142 153 0
146 157 0
149 159 0
145 155 0
148 159 0
150 159 0
148 159 0
147 155 0
157 168 0
156 167 0
156 169 0
155 165 0
151 161 0
153 164 0
150 161 0
155 165 0
159 173 0
154 169 0
156 168 0
153 166 0
159 174 0
146 157 0
154 166 0
159 173 0
157 169 0
160 174 0
158 173 0
161 175 0
152 165 0
152 166 0
158 174 0
158 172 0
156 169 0
153 166 0
156 171 0
156 170 0
165 181 0
162 174 0
158 171 0
162 178 0
163 179 0
154 169 0
161 179 0
157 173 0
161 178 0
158 172 0
157 175 0
156 171 0
165 184 0
169 185 0
160 176 0
165 183 0
165 182 0
162 179 0
161 177 0
165 182 0
162 180 0
160 179 0
158 175 0
165 184 0
165 184 0
161 180 0
170 190 0
173 197 0
172 196 0
173 197 0
173 197 0
171 195 0
170 195 0
172 195 0
171 195 0
172 194 0
171 194 0
172 196 0
173 196 0
173 197 0
171 194 0
172 195 0
173 196 0
168 192 0
171 194 0
170 193 0
169 192 0
170 193 0
167 191 0
167 190 0
169 193 0
171 194 0
167 191 0
170 193 0
165 188 0
171 194 0
165 188 0
169 193 0
171 195 0
170 192 0
168 191 0
171 194 0
172 195 0
170 193 0
167 191 0
162 185 0
165 189 0
167 190 0
165 188 0
166 189 0
166 190 0
167 191 0
169 193 0
167 191 0
165 188 0
169 192 0
169 192 0
169 192 0
164 187 0
161 185 0
169 193 0
165 188 0
162 186 0
168 191 0
167 191 0
165 188 0
165 188 0
167 190 0
166 189 0
162 185 0
164 187 0
167 189 0
163 187 0
172 194 0
169 193 0
157 180 0
163 187 0
165 188 0
159 182 0
164 186 0
155 178 31
150 173 54
141 165 70
133 158 88
110 135 111
97 124 115
82 111 118
59 93 130
59 94 129
59 93 125
60 96 142
60 94 136
61 97 143
62 97 148
59 94 135
60 95 148
60 95 141
59 93 137
59 94 137
60 95 141
61 96 148
60 95 142
60 95 143
59 94 143
61 96 143
60 96 152
60 96 155
61 97 155
61 97 154
60 96 148
61 97 150
61 97 154
61 97 159
62 98 157
61 97 160
62 98 163
62 98 165
60 96 148
62 98 163
62 98 165
62 97 153
62 98 165
61 97 156
63 99 162
62 98 160
61 97 153
61 97 155
61 98 165
61 97 157
61 97 156
61 97 161
62 97 155
62 98 158
61 97 158
63 98 149
60 95 143
60 96 149
63 98 151
60 95 145
60 95 145
59 94 137
63 97 136
61 95 142
62 97 139
61 95 143
60 94 137
62 97 142
60 95 142
65 99 143
59 94 137
60 95 143
63 98 145
60 95 145
59 94 141
60 96 153
60 95 140
60 94 140
60 95 143
60 95 141
60 95 140
60 95 142
60 96 148
61 97 153
60 95 145
59 94 139
59 94 133
60 96 150
61 96 142
60 95 134
59 94 142
62 97 155
60 96 144
60 96 148
61 97 153
61 96 145
60 96 147
61 96 149
61 96 142
60 96 145
58 93 130
60 95 139
59 94 135
61 96 145
62 97 150
60 95 137
60 95 137
61 96 147
60 95 144
60 95 139
62 97 149
61 97 149
61 96 142
61 96 148
60 96 142
61 95 147
62 97 144
62 97 151
60 95 147
61 96 144
61 96 153
62 97 150
61 96 149
60 96 149
61 96 149
61 96 153
61 96 148
61 96 142
61 96 143
61 96 143
60 95 142
62 97 149
61 96 150
61 96 148
60 95 139
60 95 141
61 96 139
60 95 141
60 96 147
61 96 148
60 95 136
61 96 137
61 97 148
59 93 137
60 94 140
60 94 130
60 95 130
60 95 142
61 96 143
60 95 131
61 96 136
59 94 133
60 94 133
61 96 141
62 96 143
61 95 141
60 94 124
59 94 136
60 95 137
59 94 120
60 95 137
58 92 133
58 92 122
60 95 139
60 94 129
60 94 130
61 96 139
59 94 134
59 94 122
59 94 136
60 94 134
60 95 131
60 94 133
59 93 122
57 90 113
60 95 124
57 91 116
58 91 128
58 92 122
83 105 100
112 126 40
106 117 18
119 131 0
111 123 0
119 129 0
129 141 0
116 127 0
116 127 0
113 123 0
120 132 0
120 132 0
128 140 0
124 138 0
126 140 0
122 131 0
119 131 0
125 137 0
127 137 0
123 136 0
125 137 0
132 144 0
116 126 0
117 126 0
118 128 0
124 133 0
121 130 0
124 135 0
126 138 0
133 145 0
130 142 0
118 129 0
122 131 0
123 128 0
122 133 0
127 137 0
126 135 0
129 139 0
129 139 0
126 134 0
126 136 0
123 132 0
122 129 0
134 142 0
128 137 0
132 139 0
128 136 0
118 126 0
139 146 0
121 130 0
128 136 0
134 143 0
127 136 0
134 146 0
130 136 0
122 128 0
139 150 0
136 144 0
128 134 0
132 139 0
135 141 0
130 135 0
134 141 0
135 145 0
132 140 0
140 145 0
138 146 0
131 139 0
134 143 0
136 145 0
139 147 0
137 145 0
142 148 0
134 139 0
144 153 0
140 148 0
149 159 0
142 150 0
152 160 0
150 159 0
149 158 0
146 154 0
144 155 0
143 151 0
139 147 0
147 155 0
147 158 0
146 156 0
147 156 0
143 151 0
151 162 0
146 156 0
150 159 0
153 165 0
147 159 0
147 156 0
149 158 0
152 163 0
155 168 0
158 171 0
154 164 0
156 168 0
156 169 0
153 165 0
143 152 0
162 174 0
152 167 0
151 162 0
155 168 0
155 168 0
150 161 0
158 170 0
154 165 0
155 169 0
158 173 0
157 171 0
158 173 0
161 174 0
154 168 0
156 170 0
162 176 0
158 173 0
161 176 0
162 178 0
160 177 0
157 171 0
162 177 0
159 173 0
158 173 0
154 172 0
164 183 0
158 174 0
165 182 0
163 180 0
167 183 0
164 184 0
163 180 0
160 175 0
167 185 0
164 181 0
165 182 0
162 179 0
165 183 0
163 182 0
163 180 0
164 182 0
163 181 0
163 181 0
167 185 0
170 193 0
174 197 0
172 195 0
172 195 0
172 195 0
171 194 0
172 196 0
173 196 0
173 196 0
174 197 0
171 196 0
172 196 0
171 194 0
169 192 0
170 194 0
169 192 0
173 196 0
170 195 0
172 195 0
168 192 0
170 193 0
172 195 0
172 195 0
171 194 0
170 193 0
169 193 0
170 193 0
170 193 0
170 194 0
169 192 0
173 197 0
170 193 0
169 192 0
168 191 0
167 191 0
169 193 0
167 190 0
169 192 0
170 194 0
167 190 0
170 193 0
168 191 0
170 193 0
168 191 0
168 190 0
168 192 0
165 189 0
168 191 0
167 191 0
166 189 0
165 188 0
163 186 0
164 188 0
169 192 0
172 195 0
166 189 0
170 193 0
170 195 0
167 190 0
156 180 0
165 188 0
167 190 0
161 184 0
162 185 0
162 185 0
166 189 0
160 184 0
162 185 0
166 188 0
159 181 0
159 183 0
166 189 0
159 183 0
160 183 0
159 182 36
149 172 65
144 168 60
125 150 97
103 130 111
93 120 121
65 98 128
60 95 131
60 94 136
59 94 136
60 94 135
61 96 141
60 95 136
60 95 144
61 96 143
60 94 143
59 94 134
61 96 143
61 96 150
60 95 139
60 95 142
60 96 142
60 95 148
60 96 149
58 93 134
61 96 151
60 96 148
61 97 156
61 97 156
60 95 149
62 98 161
60 96 150
62 98 156
61 97 158
62 98 157
61 97 157
60 96 152
61 97 156
62 98 161
62 98 159
61 97 161
61 97 158
62 98 161
61 97 157
61 98 159
62 98 162
61 97 153
61 97 156
61 97 152
60 96 154
61 97 158
61 97 152
60 96 148
63 98 150
65 99 145
66 100 157
60 96 137
61 97 151
63 97 145
63 97 148
65 99 144
64 99 144
63 98 144
67 100 145
60 95 141
58 92 129
60 95 145
58 92 128
61 95 131
59 94 140
61 96 145
60 95 134
60 95 137
60 95 145
61 97 148
61 97 148
61 97 149
60 96 147
60 95 144
61 96 145
59 94 136
60 95 144
60 96 143
60 95 136
61 96 142
61 96 147
60 95 140
62 97 151
61 96 144
60 95 142
61 96 143
61 97 149
59 94 136
61 96 149
61 97 156
61 97 148
60 95 144
60 94 131
60 96 147
61 97 148
60 95 139
60 95 134
61 96 147
61 96 144
60 95 133
62 97 149
61 96 142
59 94 128
61 96 147
60 95 139
62 97 150
61 96 142
61 97 149
61 96 137
60 94 126
61 97 152
61 96 142
61 96 136
60 95 141
60 95 140
60 95 140
60 95 137
60 95 143
61 96 139
60 96 142
61 96 142
60 95 129
60 95 139
60 94 140
61 96 145
61 96 137
61 96 145
60 94 137
60 95 143
60 95 133
60 95 133
61 96 144
59 94 128
59 94 133
59 94 131
60 95 133
60 94 133
60 95 139
61 96 139
60 95 139
60 94 136
59 94 134
61 97 148
61 96 143
60 94 133
59 94 128
58 92 129
60 95 136
58 92 120
60 94 130
60 95 140
61 95 136
61 95 141
60 95 137
59 93 115
60 94 133
60 95 139
59 93 129
60 94 129
59 93 122
60 94 130
58 92 120
59 93 126
59 93 130
59 93 125
58 91 118
58 92 124
59 92 128
57 89 113
59 93 133
58 91 117
67 96 108
90 107 67
128 142 8
114 127 0
124 135 0
118 127 0
114 124 0
120 133 0
127 139 0
131 144 0
118 130 0
119 130 0
133 146 0
124 135 0
121 134 0
127 136 0
117 127 0
123 134 0
115 128 0
129 139 0
125 139 0
123 135 0
127 137 0
121 132 0
132 143 0
121 129 0
119 128 0
118 127 0
125 135 0
120 131 0
124 135 0
123 134 0
121 129 0
128 139 0
132 144 0
110 118 0
124 130 0
124 135 0
127 136 0
136 146 0
137 144 0
119 129 0
137 145 0
124 131 0
132 140 0
130 139 0
134 145 0
122 130 0
127 132 0
125 134 0
121 130 0
136 144 0
137 146 0
138 146 0
134 141 0
136 142 0
130 141 0
130 137 0
126 133 0
133 139 0
132 140 0
132 143 0
122 130 0
133 141 0
136 143 0
135 141 0
131 141 0
135 140 0
143 153 0
136 144 0
133 141 0
140 148 0
134 142 0
138 147 0
139 147 0
139 148 0
140 148 0
138 147 0
143 151 0
148 158 0
145 156 0
145 155 0
142 151 0
141 153 0
140 149 0
138 147 0
149 162 0
150 161 0
151 161 0
148 157 0
154 167 0
147 158 0
145 155 0
147 157 0
149 159 0
159 174 0
154 167 0
145 154 0
152 164 0
147 156 0
148 158 0
148 159 0
155 167 0
155 167 0
145 156 0
153 165 0
158 170 0
155 168 0
159 174 0
153 166 0
155 171 0
161 176 0
161 174 0
157 171 0
153 166 0
156 171 0
159 173 0
159 177 0
160 176 0
160 175 0
158 173 0
161 177 0
161 178 0
160 174 0
160 176 0
159 176 0
159 174 0
166 182 0
163 178 0
159 175 0
160 176 0
160 175 0
160 178 0
161 177 0
166 184 0
165 183 0
159 175 0
162 180 0
165 183 0
166 183 0
160 179 0
164 182 0
161 179 0
162 177 0
163 179 0
165 183 0
164 181 0
163 181 0
165 185 0
166 184 0
172 196 0
172 196 0
172 195 0
169 194 0
170 194 0
175 198 0
173 196 0
174 197 0
172 195 0
171 194 0
172 195 0
170 194 0
172 196 0
170 194 0
170 194 0
168 192 0
171 195 0
170 194 0
171 194 0
172 194 0
168 192 0
171 195 0
171 195 0
171 193 0
169 192 0
168 192 0
171 193 0
166 190 0
169 192 0
167 191 0
166 189 0
168 191 0
166 190 0
172 195 0
169 192 0
166 190 0
166 190 0
173 196 0
170 193 0
168 191 0
167 190 0
166 189 0
165 189 0
165 188 0
168 191 0
171 194 0
164 187 0
163 187 0
166 189 0
160 183 0
166 189 0
165 188 0
168 190 0
161 183 0
161 185 0
163 186 0
166 189 0
159 182 0
160 184 0
164 187 0
161 183 0
166 188 0
165 188 0
163 186 0
158 180 0
157 180 0
163 185 0
164 186 0
157 181 0
167 190 0
157 180 0
158 180 0
167 190 0
162 185 0
161 184 25
158 180 36
147 171 47
128 152 95
125 150 100
95 122 110
78 107 118
60 93 130
58 93 124
60 94 129
60 95 147
60 95 142
60 95 135
61 96 149
59 93 128
60 95 140
59 94 135
60 95 145
59 93 125
60 95 134
59 93 136
60 95 141
60 95 152
60 96 149
60 96 150
60 95 143
60 96 144
60 96 149
62 98 153
63 99 164
61 96 155
60 95 156
60 95 144
60 96 157
60 95 145
61 97 156
61 97 159
61 97 159
61 97 154
62 98 161
62 98 161
60 96 154
61 97 159
62 98 164
61 96 155
61 97 155
62 98 163
62 98 159
61 97 157
61 97 153
60 96 144
61 97 154
60 96 145
62 97 157
60 95 143
65 99 148
60 96 149
64 98 140
69 102 145
60 95 139
64 98 149
62 96 143
64 98 145
59 94 139
59 94 141
61 96 144
61 96 151
59 94 145
60 95 141
60 96 143
61 96 139
59 94 140
60 95 141
59 94 136
61 95 147
60 95 141
60 95 145
61 96 144
59 94 139
59 94 133
60 95 140
59 94 137
59 95 136
60 95 135
60 95 137
59 95 142
60 95 139
60 95 143
61 96 143
61 97 153
61 97 150
61 97 151
60 94 136
60 95 131
59 94 134
61 96 145
60 96 148
60 95 134
59 94 147
61 96 143
59 94 134
61 96 142
60 95 137
60 95 142
61 96 143
60 94 140
61 97 145
60 95 135
61 96 139
60 95 135
60 96 140
61 96 147
60 95 135
61 95 141
59 94 135
61 96 142
61 96 144
60 95 136
62 97 148
61 96 147
61 97 144
60 95 136
60 95 135
60 95 133
59 94 140
61 96 144
60 95 137
62 96 144
61 95 144
61 96 142
60 95 135
60 94 137
61 96 139
62 97 144
60 95 137
60 95 139
60 95 137
60 95 136
60 94 131
60 95 139
60 95 134
59 94 131
61 96 143
60 94 131
60 95 135
59 94 130
59 94 133
61 96 139
60 94 125
59 94 133
62 97 143
59 93 129
60 95 139
59 93 131
61 96 135
60 94 128
59 93 129
59 93 126
60 94 133
60 94 131
60 95 135
60 94 131
59 94 130
58 91 124
59 93 121
59 93 124
58 91 129
58 92 122
59 93 115
59 93 124
58 92 123
57 90 113
58 92 118
57 90 117
57 90 115
60 92 113
92 113 86
111 125 51
106 119 0
116 129 0
117 129 0
119 131 0
126 139 0
121 135 0
120 133 0
112 124 0
123 134 0
121 133 0
119 130 0
127 139 0
123 136 0
119 129 0
111 122 0
123 137 0
119 132 0
128 138 0
124 135 0
115 125 0
126 139 0
114 127 0
117 125 0
120 131 0
119 127 0
127 138 0
125 135 0
118 129 0
133 144 0
129 136 0
136 147 0
129 139 0
116 123 0
123 130 0
136 145 0
133 142 0
133 145 0
131 141 0
127 138 0
123 133 0
119 127 0
127 136 0
134 144 0
125 134 0
128 137 0
122 131 0
130 137 0
124 132 0
128 137 0
127 133 0
134 144 0
144 152 0
136 146 0
131 138 0
124 129 0
134 143 0
138 149 0
136 146 0
143 151 0
124 131 0
145 154 0
134 143 0
145 158 0
137 146 0
133 140 0
139 147 0
132 139 0
138 146 0
146 154 0
140 150 0
142 150 0
141 150 0
140 150 0
133 143 0
135 146 0
147 155 0
140 147 0
143 154 0
143 155 0
144 156 0
141 153 0
138 145 0
142 150 0
143 155 0
146 156 0
151 162 0
141 152 0
156 164 0
152 165 0
142 155 0
149 161 0
146 157 0
155 169 0
141 150 0
155 168 0
158 171 0
142 154 0
149 160 0
158 170 0
160 176 0
154 168 0
146 159 0
149 160 0
156 169 0
151 162 0
157 171 0
154 166 0
155 169 0
153 168 0
158 174 0
156 169 0
158 174 0
158 171 0
160 174 0
161 175 0
162 178 0
161 174 0
153 167 0
160 175 0
160 176 0
159 172 0
158 172 0
157 174 0
159 174 0
162 178 0
162 177 0
157 175 0
163 182 0
161 178 0
163 180 0
162 181 0
158 177 0
165 183 0
161 177 0
165 181 0
160 177 0
164 181 0
160 177 0
163 180 0
163 181 0
165 185 0
161 180 0
160 177 0
161 177 0
164 184 0
165 182 0
165 182 0
169 189 0
171 194 0
175 198 0
170 194 0
170 194 0
172 196 0
167 190 0
172 196 0
169 191 0
171 194 0
169 193 0
169 193 0
169 193 0
171 194 0
171 194 0
171 195 0
174 197 0
170 193 0
169 192 0
171 194 0
170 194 0
169 192 0
168 193 0
171 194 0
168 192 0
171 195 0
172 196 0
171 193 0
169 193 0
168 192 0
166 189 0
173 197 0
168 192 0
170 194 0
167 191 0
165 188 0
170 194 0
170 194 0
171 194 0
170 193 0
166 190 0
169 192 0
166 190 0
167 190 0
171 195 0
168 191 0
170 194 0
166 190 0
167 190 0
171 194 0
166 189 0
164 187 0
166 189 0
164 187 0
167 190 0
170 192 0
165 188 0
166 189 0
164 188 0
165 189 0
162 186 0
164 187 0
163 185 0
167 191 0
162 184 0
165 188 0
164 186 0
166 191 0
160 184 0
161 184 0
164 187 0
162 184 0
155 178 0
161 184 0
163 186 0
162 185 0
153 176 25
148 170 57
140 164 67
125 150 99
111 137 103
89 116 110
77 106 114
58 93 121
59 93 134
61 96 144
59 94 142
60 94 139
59 94 136
59 93 130
61 97 148
60 95 142
60 94 130
59 94 131
60 95 150
60 96 142
59 94 135
60 95 140
60 95 142
61 97 155
60 95 144
61 96 152
59 94 140
61 97 155
61 96 149
58 93 143
61 97 156
60 96 153
62 98 161
61 97 154
60 96 156
61 96 155
61 97 158
61 97 159
61 97 156
61 97 155
62 97 159
61 96 151
62 99 169
62 98 163
61 97 161
61 97 154
62 98 158
63 99 164
61 97 153
61 96 153
61 97 158
61 97 159
60 95 143
61 97 154
62 96 141
64 98 135
63 97 143
64 98 142
60 95 143
64 98 142
62 96 137
59 94 135
60 95 137
61 96 149
60 96 143
60 95 143
61 94 131
61 96 145
61 96 143
60 95 142
59 94 137
61 96 139
60 95 144
59 93 129
60 95 133
60 95 134
60 95 139
60 95 143
59 94 139
58 92 131
61 96 150
60 96 144
61 97 144
59 95 140
60 96 139
60 95 140
60 94 137
61 96 149
60 95 141
60 95 139
61 96 143
60 96 148
60 95 136
61 95 144
60 94 136
61 96 137
61 97 147
60 95 135
60 95 137
60 96 148
61 97 147
60 95 137
62 98 155
62 97 148
60 95 134
60 95 144
60 95 139
60 96 142
62 97 151
61 96 147
60 95 143
61 96 149
62 97 149
61 96 145
60 95 139
62 97 148
60 95 142
61 96 143
62 97 151
60 95 136
60 95 140
61 96 144
61 96 142
61 96 137
61 96 141
61 96 147
60 95 137
61 96 145
61 95 140
60 95 136
60 96 143
61 96 143
60 94 134
59 94 134
61 96 140
60 95 140
62 97 145
60 95 140
58 92 125
60 95 134
61 96 141
60 94 133
59 94 130
61 96 141
60 95 134
59 94 133
62 97 143
59 93 121
59 93 133
59 93 126
60 95 141
58 93 118
59 93 128
59 93 128
60 95 140
59 93 124
60 95 135
59 93 125
61 95 140
59 93 126
59 93 130
60 95 125
60 95 131
59 93 129
60 94 134
59 93 125
58 92 124
61 95 135
60 94 136
59 93 126
58 92 118
56 89 103
56 88 111
56 88 104
82 103 91
105 124 63
112 125 25
115 129 0
116 128 0
115 127 0
134 147 0
114 125 0
117 127 0
126 136 0
123 134 0
123 137 0
118 127 0
127 139 0
131 144 0
130 141 0
122 136 0
111 121 0
125 136 0
119 131 0
118 132 0
124 135 0
124 135 0
123 135 0
129 142 0
123 133 0
129 142 0
131 141 0
136 148 0
117 129 0
124 133 0
132 142 0
123 132 0
120 129 0
126 136 0
123 132 0
129 137 0
134 143 0
128 137 0
129 139 0
126 135 0
143 153 0
130 140 0
132 140 0
128 137 0
117 127 0
136 145 0
134 142 0
128 139 0
121 130 0
135 144 0
125 134 0
130 139 0
134 142 0
142 149 0
140 151 0
136 147 0
140 150 0
127 138 0
138 149 0
137 148 0
134 144 0
140 151 0
140 149 0
131 137 0
134 145 0
141 149 0
145 155 0
137 145 0
145 154 0
134 142 0
140 148 0
136 146 0
142 153 0
139 150 0
145 155 0
145 152 0
143 152 0
143 154 0
140 150 0
145 154 0
141 151 0
144 157 0
148 159 0
145 155 0
143 154 0
146 157 0
144 155 0
147 157 0
151 160 0
145 158 0
146 158 0
157 168 0
154 166 0
152 166 0
145 157 0
145 157 0
148 163 0
153 163 0
155 168 0
152 165 0
147 158 0
149 162 0
157 172 0
151 164 0
156 165 0
148 164 0
157 173 0
157 172 0
158 171 0
159 174 0
154 169 0
151 163 0
159 173 0
155 170 0
163 180 0
151 165 0
155 171 0
156 172 0
159 172 0
158 175 0
164 181 0
155 167 0
156 169 0
158 172 0
163 178 0
162 179 0
164 182 0
152 168 0
161 177 0
163 180 0
162 179 0
161 177 0
160 175 0
164 179 0
162 178 0
158 177 0
161 178 0
164 183 0
159 174 0
169 187 0
164 181 0
162 179 0
164 182 0
166 185 0
158 175 0
164 180 0
161 179 0
166 185 0
164 181 0
161 179 0
172 196 0
171 194 0
172 196 0
171 195 0
171 194 0
171 195 0
170 193 0
171 194 0
171 195 0
169 193 0
172 195 0
168 191 0
170 193 0
168 192 0
169 193 0
173 195 0
168 191 0
171 195 0
171 195 0
167 190 0
173 195 0
170 193 0
169 193 0
170 193 0
166 190 0
170 192 0
172 195 0
170 193 0
169 191 0
168 191 0
165 188 0
167 191 0
166 189 0
167 190 0
171 194 0
170 193 0
165 190 0
170 192 0
167 189 0
167 190 0
169 192 0
165 189 0
164 188 0
166 190 0
169 193 0
164 187 0
169 192 0
162 184 0
167 190 0
164 188 0
170 193 0
165 188 0
166 189 0
165 187 0
162 186 0
159 183 0
165 189 0
162 185 0
167 190 0
168 192 0
161 184 0
161 184 0
155 178 0
164 186 0
162 184 0
162 186 0
162 184 0
166 189 0
161 184 0
162 185 0
160 183 0
161 184 0
158 182 0
159 182 0
159 183 0
163 185 18
156 179 40
142 165 62
132 156 70
117 142 92
92 118 97
90 118 115
59 93 118
60 94 129
58 93 126
58 92 130
59 93 128
59 93 133
59 94 129
59 94 134
58 93 135
59 93 137
60 95 135
59 94 128
59 93 134
60 95 149
60 95 139
59 94 136
61 96 143
59 95 135
60 95 142
61 96 148
59 95 140
61 96 149
60 96 154
60 94 142
60 95 147
60 96 156
62 98 164
61 97 158
61 96 156
61 96 151
61 97 155
62 98 157
61 97 154
61 97 155
62 98 160
61 98 162
61 96 152
61 98 161
61 97 158
62 98 163
62 98 155
62 97 155
61 97 154
60 96 154
62 98 158
62 98 154
61 96 152
62 96 137
63 98 154
62 96 133
62 97 142
61 95 129
62 96 142
62 97 140
61 96 145
59 94 133
60 95 136
66 100 137
63 96 131
60 95 142
61 96 136
60 96 141
61 96 142
60 95 133
60 95 129
60 96 139
60 95 142
59 93 133
60 95 145
60 95 137
59 94 133
59 94 140
59 94 134
60 95 147
59 94 139
60 94 137
60 95 142
59 94 133
61 96 147
59 94 133
61 96 145
60 95 139
61 96 145
60 95 139
60 95 143
61 95 142
61 96 148
60 95 140
61 96 140
60 95 139
60 95 135
61 96 140
61 96 145
61 96 147
60 95 143
59 94 133
60 95 134
60 95 140
61 96 143
61 96 144
61 96 144
60 95 142
60 95 135
62 97 144
60 95 137
61 96 139
60 95 135
60 96 141
60 94 129
61 96 135
61 96 140
59 94 141
60 95 130
61 96 140
61 95 139
60 95 140
60 95 134
60 95 135
60 95 140
59 93 128
61 95 134
61 96 145
60 94 135
62 97 149
60 95 136
57 91 115
60 95 136
60 94 129
60 95 137
60 94 134
59 93 125
61 96 149
61 95 140
60 95 136
61 96 144
60 94 135
61 96 143
59 94 134
61 96 147
58 92 130
60 95 135
61 96 144
60 94 131
60 95 133
60 95 142
59 93 126
59 93 135
57 91 121
59 93 126
59 93 129
61 96 137
59 93 133
59 93 126
59 93 124
58 92 118
59 93 122
59 93 128
59 94 121
58 92 126
59 92 133
60 94 144
58 91 116
60 94 136
59 92 122
58 92 120
56 89 105
68 96 102
96 114 70
114 127 25
109 121 0
99 110 0
119 132 0
123 138 0
125 138 0
116 128 0
119 131 0
118 130 0
130 142 0
127 140 0
115 127 0
124 138 0
135 149 0
122 132 0
135 147 0
133 145 0
114 124 0
124 137 0
126 138 0
131 143 0
131 144 0
121 130 0
130 143 0
120 132 0
124 135 0
119 129 0
128 137 0
124 135 0
120 131 0
128 138 0
122 129 0
123 133 0
133 143 0
130 142 0
129 140 0
136 149 0
126 135 0
127 133 0
134 142 0
124 134 0
137 148 0
124 133 0
135 147 0
111 117 0
137 147 0
132 143 0
135 145 0
126 134 0
127 133 0
127 134 0
120 129 0
136 146 0
136 145 0
138 146 0
141 152 0
142 153 0
140 151 0
129 139 0
141 152 0
132 140 0
139 147 0
133 144 0
143 154 0
137 145 0
142 152 0
142 154 0
129 139 0
151 163 0
141 149 0
137 148 0
141 150 0
137 145 0
137 145 0
143 153 0
133 142 0
145 156 0
144 153 0
143 152 0
139 149 0
152 161 0
150 162 0
150 162 0
145 155 0
149 160 0
146 157 0
154 166 0
155 168 0
148 161 0
150 159 0
154 163 0
154 166 0
152 163 0
151 166 0
158 172 0
154 168 0
152 163 0
148 160 0
147 160 0
152 167 0
147 159 0
150 161 0
160 173 0
158 171 0
158 173 0
153 165 0
152 165 0
155 169 0
160 175 0
155 169 0
161 174 0
160 176 0
157 172 0
150 165 0
156 171 0
162 178 0
159 175 0
158 174 0
158 172 0
156 168 0
160 175 0
157 173 0
161 176 0
155 172 0
159 173 0
160 174 0
157 174 0
158 174 0
162 180 0
163 179 0
168 186 0
165 182 0
155 170 0
159 176 0
161 177 0
156 172 0
162 180 0
163 179 0
162 178 0
165 183 0
162 180 0
165 185 0
162 179 0
163 184 0
166 184 0
158 176 0
165 186 0
163 181 0
165 183 0
165 184 0
172 196 0
170 194 0
172 195 0
171 195 0
168 191 0
168 192 0
172 195 0
175 197 0
172 195 0
171 195 0
169 193 0
171 194 0
173 196 0
171 194 0
170 194 0
168 191 0
170 194 0
172 195 0
169 194 0
170 194 0
171 194 0
172 195 0
167 191 0
168 192 0
165 189 0
166 190 0
168 191 0
169 193 0
167 190 0
167 191 0
170 194 0
168 191 0
170 194 0
168 192 0
167 189 0
165 188 0
169 191 0
171 195 0
166 190 0
166 189 0
166 190 0
169 192 0
168 191 0
172 195 0
166 189 0
164 187 0
162 185 0
166 190 0
169 192 0
165 188 0
166 190 0
161 185 0
164 188 0
169 192 0
166 189 0
161 184 0
162 185 0
166 189 0
166 189 0
162 184 0
159 182 0
161 184 0
163 186 0
161 184 0
163 187 0
166 189 0
162 186 0
163 185 0
167 190 0
158 181 0
161 184 0
156 178 0
160 184 0
157 180 0
158 181 0
158 181 0
153 176 18
151 174 31
138 161 57
131 154 72
112 137 97
94 120 88
76 106 111
60 95 131
60 95 142
57 91 111
59 93 131
58 93 129
60 95 142
59 94 126
60 95 139
59 94 135
60 95 133
60 95 144
60 95 140
60 95 137
59 94 139
60 95 145
59 94 139
60 95 148
60 96 145
60 95 145
60 95 143
61 96 149
61 96 152
60 95 147
59 95 140
60 96 147
61 97 159
61 97 162
62 98 158
61 97 153
61 97 153
61 96 145
61 97 158
62 97 157
62 98 161
61 97 160
62 98 155
61 97 153
61 97 155
61 98 162
62 98 158
62 98 157
62 98 162
61 96 149
60 95 140
60 95 142
61 96 143
61 97 152
60 95 140
64 97 137
62 97 144
63 97 139
63 98 147
68 101 134
64 98 139
63 96 130
60 95 137
65 99 137
61 95 134
60 95 141
61 96 145
68 102 147
63 97 128
60 95 137
61 96 143
60 95 143
60 95 142
62 97 147
60 94 134
59 93 130
60 95 141
60 95 133
59 94 133
60 94 136
61 96 140
60 95 139
61 97 147
59 95 141
60 95 147
61 96 142
59 94 128
60 95 144
59 94 129
60 94 136
60 96 147
60 95 148
60 95 134
61 96 144
61 97 155
60 95 143
61 96 145
61 97 152
61 96 142
59 94 136
60 95 139
60 95 144
60 95 140
62 97 147
59 93 135
60 95 139
59 94 139
60 94 140
60 95 135
61 96 144
61 96 140
60 95 141
61 96 134
60 95 131
60 95 142
61 96 144
60 96 145
60 96 145
60 95 141
59 94 136
60 95 133
60 95 136
59 93 136
60 95 143
60 95 136
60 95 137
60 94 141
60 94 129
59 94 129
61 96 144
60 94 129
60 95 135
59 94 131
62 97 149
58 92 122
58 92 120
60 95 124
61 95 136
60 95 135
59 93 131
60 95 136
62 97 152
60 94 135
60 95 143
60 95 136
59 94 129
60 95 131
61 96 140
60 94 136
60 94 128
58 92 129
59 94 131
59 93 124
60 95 135
59 93 124
59 94 137
59 94 125
59 93 125
59 93 125
59 93 131
59 93 118
61 95 137
60 94 130
57 91 122
58 91 124
58 92 118
59 93 124
58 91 118
57 90 113
57 89 103
56 89 116
57 91 114
92 114 88
107 122 60
113 127 0
118 132 0
122 134 0
115 126 0
112 124 0
109 122 0
127 140 0
110 124 0
121 133 0
121 134 0
116 128 0
128 141 0
121 132 0
138 153 0
119 134 0
133 147 0
135 148 0
121 133 0
121 129 0
126 139 0
131 146 0
127 137 0
138 151 0
126 139 0
132 147 0
124 136 0
130 140 0
130 142 0
135 145 0
129 138 0
124 133 0
119 131 0
122 133 0
128 140 0
135 145 0
140 154 0
125 134 0
125 138 0
132 143 0
124 135 0
133 143 0
122 134 0
126 137 0
137 146 0
132 145 0
134 142 0
128 137 0
134 146 0
118 127 0
132 142 0
138 150 0
134 147 0
134 145 0
132 145 0
127 137 0
136 144 0
136 144 0
142 154 0
131 140 0
126 135 0
134 142 0
139 150 0
137 147 0
133 143 0
141 150 0
138 148 0
155 168 0
141 153 0
137 148 0
147 159 0
144 155 0
148 160 0
152 165 0
141 151 0
136 147 0
143 153 0
136 147 0
145 156 0
142 153 0
154 168 0
130 142 0
142 152 0
143 151 0
141 151 0
149 161 0
147 160 0
142 155 0
147 159 0
144 156 0
149 159 0
152 164 0
146 157 0
150 162 0
145 157 0
140 153 0
149 161 0
155 164 0
151 163 0
153 166 0
152 167 0
147 158 0
155 169 0
160 173 0
158 171 0
156 170 0
154 168 0
155 169 0
154 169 0
146 160 0
155 170 0
157 172 0
153 165 0
161 177 0
150 166 0
160 177 0
158 173 0
159 175 0
160 176 0
159 174 0
158 172 0
161 174 0
156 173 0
167 184 0
159 175 0
163 181 0
163 180 0
163 178 0
161 177 0
160 174 0
161 180 0
164 181 0
159 176 0
163 179 0
164 182 0
160 177 0
163 180 0
164 179 0
164 182 0
165 182 0
163 180 0
169 187 0
167 187 0
160 178 0
163 182 0
161 177 0
160 178 0
166 186 0
165 186 0
165 185 0
165 185 0
171 195 0
171 194 0
173 196 0
169 192 0
171 194 0
171 194 0
168 191 0
170 193 0
174 197 0
169 193 0
169 193 0
172 195 0
167 191 0
171 194 0
171 195 0
171 194 0
168 191 0
171 195 0
166 190 0
165 189 0
171 195 0
169 191 0
174 196 0
167 191 0
171 194 0
169 192 0
166 189 0
170 193 0
169 193 0
163 187 0
171 194 0
167 189 0
171 194 0
169 193 0
173 195 0
170 194 0
169 193 0
166 189 0
168 191 0
166 191 0
168 191 0
163 186 0
166 189 0
166 190 0
168 191 0
167 190 0
169 191 0
165 187 0
160 183 0
161 185 0
162 184 0
162 186 0
165 188 0
162 185 0
162 184 0
163 185 0
160 184 0
155 178 0
165 188 0
166 189 0
163 186 0
164 187 0
159 181 0
164 186 0
164 187 0
168 191 0
152 175 0
157 180 0
163 186 0
157 180 0
156 179 0
155 178 0
158 181 0
163 187 0
160 183 0
160 183 0
155 177 0
154 177 31
141 164 54
146 168 57
118 143 92
108 133 94
78 108 115
73 104 115
59 93 131
59 93 131
58 93 122
59 94 130
59 93 131
60 95 131
60 95 141
59 94 124
58 92 129
60 95 144
57 92 128
61 97 147
58 93 131
60 94 134
61 96 139
60 96 145
58 93 126
61 96 151
61 96 148
59 94 152
59 93 133
60 95 142
60 95 144
61 97 156
60 95 149
62 97 156
60 96 152
61 96 153
62 98 161
61 97 155
61 96 151
61 96 152
61 97 155
60 96 148
61 96 159
62 97 154
61 97 157
61 97 154
61 97 160
61 97 153
61 97 155
60 95 149
62 98 158
61 96 153
61 97 150
61 96 151
60 95 142
67 100 142
59 94 143
63 99 152
61 96 144
61 96 140
64 97 128
63 98 148
65 98 136
59 94 134
59 94 139
60 95 136
62 96 129
60 95 143
60 95 136
60 94 131
60 94 122
64 97 140
60 95 137
58 93 129
59 94 133
60 95 144
60 94 139
59 94 135
60 95 137
61 96 134
59 94 134
60 95 129
59 94 134
60 95 137
61 96 140
60 95 137
60 95 140
60 95 137
61 96 149
60 95 139
60 95 135
60 95 142
60 95 142
60 95 141
61 96 145
61 96 137
60 94 139
59 94 136
61 96 143
60 96 148
60 95 137
59 93 130
60 95 129
60 95 141
59 93 126
60 95 137
60 95 139
60 95 139
60 95 135
60 95 136
60 96 139
61 96 142
60 95 141
59 93 129
60 95 137
61 96 147
61 97 147
59 94 124
60 94 131
59 94 135
60 95 141
60 94 137
59 94 134
60 96 142
61 96 141
59 94 136
60 94 131
60 95 143
60 95 139
61 96 141
60 95 139
59 93 128
60 94 130
61 96 140
59 94 125
61 96 141
61 96 137
62 97 141
59 94 128
61 95 135
60 94 130
60 94 136
60 95 137
59 94 133
59 94 128
57 91 110
60 95 135
60 95 140
60 95 137
59 94 131
59 93 135
59 93 125
60 94 126
61 96 140
59 93 129
59 93 134
59 94 122
58 92 125
59 93 125
60 94 133
58 91 111
59 94 126
59 93 125
58 92 122
58 92 128
57 91 108
58 92 121
57 90 117
57 90 113
57 90 111
57 89 117
83 107 103
115 131 57
114 128 18
109 120 0
122 137 0
134 149 0
123 135 0
108 119 0
118 130 0
115 129 0
121 135 0
121 135 0
118 130 0
121 134 0
117 131 0
121 133 0
134 146 0
138 151 0
127 139 0
122 133 0
115 126 0
108 120 0
120 130 0
131 144 0
127 142 0
131 141 0
119 132 0
130 139 0
130 143 0
127 140 0
134 146 0
124 138 0
134 143 0
135 149 0
124 136 0
137 149 0
118 131 0
133 144 0
127 137 0
124 137 0
131 142 0
127 139 0
137 150 0
138 151 0
129 141 0
133 146 0
121 131 0
131 144 0
126 139 0
127 138 0
129 139 0
128 139 0
138 149 0
128 139 0
136 146 0
138 152 0
138 148 0
128 138 0
137 147 0
132 140 0
137 145 0
133 143 0
142 153 0
138 149 0
130 140 0
142 153 0
141 151 0
138 149 0
146 157 0
146 158 0
141 150 0
143 152 0
148 159 0
141 152 0
145 156 0
139 149 0
144 157 0
138 147 0
139 151 0
145 155 0
151 164 0
144 156 0
144 156 0
146 156 0
143 154 0
149 162 0
141 151 0
145 159 0
149 161 0
142 154 0
144 158 0
149 163 0
146 154 0
149 161 0
147 160 0
153 164 0
148 161 0
159 174 0
151 165 0
147 160 0
155 169 0
156 171 0
148 159 0
154 168 0
147 159 0
156 171 0
152 164 0
155 167 0
153 168 0
156 170 0
161 176 0
165 182 0
155 171 0
156 169 0
156 171 0
163 178 0
157 171 0
157 172 0
156 170 0
156 172 0
152 167 0
164 181 0
158 172 0
164 181 0
163 179 0
162 182 0
158 174 0
160 176 0
160 175 0
159 176 0
158 176 0
161 176 0
160 175 0
166 184 0
160 177 0
162 178 0
163 182 0
167 188 0
164 182 0
164 181 0
162 179 0
158 175 0
160 176 0
163 179 0
165 184 0
162 179 0
165 184 0
163 183 0
167 186 0
166 186 0
164 181 0
169 189 0
169 189 0
170 193 0
173 196 0
173 196 0
172 196 0
170 193 0
172 194 0
173 196 0
173 195 0
170 194 0
169 193 0
169 193 0
169 193 0
169 192 0
172 196 0
171 195 0
172 196 0
170 195 0
166 190 0
171 194 0
167 191 0
168 192 0
168 191 0
168 192 0
166 191 0
170 194 0
165 189 0
171 194 0
171 194 0
164 188 0
166 190 0
166 189 0
167 189 0
167 190 0
167 191 0
168 191 0
164 188 0
166 189 0
169 192 0
167 189 0
166 190 0
168 191 0
162 185 0
165 189 0
162 186 0
164 186 0
163 186 0
162 185 0
168 191 0
162 185 0
162 186 0
163 186 0
163 187 0
165 188 0
166 189 0
162 185 0
160 184 0
166 188 0
161 184 0
166 189 0
159 181 0
160 184 0
164 186 0
165 188 0
161 184 0
157 180 0
156 180 0
163 185 0
149 174 0
157 180 0
157 180 0
156 180 0
151 174 0
163 185 0
158 180 0
157 179 0
160 182 0
153 175 0
155 178 0
151 173 44
138 160 60
128 151 60
123 146 76
94 121 110
75 105 125
57 90 117
57 91 121
58 92 126
59 93 115
60 94 133
57 91 108
58 93 128
59 93 129
61 96 143
59 94 144
60 95 137
56 90 126
59 94 130
59 94 130
59 93 128
60 95 141
59 93 140
60 95 147
59 94 143
61 96 147
61 96 148
61 97 151
60 95 145
61 96 150
61 96 147
60 96 143
61 96 148
61 96 151
60 95 144
61 96 153
61 97 153
60 96 151
61 97 154
61 96 152
61 97 152
61 97 150
62 98 157
61 97 157
60 96 153
61 97 152
61 97 157
60 96 152
61 97 151
63 98 152
60 96 140
60 95 142
61 96 148
63 98 147
64 98 137
63 97 139
60 95 136
68 100 128
63 97 137
72 104 137
62 97 139
63 96 140
62 96 135
65 98 135
67 100 121
65 98 133
61 96 141
61 95 136
60 95 140
60 95 141
61 95 140
60 95 135
59 94 140
63 97 148
59 94 134
60 95 142
60 95 140
59 94 134
59 94 131
60 95 147
60 95 133
61 96 149
60 95 135
59 94 126
60 95 141
59 93 130
60 96 139
60 95 136
59 93 129
61 96 143
60 95 133
61 96 143
60 95 141
59 94 135
61 96 143
59 94 135
60 94 135
60 94 133
60 95 137
61 95 137
61 96 147
62 97 152
61 96 150
60 95 137
60 96 143
60 94 131
61 96 142
61 96 149
60 94 131
61 96 139
61 95 144
60 95 135
61 96 141
60 94 134
60 95 133
60 94 137
60 94 133
61 96 145
60 95 131
62 97 147
59 93 133
60 94 130
60 95 140
59 93 120
59 94 124
60 94 134
60 95 143
61 95 135
61 96 140
60 94 137
62 97 144
59 94 121
61 95 133
60 94 134
60 95 139
60 94 133
61 96 144
61 96 143
60 95 131
58 92 108
59 93 121
61 96 143
60 95 134
59 94 131
60 95 134
60 95 134
60 94 137
60 95 137
60 95 131
59 93 125
59 94 133
59 94 129
60 94 125
58 92 126
59 93 133
58 92 115
59 93 124
59 93 130
59 92 122
58 93 121
58 92 131
59 93 118
57 89 115
57 90 108
58 92 118
57 90 110
57 89 107
55 87 105
65 92 97
99 116 67
121 136 25
110 123 0
121 135 0
122 135 0
117 130 0
114 126 0
128 140 0
117 127 0
114 129 0
115 127 0
128 144 0
121 134 0
121 136 0
130 145 0
117 128 0
115 124 0
122 133 0
130 142 0
109 121 0
128 141 0
127 139 0
133 145 0
128 139 0
124 135 0
126 140 0
126 140 0
126 140 0
124 137 0
130 142 0
128 139 0
126 138 0
126 136 0
121 132 0
133 145 0
132 143 0
136 149 0
126 135 0
131 143 0
133 145 0
138 150 0
126 139 0
129 140 0
136 149 0
137 147 0
141 155 0
126 137 0
135 146 0
132 145 0
137 146 0
135 147 0
134 145 0
133 143 0
141 153 0
129 139 0
127 138 0
144 158 0
136 148 0
139 151 0
139 151 0
145 157 0
136 146 0
136 142 0
139 152 0
141 153 0
140 149 0
132 143 0
138 149 0
142 153 0
141 149 0
141 153 0
140 151 0
143 155 0
140 150 0
145 154 0
141 153 0
133 145 0
148 161 0
143 154 0
144 154 0
147 159 0
151 162 0
146 156 0
149 161 0
153 166 0
149 159 0
153 164 0
143 155 0
147 158 0
145 155 0
153 168 0
145 155 0
145 156 0
156 170 0
150 163 0
155 167 0
145 154 0
152 165 0
145 156 0
155 168 0
149 163 0
149 161 0
154 168 0
154 165 0
147 160 0
156 170 0
158 173 0
156 169 0
156 173 0
152 164 0
155 167 0
155 168 0
161 174 0
160 176 0
156 170 0
156 173 0
160 177 0
156 173 0
159 175 0
158 174 0
160 176 0
154 167 0
160 176 0
160 177 0
159 177 0
163 179 0
163 180 0
157 175 0
163 182 0
157 173 0
163 182 0
168 183 0
162 179 0
165 183 0
159 177 0
164 181 0
160 176 0
165 180 0
164 182 0
162 179 0
162 179 0
165 182 0
160 177 0
163 182 0
164 182 0
161 180 0
160 178 0
162 181 0
164 182 0
163 182 0
167 185 0
166 186 0
165 183 0
173 196 0
171 194 0
173 197 0
174 196 0
169 193 0
169 192 0
174 197 0
171 195 0
171 195 0
169 193 0
169 193 0
167 190 0
169 192 0
167 190 0
171 195 0
170 193 0
166 189 0
171 194 0
169 192 0
171 194 0
167 190 0
168 192 0
167 190 0
171 194 0
168 191 0
170 194 0
168 192 0
167 191 0
167 191 0
168 191 0
168 191 0
169 193 0
173 196 0
167 191 0
167 190 0
165 189 0
170 193 0
162 186 0
168 191 0
165 188 0
168 191 0
159 182 0
162 185 0
170 193 0
166 189 0
163 187 0
166 189 0
162 185 0
163 187 0
166 189 0
161 184 0
165 188 0
166 190 0
168 191 0
164 187 0
163 186 0
166 189 0
166 189 0
161 184 0
163 186 0
165 188 0
161 185 0
158 182 0
163 187 0
161 184 0
159 183 0
159 183 0
168 191 0
151 174 0
162 184 0
157 180 0
160 182 0
151 173 0
153 175 0
158 180 0
159 181 0
152 175 0
159 182 0
152 174 0
145 167 36
139 162 44
120 144 80
107 132 92
90 116 105
75 104 114
57 91 113
58 92 124
58 92 120
59 94 124
59 93 130
58 93 131
58 93 128
60 95 136
59 93 129
60 94 137
60 95 137
59 94 141
59 93 136
60 95 147
60 95 147
59 94 140
60 95 135
59 94 133
60 95 143
60 95 140
60 94 140
60 95 147
60 95 147
60 96 153
61 97 156
61 97 156
61 97 156
61 96 150
60 95 151
61 96 153
61 97 149
61 96 147
61 97 161
62 97 154
61 97 149
61 97 155
62 98 156
61 96 148
61 97 154
61 96 151
61 96 147
61 97 154
62 97 156
61 96 154
61 96 148
61 96 148
62 97 139
66 99 137
63 98 144
62 96 139
66 99 134
65 98 140
66 98 126
61 95 134
60 95 143
62 96 141
60 95 137
65 98 128
63 96 133
59 93 129
62 96 135
61 96 141
60 95 129
62 95 128
61 95 137
64 97 126
59 94 128
60 94 137
58 93 131
61 96 137
60 96 137
61 96 148
60 95 140
58 92 128
60 95 140
60 95 130
58 92 131
61 96 137
59 94 134
60 95 137
59 93 131
61 96 142
59 93 133
59 94 131
60 95 142
58 93 130
60 95 131
60 95 136
59 95 141
60 95 137
60 95 137
60 95 142
61 96 148
60 94 134
59 94 139
60 95 144
60 95 136
59 93 128
61 97 144
61 95 141
61 96 141
59 94 130
60 95 142
59 94 130
60 96 135
60 95 136
59 93 124
59 93 133
60 95 136
60 95 140
59 94 134
61 96 142
60 94 130
60 94 126
60 95 135
59 93 130
60 95 133
60 95 137
59 93 126
60 95 139
60 94 128
60 94 133
59 93 130
60 94 135
60 95 141
60 95 131
60 95 139
59 94 126
60 95 136
60 95 134
60 94 135
59 94 130
60 94 134
59 94 136
59 93 128
58 93 129
61 95 133
60 95 130
59 94 125
58 92 118
57 91 121
59 94 125
60 95 134
61 96 133
59 94 129
59 93 129
60 94 126
59 93 126
59 93 129
59 94 135
58 91 125
58 92 124
59 93 131
58 92 113
57 90 117
57 90 117
57 90 110
57 90 111
57 90 121
56 88 116
54 85 86
89 108 65
114 126 25
126 140 18
118 132 0
129 142 0
110 125 0
118 132 0
120 134 0
118 131 0
117 131 0
114 128 0
114 129 0
117 129 0
121 134 0
137 152 0
112 123 0
132 146 0
115 126 0
123 136 0
117 131 0
125 140 0
123 135 0
124 137 0
132 145 0
128 141 0
127 138 0
133 145 0
141 156 0
119 130 0
124 137 0
125 136 0
133 144 0
123 133 0
131 145 0
135 148 0
132 146 0
130 142 0
128 139 0
128 140 0
128 141 0
119 128 0
129 141 0
120 131 0
131 142 0
137 147 0
138 149 0
138 149 0
129 140 0
140 150 0
128 142 0
138 151 0
132 143 0
140 151 0
132 143 0
129 138 0
134 143 0
131 141 0
137 148 0
137 150 0
137 147 0
139 152 0
141 153 0
144 157 0
135 145 0
137 149 0
140 153 0
136 148 0
138 149 0
141 154 0
145 156 0
134 145 0
136 143 0
145 157 0
140 153 0
149 165 0
143 156 0
144 158 0
143 154 0
148 161 0
138 149 0
142 153 0
152 166 0
144 156 0
144 156 0
141 153 0
145 155 0
150 163 0
139 151 0
148 158 0
149 162 0
140 152 0
144 158 0
146 160 0
148 159 0
154 167 0
146 159 0
153 166 0
152 161 0
149 163 0
157 168 0
156 170 0
152 164 0
152 166 0
146 159 0
148 161 0
154 168 0
153 166 0
153 166 0
154 168 0
156 170 0
159 173 0
158 174 0
156 171 0
162 178 0
157 173 0
156 173 0
151 166 0
157 174 0
158 173 0
156 171 0
158 173 0
156 170 0
158 170 0
156 172 0
161 176 0
160 174 0
163 177 0
162 177 0
157 172 0
165 183 0
158 175 0
163 180 0
159 177 0
155 171 0
164 182 0
158 174 0
163 180 0
162 179 0
158 176 0
169 188 0
165 183 0
159 177 0
161 175 0
162 178 0
162 178 0
164 182 0
163 182 0
163 182 0
169 187 0
163 180 0
165 182 0
164 183 0
163 182 0
161 181 0
170 194 0
173 197 0
170 193 0
170 193 0
169 191 0
171 195 0
170 194 0
170 193 0
167 190 0
170 193 0
169 193 0
173 195 0
169 192 0
171 195 0
171 194 0
168 191 0
166 190 0
166 190 0
167 191 0
167 191 0
171 195 0
168 191 0
168 190 0
166 189 0
163 187 0
169 192 0
164 189 0
168 192 0
170 193 0
167 190 0
168 191 0
169 192 0
171 195 0
164 187 0
170 194 0
167 191 0
165 189 0
164 187 0
166 190 0
162 185 0
167 191 0
165 189 0
169 192 0
162 185 0
170 194 0
169 193 0
160 183 0
162 185 0
163 187 0
158 181 0
157 180 0
163 187 0
163 187 0
164 186 0
161 184 0
160 183 0
164 187 0
163 186 0
162 186 0
159 182 0
160 184 0
158 181 0
159 182 0
163 186 0
158 181 0
159 181 0
160 182 0
154 177 0
164 187 0
162 185 0
162 185 0
159 182 0
162 185 0
149 172 0
163 186 0
156 179 0
159 181 0
152 174 0
148 170 18
155 177 0
136 159 54
141 164 74
117 141 76
100 125 88
73 102 92
59 92 111
58 92 124
58 92 114
58 92 118
57 92 120
57 92 120
60 94 135
58 93 124
58 92 125
57 92 133
59 93 128
59 94 128
59 93 133
59 93 135
60 95 136
59 94 134
59 94 135
59 95 141
60 94 139
60 95 144
60 95 147
60 95 139
60 95 145
61 96 148
60 96 152
60 96 148
60 95 148
60 96 150
61 97 155
60 95 142
60 96 151
61 96 152
61 97 149
61 96 148
62 98 161
61 96 152
61 97 154
61 97 157
60 96 148
61 97 149
60 96 148
61 96 144
63 98 151
62 97 142
61 97 148
60 96 149
61 97 150
60 96 144
63 98 150
63 98 136
61 96 140
65 99 141
61 95 130
61 95 135
70 102 142
61 95 120
59 93 133
65 99 141
63 97 147
62 97 142
67 100 139
60 95 137
61 95 129
60 95 141
60 95 144
60 95 137
59 94 130
60 95 141
60 95 141
60 95 140
59 94 134
60 95 131
61 96 145
58 93 121
58 93 130
60 95 136
60 95 135
60 95 136
59 94 136
59 93 128
60 95 134
60 95 143
60 95 135
59 94 133
60 94 135
59 94 129
60 95 141
61 96 143
60 94 133
61 96 141
60 95 136
61 95 134
60 94 131
61 96 148
61 96 151
60 95 130
58 93 122
61 96 150
61 95 136
60 94 125
61 95 140
60 95 130
60 95 130
60 95 129
60 96 140
60 95 137
60 95 143
61 95 142
59 94 130
60 95 133
58 93 134
60 95 133
60 95 129
60 94 134
59 93 129
59 93 134
60 94 142
58 91 125
61 95 131
61 96 136
61 95 140
60 95 136
59 93 134
61 96 141
59 94 133
59 94 126
60 95 137
59 94 128
60 94 131
58 93 121
60 95 141
61 95 139
61 96 143
58 92 121
60 94 126
61 96 140
58 92 118
60 94 131
60 95 136
60 95 136
59 93 121
60 95 133
60 95 130
60 94 131
58 91 111
58 92 122
59 93 130
59 93 129
57 91 114
57 91 120
58 92 117
59 93 125
56 88 114
60 94 129
58 91 122
57 90 118
56 88 111
57 89 117
58 92 122
57 90 114
80 101 86
104 121 51
117 129 18
118 131 0
123 137 0
118 131 0
115 128 0
117 131 0
120 132 0
121 134 0
123 137 0
120 132 0
126 138 0
120 135 0
120 132 0
123 134 0
120 134 0
113 125 0
118 133 0
126 139 0
117 130 0
121 135 0
134 148 0
133 148 0
134 148 0
134 148 0
125 136 0
137 151 0
126 141 0
134 147 0
124 141 0
128 141 0
125 135 0
123 136 0
135 149 0
122 134 0
129 140 0
132 147 0
132 144 0
134 145 0
132 142 0
136 148 0
130 143 0
135 147 0
127 137 0
125 139 0
132 145 0
132 145 0
130 137 0
144 159 0
137 146 0
137 152 0
135 146 0
133 147 0
135 147 0
129 141 0
134 143 0
137 149 0
134 144 0
143 156 0
135 148 0
140 155 0
134 145 0
142 156 0
138 149 0
133 147 0
137 149 0
147 162 0
139 152 0
135 145 0
137 149 0
140 153 0
146 160 0
146 160 0
143 157 0
145 153 0
139 151 0
142 155 0
133 145 0
145 158 0
145 158 0
149 161 0
154 167 0
147 159 0
147 159 0
149 165 0
148 161 0
145 158 0
148 161 0
148 159 0
150 163 0
152 165 0
148 159 0
148 161 0
149 163 0
148 159 0
156 170 0
150 161 0
146 158 0
150 163 0
152 166 0
152 166 0
157 170 0
151 164 0
150 162 0
147 162 0
150 164 0
154 169 0
148 160 0
155 169 0
152 167 0
155 170 0
159 174 0
158 173 0
157 171 0
157 174 0
153 169 0
151 166 0
157 173 0
162 177 0
160 173 0
163 181 0
161 176 0
158 173 0
160 176 0
161 178 0
163 180 0
167 187 0
164 182 0
166 185 0
156 174 0
156 172 0
160 177 0
159 177 0
163 180 0
161 179 0
162 179 0
157 173 0
160 177 0
165 184 0
166 183 0
160 175 0
164 182 0
164 182 0
156 175 0
161 178 0
161 178 0
166 185 0
162 178 0
166 185 0
166 183 0
163 181 0
161 180 0
163 182 0
163 183 0
169 192 0
170 193 0
171 194 0
171 194 0
173 196 0
171 194 0
171 194 0
171 195 0
171 195 0
171 194 0
172 195 0
168 191 0
171 194 0
170 194 0
172 195 0
170 192 0
167 190 0
168 192 0
168 192 0
169 192 0
169 192 0
165 189 0
170 193 0
171 194 0
169 191 0
166 189 0
171 194 0
169 192 0
172 196 0
172 195 0
169 192 0
166 190 0
165 189 0
166 190 0
168 191 0
166 190 0
171 194 0
164 187 0
165 188 0
164 187 0
168 191 0
159 183 0
168 192 0
165 189 0
166 189 0
162 187 0
168 191 0
166 189 0
162 185 0
161 185 0
164 187 0
162 184 0
161 184 0
156 180 0
163 186 0
164 187 0
165 187 0
154 177 0
162 185 0
159 182 0
164 187 0
163 186 0
162 186 0
164 187 0
157 179 0
152 174 0
155 178 0
164 188 0
162 185 0
154 177 0
155 177 0
160 183 0
155 176 0
157 179 0
153 175 0
164 187 0
158 181 0
160 182 0
148 170 0
158 181 18
152 176 31
144 166 36
137 160 72
104 128 95
92 118 111
73 102 108
58 92 115
58 92 114
60 94 125
59 94 126
58 92 113
59 92 120
59 94 128
59 93 125
59 94 129
58 92 126
59 94 134
59 93 129
61 95 137
57 91 128
58 92 133
59 94 136
58 93 136
59 94 139
60 95 136
61 96 143
60 95 147
60 95 144
60 96 142
59 94 129
61 96 149
62 97 156
61 96 151
62 97 152
61 97 154
61 97 155
60 95 152
61 97 151
60 96 148
60 96 147
62 98 158
61 97 157
62 97 152
62 97 151
61 97 155
61 97 150
60 95 148
61 97 154
60 95 151
64 98 151
60 96 144
60 95 143
60 96 148
66 100 149
63 97 143
60 95 147
62 96 137
64 98 135
61 95 134
64 97 128
59 94 141
65 99 141
65 98 137
61 95 126
61 95 126
62 97 140
62 96 140
60 95 131
61 94 125
62 96 125
61 95 130
60 95 130
59 93 131
58 93 130
60 94 141
59 94 129
60 95 140
59 94 137
60 94 134
60 94 137
59 93 130
60 95 135
59 93 134
62 97 145
61 96 141
59 93 120
59 93 122
60 94 136
60 95 140
60 94 129
60 94 128
61 96 142
59 94 139
58 93 125
59 94 131
60 95 131
60 95 135
59 94 135
60 95 142
61 96 142
59 94 135
60 94 131
60 95 140
60 95 137
61 96 145
58 93 130
60 95 140
59 94 134
59 94 129
60 95 137
58 92 120
59 94 129
59 93 135
61 96 142
61 96 142
60 95 137
60 94 129
60 94 125
60 94 135
60 95 133
59 94 140
60 96 141
59 93 128
60 95 136
60 95 130
60 94 129
60 94 134
60 94 135
58 92 118
59 93 121
60 95 142
60 95 141
61 95 134
60 94 134
60 94 124
57 91 117
59 92 128
59 93 130
59 92 122
60 94 125
60 94 134
60 94 135
59 94 129
58 92 122
58 92 125
58 92 122
59 93 124
59 93 126
60 94 134
59 93 126
59 93 121
58 92 125
58 92 121
58 92 126
58 93 111
58 92 120
57 91 107
58 92 118
57 90 108
58 92 111
58 91 120
57 90 117
56 88 105
58 90 115
93 116 88
88 106 60
106 118 18
125 139 0
105 119 0
125 139 0
116 129 0
116 128 0
121 135 0
123 136 0
126 140 0
128 143 0
131 144 0
125 140 0
115 127 0
123 138 0
131 147 0
117 132 0
126 139 0
126 142 0
119 132 0
128 143 0
123 137 0
121 133 0
123 137 0
119 131 0
136 151 0
126 139 0
123 135 0
130 143 0
140 155 0
131 145 0
127 139 0
138 151 0
135 146 0
135 151 0
144 159 0
116 130 0
138 150 0
131 145 0
136 150 0
131 146 0
129 142 0
127 142 0
130 142 0
130 144 0
133 145 0
124 135 0
140 152 0
136 150 0
134 146 0
136 148 0
139 152 0
134 147 0
137 150 0
131 143 0
137 147 0
139 152 0
129 139 0
134 146 0
146 162 0
132 143 0
144 157 0
146 157 0
144 158 0
138 151 0
135 146 0
141 152 0
149 164 0
141 151 0
146 159 0
141 152 0
144 159 0
141 153 0
133 142 0
143 156 0
145 159 0
143 155 0
140 152 0
140 153 0
143 155 0
139 150 0
152 163 0
145 157 0
146 161 0
148 161 0
147 159 0
145 155 0
142 153 0
152 165 0
154 169 0
150 160 0
143 154 0
158 173 0
154 165 0
145 160 0
152 165 0
155 168 0
148 163 0
155 170 0
153 165 0
153 167 0
157 172 0
153 168 0
151 166 0
156 170 0
150 164 0
151 167 0
154 166 0
162 175 0
153 168 0
154 169 0
158 173 0
151 166 0
155 170 0
157 171 0
157 169 0
156 170 0
160 174 0
156 171 0
153 168 0
156 173 0
155 172 0
160 177 0
162 181 0
165 182 0
167 185 0
159 176 0
164 182 0
164 181 0
164 179 0
161 176 0
161 177 0
158 176 0
161 178 0
162 180 0
158 176 0
168 188 0
161 180 0
160 180 0
161 178 0
161 180 0
164 182 0
163 181 0
162 180 0
164 184 0
164 183 0
167 184 0
164 183 0
166 183 0
164 182 0
165 184 0
165 184 0
169 190 0
167 187 0
161 180 0
171 194 0
171 194 0
171 194 0
171 194 0
171 194 0
170 193 0
170 193 0
169 193 0
170 194 0
170 193 0
172 195 0
165 189 0
167 191 0
168 191 0
171 195 0
173 196 0
166 189 0
170 195 0
171 193 0
170 194 0
169 192 0
169 192 0
173 196 0
168 192 0
166 189 0
167 191 0
170 193 0
161 185 0
161 184 0
165 189 0
169 192 0
168 193 0
172 195 0
162 186 0
164 186 0
169 193 0
165 188 0
166 190 0
162 186 0
164 187 0
163 187 0
162 184 0
163 186 0
162 185 0
164 188 0
163 187 0
165 188 0
165 188 0
161 184 0
165 187 0
163 186 0
166 189 0
164 187 0
161 184 0
168 192 0
164 187 0
157 179 0
158 182 0
159 182 0
162 185 0
163 186 0
157 180 0
163 186 0
162 186 0
159 182 0
165 188 0
152 174 0
159 182 0
160 182 0
161 183 0
156 179 0
157 180 0
155 178 0
160 182 0
161 184 0
151 173 0
149 172 0
159 181 0
157 180 0
151 173 0
151 174 0
144 167 36
137 160 47
125 147 70
99 125 94
85 113 99
68 99 108
59 93 124
59 93 126
58 93 129
57 90 108
59 93 120
60 94 133
58 92 115
57 91 115
59 94 135
58 93 131
59 94 130
59 94 130
60 95 139
60 94 133
59 94 137
58 93 131
59 94 130
59 93 133
60 95 147
59 94 137
59 93 126
60 95 136
60 95 144
60 95 143
59 94 141
62 98 158
61 97 152
61 97 154
61 97 155
60 96 151
60 96 149
61 96 155
61 97 151
62 97 159
61 97 155
61 96 154
61 96 151
61 97 151
61 97 150
61 97 156
62 98 155
62 97 150
59 95 140
63 96 149
62 96 139
60 95 147
62 97 141
62 97 137
64 98 140
62 96 124
62 96 143
60 94 129
64 98 140
63 97 147
67 98 114
62 97 137
64 97 131
62 95 129
64 97 131
58 93 129
61 95 122
60 95 137
60 95 144
59 93 125
62 96 137
61 95 134
61 96 147
59 94 131
60 95 135
58 92 128
61 96 144
59 94 130
59 94 134
60 95 134
60 94 135
60 94 131
59 93 131
59 94 140
60 95 130
58 93 134
59 94 135
61 96 144
59 95 134
60 95 141
58 92 131
61 96 142
60 95 139
61 96 142
58 92 135
58 92 126
58 93 121
60 94 134
61 96 142
60 95 141
60 95 135
58 93 129
60 95 129
60 95 128
61 96 141
60 95 133
61 95 140
61 96 136
60 95 131
60 94 130
58 92 126
60 95 137
59 93 131
60 96 137
60 95 129
60 95 139
58 93 128
61 95 140
60 95 136
60 95 128
60 95 135
61 95 142
59 94 131
60 94 133
60 95 133
60 94 137
60 94 135
58 92 136
60 94 130
60 95 134
60 94 131
60 95 129
60 94 137
60 94 128
62 97 143
60 94 125
58 92 117
58 92 117
60 94 133
59 93 129
59 94 130
60 95 135
59 93 125
59 93 126
58 91 113
59 93 128
60 94 128
58 92 124
58 91 113
59 93 117
57 91 117
58 92 129
60 94 125
58 91 128
60 94 130
57 90 120
58 92 118
56 89 117
57 91 114
56 89 110
56 88 101
58 92 103
69 93 88
94 114 72
112 127 31
120 133 0
111 124 0
120 135 0
115 128 0
108 118 0
119 132 0
121 136 0
124 139 0
125 139 0
120 132 0
132 145 0
120 133 0
115 130 0
136 151 0
129 142 0
127 143 0
122 136 0
121 134 0
130 143 0
129 142 0
127 140 0
128 141 0
121 134 0
129 142 0
120 135 0
134 149 0
135 150 0
135 149 0
130 145 0
128 142 0
124 138 0
133 147 0
120 133 0
134 148 0
133 146 0
131 146 0
137 150 0
128 141 0
130 144 0
138 152 0
139 155 0
147 162 0
138 152 0
138 151 0
144 156 0
135 146 0
140 155 0
134 146 0
132 143 0
135 149 0
135 149 0
137 148 0
142 157 0
142 153 0
138 153 0
143 157 0
130 142 0
138 149 0
134 148 0
142 152 0
136 150 0
134 146 0
138 149 0
143 155 0
143 156 0
145 159 0
139 150 0
145 156 0
140 152 0
144 156 0
144 156 0
145 158 0
147 161 0
140 151 0
147 161 0
146 159 0
145 157 0
144 154 0
149 162 0
146 160 0
147 160 0
157 171 0
143 156 0
144 156 0
149 163 0
150 163 0
154 169 0
151 165 0
153 166 0
144 159 0
150 165 0
146 158 0
158 170 0
155 166 0
155 168 0
150 169 0
156 172 0
154 169 0
153 167 0
152 167 0
151 165 0
157 171 0
147 163 0
153 167 0
153 167 0
153 167 0
157 173 0
151 168 0
148 161 0
149 165 0
155 169 0
155 171 0
150 164 0
158 174 0
155 167 0
156 172 0
160 177 0
156 173 0
161 176 0
161 178 0
161 178 0
162 179 0
155 168 0
160 178 0
164 180 0
158 175 0
162 178 0
167 185 0
162 180 0
159 176 0
159 176 0
159 175 0
160 178 0
163 181 0
164 181 0
160 180 0
164 181 0
160 178 0
161 180 0
162 180 0
159 178 0
160 178 0
161 180 0
160 177 0
166 185 0
167 187 0
162 180 0
163 182 0
167 187 0
160 179 0
164 183 0
164 184 0
161 179 0
165 186 0
172 196 0
171 195 0
169 193 0
174 197 0
171 195 0
171 195 0
168 192 0
171 194 0
168 192 0
170 194 0
170 194 0
168 191 0
171 195 0
169 193 0
170 193 0
164 187 0
168 192 0
167 190 0
167 190 0
167 191 0
170 194 0
169 193 0
170 194 0
170 194 0
165 189 0
167 190 0
165 189 0
168 191 0
165 189 0
167 189 0
168 191 0
168 191 0
164 187 0
167 190 0
164 186 0
167 190 0
163 186 0
168 190 0
168 192 0
162 185 0
166 190 0
168 192 0
164 187 0
164 187 0
162 185 0
164 187 0
164 187 0
162 186 0
167 190 0
159 182 0
165 189 0
162 186 0
166 189 0
161 184 0
161 184 0
161 185 0
161 184 0
163 186 0
165 189 0
164 187 0
158 182 0
156 180 0
158 181 0
161 183 0
165 187 0
153 176 0
158 181 0
163 187 0
155 178 0
158 181 0
153 175 0
161 183 0
154 177 0
151 174 0
147 169 0
152 176 0
153 176 0
152 174 0
145 169 0
150 173 0
153 175 0
149 172 25
137 159 44
131 153 60
115 139 100
100 125 90
81 110 113
57 90 105
57 90 114
58 92 129
59 93 121
59 94 125
58 92 126
58 92 124
60 95 130
60 95 130
59 94 139
58 93 130
59 93 131
59 93 131
61 96 141
60 95 133
57 91 120
60 95 141
59 94 136
59 94 141
60 95 142
58 92 130
58 93 128
60 95 142
58 93 128
61 97 151
59 94 134
59 95 140
61 96 147
62 97 149
60 96 147
60 96 149
61 97 152
59 94 137
61 97 150
61 96 153
60 96 141
62 97 156
61 97 151
61 97 153
61 96 150
61 97 151
60 95 147
66 98 147
61 97 152
61 97 152
61 97 147
60 95 135
66 99 133
73 104 124
67 99 133
64 98 139
63 96 129
64 98 137
63 96 124
65 98 140
63 96 128
59 93 128
66 99 133
65 98 126
59 93 125
61 95 130
61 94 121
61 96 135
59 93 125
63 97 134
60 95 131
58 91 125
60 94 131
61 96 140
58 93 121
58 93 133
60 95 131
59 94 137
60 95 139
60 95 137
59 94 128
59 93 133
60 94 128
60 95 136
59 94 139
59 94 134
58 93 130
59 94 137
60 95 131
60 95 139
59 94 125
60 94 136
60 94 128
60 95 135
59 93 122
60 94 134
62 97 151
60 94 139
59 93 129
61 95 133
61 96 144
59 94 133
60 94 133
60 95 143
60 94 129
60 94 139
60 94 139
60 95 133
61 96 139
61 96 144
61 96 140
60 95 134
59 94 131
60 95 139
59 94 133
60 95 139
61 96 143
59 94 136
58 93 115
59 93 122
60 95 140
61 96 141
60 95 129
59 94 130
60 94 129
60 94 125
60 95 134
58 92 122
58 92 131
56 89 117
59 93 126
60 95 131
59 94 130
59 94 134
58 93 121
58 92 115
60 95 126
59 94 128
58 92 126
59 94 130
57 91 115
60 94 130
58 92 120
59 93 126
60 94 128
59 93 121
60 94 131
59 93 120
59 94 128
57 91 115
57 91 117
57 91 120
59 93 121
57 91 110
59 93 125
59 92 130
57 90 108
56 88 115
54 87 105
57 90 129
62 91 105
98 115 51
106 120 31
117 130 0
110 125 0
117 131 0
119 133 0
112 126 0
127 142 0
120 134 0
111 127 0
118 131 0
125 139 0
115 129 0
121 135 0
131 147 0
133 149 0
118 131 0
121 132 0
118 133 0
128 143 0
124 139 0
147 163 0
133 147 0
122 134 0
135 149 0
138 154 0
119 132 0
128 143 0
136 148 0
133 145 0
127 142 0
129 144 0
135 148 0
127 141 0
126 140 0
134 146 0
122 136 0
134 148 0
129 145 0
130 145 0
132 146 0
136 149 0
125 139 0
140 155 0
133 146 0
135 147 0
140 154 0
135 149 0
134 149 0
143 158 0
133 145 0
148 161 0
131 145 0
143 156 0
141 155 0
131 143 0
137 150 0
136 152 0
143 158 0
134 145 0
135 148 0
138 152 0
149 164 0
140 153 0
137 147 0
150 166 0
134 146 0
140 154 0
139 153 0
144 158 0
141 154 0
141 156 0
142 153 0
150 165 0
150 162 0
151 168 0
147 160 0
141 153 0
149 163 0
146 159 0
149 163 0
144 154 0
150 163 0
151 161 0
145 155 0
144 158 0
151 165 0
142 157 0
153 167 0
146 158 0
159 176 0
155 170 0
148 161 0
144 157 0
147 162 0
152 168 0
152 165 0
157 172 0
153 165 0
150 163 0
150 160 0
153 167 0
155 169 0
149 161 0
159 174 0
155 168 0
149 164 0
157 173 0
155 173 0
157 174 0
155 168 0
156 171 0
150 166 0
161 177 0
157 172 0
160 176 0
159 175 0
155 171 0
157 171 0
158 173 0
157 172 0
160 178 0
157 172 0
152 165 0
162 180 0
161 180 0
163 179 0
160 175 0
157 172 0
163 179 0
161 180 0
159 175 0
156 173 0
157 172 0
159 176 0
163 179 0
163 180 0
163 177 0
161 181 0
160 176 0
161 178 0
166 184 0
166 185 0
158 173 0
160 177 0
160 180 0
164 183 0
161 181 0
164 182 0
163 181 0
166 185 0
164 182 0
162 180 0
165 185 0
165 184 0
168 187 0
167 187 0
173 195 0
167 192 0
170 193 0
167 192 0
171 195 0
170 193 0
167 191 0
172 195 0
169 192 0
171 195 0
173 196 0
169 193 0
170 193 0
170 193 0
169 193 0
169 193 0
170 193 0
170 194 0
167 191 0
169 194 0
169 193 0
168 190 0
169 193 0
168 191 0
169 192 0
161 186 0
169 192 0
171 194 0
166 190 0
166 190 0
165 188 0
165 188 0
163 186 0
163 188 0
162 184 0
163 187 0
166 189 0
171 194 0
169 192 0
162 186 0
163 186 0
166 189 0
166 189 0
166 189 0
169 192 0
168 192 0
161 184 0
161 184 0
165 187 0
163 185 0
160 182 0
157 180 0
167 190 0
163 185 0
159 182 0
163 186 0
157 180 0
163 186 0
163 186 0
158 181 0
160 184 0
152 175 0
163 185 0
158 181 0
158 181 0
154 176 0
157 180 0
160 182 0
156 179 0
158 181 0
155 177 0
144 166 0
152 174 0
154 176 0
157 179 0
153 176 0
148 170 0
158 180 0
150 173 0
147 169 0
158 181 0
154 176 0
147 169 36
135 159 51
130 154 62
120 144 76
86 113 108
73 103 121
58 91 120
58 92 121
60 94 124
58 91 117
56 89 107
58 92 126
59 94 133
59 94 130
59 93 130
60 95 140
58 92 125
59 94 135
60 94 133
60 94 129
58 92 131
59 94 134
59 94 139
57 91 131
60 95 141
59 94 137
59 94 134
59 94 129
61 96 148
60 96 142
60 96 144
60 95 142
61 96 143
60 96 141
61 95 145
60 96 155
61 97 151
61 97 157
60 95 136
62 98 156
61 97 152
61 97 147
60 95 150
61 97 155
61 97 152
61 97 153
61 97 152
62 97 146
61 96 149
65 98 150
61 97 149
60 95 140
61 96 148
63 97 136
63 97 142
58 92 124
61 95 129
62 96 124
58 93 130
64 97 125
60 93 120
68 101 143
63 96 131
61 94 110
63 97 128
66 99 128
67 100 134
58 93 126
69 102 131
64 96 131
59 93 125
60 95 140
63 97 142
61 96 144
60 95 136
60 95 129
59 94 131
61 96 148
59 94 134
60 95 133
59 94 125
61 96 145
59 94 128
58 93 128
60 95 130
59 94 135
60 94 134
61 96 136
60 94 130
59 94 129
58 93 126
60 94 136
58 92 117
60 95 142
58 92 126
61 95 144
61 96 142
60 94 134
58 93 129
58 93 118
60 95 137
60 95 137
58 93 129
59 93 126
59 94 130
60 95 136
60 96 145
59 93 125
60 94 133
58 93 121
58 93 126
60 95 129
60 95 131
58 92 126
61 96 145
57 92 122
60 95 137
58 92 129
62 97 142
59 94 129
59 94 133
61 95 137
59 93 122
59 93 125
60 94 131
59 94 126
60 94 134
60 95 125
57 90 113
58 92 120
58 92 121
60 95 136
60 95 137
60 94 137
60 95 133
59 93 121
60 95 133
59 93 128
59 93 124
59 93 124
58 92 128
59 92 125
58 92 131
59 92 126
60 94 118
59 93 131
59 93 120
57 91 120
58 91 118
58 92 120
59 93 118
59 92 125
60 94 125
57 90 117
57 90 111
57 89 115
58 91 122
56 88 107
54 86 99
58 87 103
82 101 54
91 105 36
120 134 0
110 125 0
112 125 0
118 132 0
119 135 0
108 121 0
123 136 0
126 140 0
124 138 0
117 130 0
117 133 0
113 126 0
126 141 0
118 131 0
115 129 0
134 148 0
123 138 0
127 140 0
131 145 0
126 140 0
121 136 0
122 137 0
125 138 0
120 133 0
133 148 0
122 137 0
126 140 0
123 137 0
134 150 0
139 153 0
136 151 0
130 143 0
131 144 0
134 146 0
136 150 0
126 141 0
135 150 0
148 160 0
133 147 0
131 142 0
136 150 0
129 144 0
134 148 0
136 151 0
139 152 0
142 155 0
136 149 0
136 151 0
131 143 0
141 157 0
146 161 0
139 156 0
131 143 0
132 143 0
131 142 0
134 146 0
132 146 0
132 145 0
135 149 0
138 150 0
136 149 0
135 148 0
140 153 0
138 150 0
136 150 0
147 161 0
141 153 0
144 155 0
147 160 0
153 169 0
146 156 0
152 166 0
142 153 0
149 166 0
149 164 0
148 162 0
142 155 0
144 155 0
144 155 0
152 166 0
152 163 0
145 160 0
149 163 0
146 161 0
147 160 0
144 159 0
149 163 0
150 165 0
145 156 0
148 164 0
147 159 0
147 160 0
156 170 0
150 166 0
149 161 0
154 168 0
153 168 0
156 170 0
155 169 0
156 174 0
148 163 0
151 167 0
156 172 0
149 164 0
157 171 0
157 173 0
156 169 0
154 168 0
154 168 0
153 166 0
155 171 0
155 170 0
155 171 0
161 177 0
156 171 0
148 160 0
154 171 0
160 179 0
157 172 0
154 171 0
155 170 0
158 175 0
161 178 0
156 173 0
158 174 0
157 175 0
159 175 0
159 176 0
159 177 0
158 176 0
161 178 0
159 177 0
156 172 0
164 181 0
163 179 0
163 181 0
161 178 0
158 176 0
165 182 0
163 183 0
160 177 0
165 183 0
164 183 0
163 183 0
166 184 0
166 184 0
165 184 0
166 184 0
163 181 0
167 185 0
164 183 0
169 188 0
162 181 0
162 182 0
168 188 0
164 184 0
171 194 0
167 192 0
169 192 0
170 194 0
173 197 0
167 191 0
169 193 0
167 190 0
166 191 0
170 193 0
166 190 0
167 191 0
169 194 0
170 193 0
170 193 0
168 191 0
170 193 0
171 194 0
165 189 0
163 187 0
169 192 0
173 196 0
168 190 0
170 193 0
168 191 0
169 192 0
168 192 0
165 189 0
169 192 0
170 194 0
164 187 0
167 191 0
165 188 0
173 197 0
168 192 0
165 189 0
166 190 0
168 190 0
166 190 0
161 184 0
167 190 0
162 186 0
161 184 0
157 180 0
163 186 0
163 186 0
165 189 0
164 188 0
166 189 0
165 188 0
163 185 0
165 187 0
160 183 0
155 179 0
162 186 0
163 186 0
157 180 0
159 181 0
158 181 0
161 184 0
159 182 0
158 181 0
156 180 0
153 176 0
157 180 0
161 185 0
161 183 0
156 179 0
157 180 0
157 180 0
160 183 0
154 176 0
152 175 0
155 177 0
156 179 0
150 173 0
155 177 0
156 179 0
152 174 0
156 179 0
151 174 0
143 165 0
159 181 0
143 165 36
131 153 60
126 149 80
100 125 92
86 113 97
65 96 103
58 91 117
58 92 113
59 93 120
60 94 129
58 93 115
60 95 133
59 93 129
59 94 133
57 90 120
59 93 130
59 93 128
60 95 135
59 93 131
59 94 131
59 94 130
60 95 141
59 94 136
58 93 130
59 94 136
59 94 131
59 94 139
59 94 143
60 95 144
60 96 147
61 96 150
60 95 142
60 96 141
60 95 151
61 96 145
61 97 156
60 95 147
61 97 152
61 96 151
61 96 152
61 97 149
61 96 154
60 95 145
60 95 145
61 96 145
62 97 151
61 96 144
61 95 144
61 95 139
59 94 140
60 94 139
63 98 144
66 99 134
69 101 129
61 96 136
62 96 121
59 94 133
63 97 140
59 93 120
58 92 118
60 93 122
64 97 124
67 98 121
60 94 121
61 95 128
60 95 142
57 91 118
59 93 128
59 93 130
59 93 126
59 93 130
60 95 135
60 96 139
62 97 135
60 94 133
60 95 128
61 96 136
59 94 131
60 95 131
59 93 130
59 94 134
59 94 128
59 93 130
59 94 144
59 94 130
59 93 124
60 94 134
60 95 136
60 94 126
59 94 131
59 94 122
60 94 131
59 93 133
59 94 136
59 94 134
60 95 135
61 96 142
59 94 133
59 93 133
59 93 133
60 94 133
60 95 133
60 95 128
59 94 133
59 94 128
59 93 124
60 95 137
60 94 126
58 93 133
60 94 135
59 94 126
60 95 133
59 94 130
60 94 140
60 94 130
60 94 134
59 93 121
60 94 125
59 93 128
59 94 128
59 94 121
59 94 134
59 93 131
60 95 135
59 94 134
60 94 133
58 92 120
59 94 126
59 94 125
59 93 124
59 93 124
60 95 135
59 93 125
58 91 110
59 93 128
59 94 129
59 94 125
59 93 124
60 95 136
58 92 124
59 92 124
59 93 125
59 93 125
59 93 118
57 90 105
58 91 121
58 91 115
59 93 121
59 93 124
57 91 113
55 88 107
57 90 110
56 89 112
57 90 110
56 88 110
57 89 107
57 90 114
60 92 110
91 112 78
111 127 54
108 123 18
105 119 0
121 132 0
106 118 0
122 137 0
125 141 0
107 119 0
113 128 0
119 133 0
112 125 0
121 135 0
118 134 0
114 129 0
123 137 0
121 136 0
116 128 0
120 133 0
124 138 0
130 144 0
124 139 0
134 149 0
124 139 0
123 137 0
128 143 0
135 152 0
129 142 0
126 141 0
130 144 0
127 140 0
128 142 0
130 145 0
127 143 0
124 138 0
136 152 0
139 153 0
134 146 0
132 147 0
135 150 0
139 154 0
132 145 0
126 139 0
139 154 0
140 155 0
128 143 0
135 149 0
134 147 0
137 150 0
130 143 0
127 140 0
124 137 0
134 149 0
134 149 0
131 146 0
142 157 0
143 158 0
137 151 0
134 147 0
141 156 0
142 156 0
137 150 0
147 163 0
134 149 0
140 153 0
142 156 0
144 158 0
147 159 0
132 145 0
139 152 0
143 158 0
144 158 0
142 153 0
141 155 0
150 166 0
148 159 0
148 161 0
141 153 0
148 163 0
144 159 0
143 155 0
152 167 0
149 165 0
149 163 0
141 154 0
144 158 0
152 167 0
141 152 0
152 168 0
153 168 0
149 162 0
150 163 0
147 159 0
154 166 0
155 171 0
148 162 0
150 166 0
154 168 0
155 170 0
150 166 0
158 175 0
154 170 0
145 161 0
151 165 0
158 175 0
159 176 0
153 171 0
155 169 0
155 168 0
151 167 0
156 173 0
156 169 0
159 176 0
154 166 0
164 178 0
156 172 0
157 174 0
156 173 0
157 173 0
162 179 0
157 174 0
160 177 0
158 176 0
160 175 0
151 167 0
157 174 0
160 177 0
161 177 0
158 173 0
158 175 0
160 177 0
162 180 0
165 183 0
156 173 0
158 176 0
160 177 0
164 182 0
164 182 0
157 174 0
160 178 0
170 189 0
162 179 0
166 185 0
160 182 0
163 181 0
160 180 0
162 181 0
162 181 0
167 185 0
166 185 0
165 183 0
162 180 0
165 181 0
169 190 0
157 175 0
166 185 0
162 179 0
164 184 0
165 184 0
169 192 0
170 193 0
170 193 0
170 195 0
170 194 0
171 194 0
168 191 0
168 191 0
165 188 0
172 195 0
173 196 0
169 193 0
168 192 0
167 190 0
173 197 0
168 193 0
168 191 0
171 195 0
169 192 0
170 193 0
165 189 0
169 193 0
169 194 0
170 194 0
169 192 0
165 187 0
167 191 0
167 191 0
169 192 0
167 191 0
165 189 0
163 186 0
166 190 0
163 186 0
167 190 0
169 193 0
161 185 0
168 192 0
167 190 0
166 190 0
166 189 0
168 191 0
159 183 0
164 188 0
156 179 0
161 185 0
164 187 0
168 191 0
164 189 0
161 184 0
158 181 0
161 184 0
156 179 0
164 186 0
155 179 0
159 183 0
151 175 0
160 184 0
165 188 0
162 185 0
158 180 0
157 181 0
155 179 0
164 188 0
160 183 0
156 178 0
155 178 0
156 179 0
157 179 0
159 182 0
151 174 0
155 178 0
148 171 0
157 180 0
154 176 0
147 170 0
152 174 0
158 181 0
157 179 0
152 176 0
146 168 0
145 167 0
146 169 0
147 169 18
138 160 40
128 152 67
121 144 70
93 118 92
77 106 105
60 94 114
57 91 115
59 93 122
59 93 128
58 92 110
57 91 113
59 93 117
57 91 120
58 93 125
58 92 118
58 92 120
59 93 122
58 92 122
59 94 125
58 92 121
60 94 129
60 94 133
60 94 128
59 94 134
59 93 129
58 93 133
60 95 139
59 93 140
60 95 143
61 96 143
60 94 141
61 96 151
60 95 147
60 95 141
61 96 141
60 95 136
60 96 140
61 96 151
61 96 152
61 96 151
61 96 145
61 96 148
64 98 147
61 97 148
60 95 141
65 98 153
63 97 148
65 98 149
67 99 140
63 97 140
59 94 140
65 98 135
59 93 135
67 100 134
70 102 124
62 96 139
67 101 140
59 94 137
59 93 139
63 96 122
64 97 124
67 98 121
58 92 118
60 94 131
59 93 131
61 94 117
61 96 134
59 93 117
58 93 124
58 92 125
59 94 121
59 94 121
60 95 141
60 95 137
60 95 140
60 94 134
60 94 130
59 94 131
59 94 133
61 95 140
58 92 122
59 93 124
61 96 139
59 94 131
61 95 133
61 96 140
59 93 128
58 91 125
61 96 143
59 94 134
61 95 141
58 92 122
61 95 137
58 92 125
59 94 134
60 94 128
60 94 131
59 93 128
59 93 125
59 94 130
61 96 135
61 96 139
59 94 125
59 93 126
59 94 130
60 95 133
60 95 137
59 93 125
59 94 126
59 93 131
59 93 122
58 93 120
60 94 133
59 94 129
60 95 131
59 93 125
60 94 130
60 94 134
59 94 131
58 92 114
60 95 125
58 92 128
60 94 137
58 91 121
58 92 122
59 94 134
60 95 131
58 92 117
60 94 130
57 91 108
58 92 122
58 91 114
58 91 120
59 93 111
60 94 129
59 93 126
59 93 129
58 91 118
59 93 118
58 91 118
58 91 122
58 92 115
58 92 115
58 92 118
58 92 111
59 93 125
57 91 103
59 92 124
56 88 111
56 89 110
57 91 118
55 88 114
55 87 105
58 92 118
58 91 114
55 88 103
83 105 74
98 114 62
112 125 0
114 128 0
124 138 0
107 121 0
121 136 0
119 135 0
125 140 0
118 132 0
119 133 0
118 132 0
114 127 0
112 127 0
124 138 0
125 140 0
121 137 0
138 153 0
130 144 0
116 130 0
134 148 0
122 137 0
117 132 0
129 143 0
117 131 0
135 149 0
132 145 0
137 152 0
127 142 0
130 147 0
122 138 0
139 153 0
132 147 0
133 148 0
126 141 0
129 145 0
129 143 0
131 146 0
136 152 0
141 157 0
144 160 0
136 149 0
137 150 0
141 155 0
141 156 0
136 152 0
135 149 0
133 148 0
137 152 0
136 152 0
138 155 0
132 147 0
137 151 0
142 157 0
136 147 0
132 146 0
140 153 0
145 160 0
133 148 0
143 159 0
146 160 0
142 155 0
139 150 0
144 157 0
145 160 0
146 160 0
141 155 0
148 163 0
140 155 0
146 161 0
147 160 0
145 158 0
145 158 0
148 162 0
141 154 0
134 145 0
142 154 0
135 151 0
143 157 0
143 157 0
142 155 0
152 163 0
150 164 0
146 159 0
149 164 0
147 163 0
148 162 0
138 151 0
145 157 0
156 171 0
149 163 0
145 158 0
152 167 0
152 170 0
156 173 0
142 159 0
148 165 0
152 167 0
153 168 0
152 167 0
145 158 0
157 174 0
152 168 0
152 168 0
151 164 0
146 161 0
156 174 0
153 170 0
156 172 0
156 171 0
161 178 0
155 169 0
153 168 0
152 168 0
158 171 0
163 181 0
154 170 0
157 174 0
157 175 0
152 169 0
160 175 0
156 171 0
153 169 0
157 174 0
157 172 0
161 178 0
160 176 0
158 175 0
157 173 0
159 175 0
156 174 0
163 180 0
160 177 0
160 179 0
165 184 0
152 168 0
164 181 0
161 177 0
161 179 0
154 176 0
157 176 0
166 186 0
158 176 0
163 181 0
163 180 0
158 174 0
163 182 0
164 186 0
162 181 0
166 185 0
166 186 0
164 182 0
165 184 0
160 178 0
169 187 0
167 185 0
169 189 0
168 189 0
166 185 0
164 183 0
166 190 0
172 195 0
172 195 0
168 192 0
169 192 0
168 193 0
168 192 0
172 195 0
169 192 0
169 193 0
172 196 0
172 196 0
170 192 0
167 191 0
162 186 0
168 192 0
167 190 0
166 191 0
166 190 0
168 190 0
169 192 0
170 194 0
169 192 0
168 192 0
167 190 0
169 192 0
167 190 0
165 189 0
166 190 0
166 190 0
166 189 0
166 190 0
163 186 0
168 191 0
165 189 0
167 190 0
166 188 0
165 189 0
165 187 0
166 189 0
161 185 0
165 189 0
159 182 0
160 184 0
156 179 0
157 181 0
163 186 0
166 189 0
164 187 0
161 184 0
156 179 0
164 187 0
164 187 0
161 185 0
160 183 0
156 180 0
154 178 0
161 184 0
163 185 0
156 180 0
158 181 0
157 180 0
157 181 0
159 182 0
160 182 0
152 175 0
156 180 0
156 178 0
156 178 0
154 176 0
157 180 0
152 174 0
159 182 0
155 177 0
146 168 0
148 170 0
147 170 0
152 175 0
145 166 0
150 173 0
147 169 0
155 177 0
151 174 0
145 167 18
151 173 25
143 166 25
126 149 57
91 116 76
90 115 76
74 104 111
56 89 110
55 88 97
56 90 111
58 92 125
57 91 117
59 93 124
57 90 114
59 93 133
59 93 126
57 91 117
59 94 133
57 92 121
59 93 122
59 94 135
57 91 124
58 92 124
60 94 131
59 94 128
58 93 131
59 94 140
59 93 147
60 95 141
62 97 145
59 94 137
60 95 144
60 95 143
60 95 134
61 96 148
61 96 148
62 97 153
61 97 148
60 95 139
61 96 145
60 96 148
61 97 151
60 95 143
60 95 145
63 97 150
63 98 155
62 97 154
64 97 142
68 99 147
68 100 151
62 96 142
61 96 133
62 96 135
63 97 135
63 98 147
61 96 129
61 95 134
64 98 133
63 96 130
69 101 129
69 102 136
62 95 113
66 99 129
62 95 121
62 96 129
59 93 130
66 99 129
61 94 118
60 94 135
60 95 133
58 92 125
62 96 133
60 95 139
60 95 129
59 94 131
59 93 126
61 96 143
59 94 130
60 95 137
59 94 129
57 91 117
59 93 122
59 94 133
60 94 133
60 94 134
59 94 131
60 94 128
62 96 137
58 92 125
59 94 136
60 95 131
59 94 135
59 93 125
60 95 136
59 93 122
59 93 129
59 94 122
59 94 126
60 94 137
60 94 130
59 93 131
60 94 136
59 92 131
60 95 140
60 95 135
59 94 128
59 93 125
61 95 143
59 94 128
59 94 130
59 93 125
60 95 126
59 94 118
59 93 124
59 93 122
57 91 122
57 91 117
60 95 135
59 94 122
58 92 125
60 94 139
60 95 129
61 95 136
60 94 133
60 95 133
58 93 130
59 93 124
58 92 114
60 94 126
59 93 122
58 92 120
59 93 129
58 92 120
58 91 118
59 93 125
60 95 136
57 90 120
58 92 118
57 91 110
59 93 121
57 90 111
58 92 128
58 92 122
58 92 118
58 91 122
58 92 121
58 91 107
58 92 120
59 93 124
57 90 120
57 90 111
58 91 115
56 89 99
55 87 94
58 91 125
54 87 95
83 104 70
101 118 51
113 127 0
115 130 0
119 134 0
120 135 0
117 129 0
112 125 0
113 129 0
121 134 0
125 140 0
119 134 0
113 126 0
127 141 0
129 144 0
121 135 0
122 136 0
115 129 0
126 142 0
120 135 0
123 137 0
116 131 0
114 128 0
125 139 0
120 136 0
129 142 0
126 143 0
129 145 0
124 139 0
125 136 0
134 150 0
138 154 0
136 151 0
125 140 0
138 152 0
128 142 0
133 145 0
134 149 0
136 150 0
135 149 0
137 153 0
133 149 0
131 146 0
137 150 0
136 151 0
141 158 0
136 152 0
136 150 0
132 147 0
129 141 0
129 144 0
129 142 0
140 154 0
139 155 0
139 154 0
139 153 0
146 158 0
149 163 0
136 150 0
140 152 0
144 156 0
133 146 0
139 152 0
144 159 0
133 146 0
144 156 0
149 166 0
134 148 0
142 159 0
143 157 0
147 161 0
144 158 0
147 160 0
150 164 0
140 155 0
143 156 0
146 161 0
149 160 0
152 168 0
157 169 0
153 168 0
139 151 0
146 159 0
145 156 0
148 162 0
155 168 0
149 164 0
144 158 0
149 164 0
147 162 0
145 158 0
152 168 0
153 169 0
149 164 0
152 169 0
159 175 0
151 168 0
155 171 0
152 167 0
156 170 0
151 166 0
153 167 0
153 167 0
156 170 0
152 168 0
152 169 0
156 171 0
147 161 0
155 169 0
156 172 0
154 170 0
151 167 0
158 174 0
162 179 0
145 161 0
158 176 0
160 177 0
154 170 0
158 175 0
154 168 0
162 177 0
163 180 0
160 176 0
153 170 0
162 179 0
157 173 0
156 172 0
162 180 0
160 175 0
156 174 0
158 175 0
158 177 0
157 174 0
156 171 0
159 177 0
160 178 0
162 181 0
159 174 0
162 179 0
160 178 0
156 173 0
164 182 0
160 180 0
161 179 0
160 178 0
163 180 0
167 187 0
161 180 0
166 184 0
162 181 0
164 182 0
158 177 0
163 180 0
160 178 0
166 187 0
159 176 0
170 189 0
156 173 0
164 184 0
169 188 0
166 187 0
173 196 0
168 192 0
171 195 0
169 193 0
168 192 0
169 192 0
168 192 0
168 191 0
172 195 0
166 190 0
169 192 0
170 194 0
169 193 0
168 192 0
170 194 0
171 194 0
166 189 0
169 192 0
169 193 0
165 188 0
168 191 0
163 187 0
169 192 0
167 190 0
169 192 0
169 192 0
168 192 0
165 189 0
169 192 0
165 188 0
166 190 0
165 190 0
158 183 0
165 188 0
166 189 0
164 188 0
159 182 0
162 185 0
162 186 0
167 191 0
165 188 0
160 183 0
167 191 0
161 185 0
167 190 0
159 184 0
166 189 0
156 180 0
160 184 0
163 186 0
155 178 0
160 184 0
154 178 0
156 179 0
163 186 0
158 181 0
159 182 0
161 184 0
160 184 0
162 185 0
160 184 0
159 183 0
156 179 0
161 183 0
162 184 0
161 184 0
156 178 0
160 183 0
149 172 0
157 179 0
157 179 0
155 177 0
155 178 0
151 174 0
157 180 0
151 172 0
155 176 0
150 173 0
149 170 0
150 172 0
149 171 0
144 165 0
145 167 0
151 173 0
142 164 25
139 162 31
128 151 44
104 128 76
101 125 86
93 120 99
65 96 102
59 92 113
58 93 125
58 92 120
59 93 126
57 90 120
57 91 118
56 90 103
58 92 120
60 95 133
58 92 126
57 91 117
59 93 125
58 92 120
58 91 124
59 94 131
59 93 124
59 93 125
60 95 131
60 95 141
59 93 135
60 95 131
59 94 135
60 94 135
59 94 133
61 96 143
60 94 136
60 96 143
59 93 137
59 94 140
61 96 145
61 97 153
61 96 143
63 99 161
61 96 144
61 96 147
61 96 139
63 97 145
64 97 140
62 96 142
59 94 143
67 99 139
69 99 135
70 99 134
63 96 148
61 95 136
62 97 145
65 99 137
63 97 139
68 100 118
57 91 124
67 99 121
67 98 117
63 95 97
59 93 125
67 99 115
62 95 130
67 99 134
60 94 120
60 94 126
67 100 139
58 92 124
59 94 135
63 97 131
57 91 114
62 96 134
61 94 128
62 96 135
57 91 120
59 93 125
57 91 121
59 93 125
59 93 122
60 94 125
59 94 131
60 94 126
60 95 129
60 94 140
59 94 131
59 93 128
59 93 133
58 93 126
60 94 129
60 94 131
61 96 136
58 92 118
59 93 124
58 92 129
60 95 131
60 94 130
60 95 139
59 94 128
59 94 128
59 94 129
58 92 125
59 93 122
59 94 122
60 94 131
60 95 137
60 95 136
59 92 125
59 93 124
58 92 120
60 95 130
60 94 135
60 94 125
59 93 121
59 93 126
58 92 120
58 92 115
60 95 139
58 91 115
60 94 126
58 92 117
59 93 129
59 93 129
58 92 111
60 94 134
59 93 130
59 93 121
59 93 131
60 93 128
58 93 118
59 92 126
60 94 125
58 92 120
58 92 117
59 93 122
59 92 117
58 92 124
59 92 126
58 91 118
59 93 126
58 92 125
59 94 128
60 93 128
57 91 122
58 91 113
58 92 122
58 92 117
57 90 111
57 91 110
56 89 111
57 90 121
59 92 133
56 89 103
52 84 90
57 88 100
90 112 84
94 112 31
105 120 0
117 131 0
116 130 0
115 128 0
120 134 0
116 131 0
126 141 0
126 142 0
116 131 0
116 133 0
119 133 0
113 126 0
115 129 0
123 137 0
126 140 0
125 141 0
122 136 0
127 144 0
120 134 0
129 145 0
123 138 0
127 144 0
122 138 0
133 148 0
133 149 0
128 146 0
127 140 0
139 154 0
133 148 0
129 143 0
125 140 0
134 149 0
129 142 0
130 145 0
137 152 0
138 153 0
130 144 0
124 141 0
136 152 0
140 156 0
134 150 0
129 147 0
137 151 0
135 150 0
139 154 0
144 162 0
127 138 0
137 151 0
148 163 0
148 163 0
132 145 0
129 144 0
132 148 0
134 147 0
134 146 0
141 155 0
140 154 0
147 162 0
140 156 0
137 152 0
144 157 0
142 155 0
141 155 0
144 158 0
149 165 0
134 148 0
135 147 0
139 155 0
141 155 0
137 152 0
148 164 0
142 156 0
147 162 0
148 163 0
136 151 0
147 163 0
141 156 0
146 162 0
150 167 0
151 164 0
148 162 0
150 166 0
149 164 0
151 165 0
152 167 0
147 162 0
155 170 0
147 161 0
149 164 0
145 159 0
154 169 0
146 160 0
154 170 0
149 162 0
146 161 0
154 168 0
148 161 0
150 166 0
153 169 0
161 176 0
153 167 0
148 163 0
155 171 0
152 166 0
151 165 0
151 167 0
149 163 0
158 174 0
159 174 0
151 167 0
159 176 0
159 177 0
158 175 0
158 175 0
157 172 0
155 170 0
158 175 0
158 175 0
159 174 0
155 171 0
160 176 0
148 163 0
160 177 0
160 179 0
159 176 0
160 178 0
161 180 0
161 181 0
159 177 0
160 178 0
162 177 0
158 176 0
158 176 0
159 176 0
160 177 0
162 179 0
161 180 0
166 187 0
165 183 0
162 183 0
161 179 0
162 179 0
159 177 0
161 178 0
164 183 0
164 184 0
162 181 0
160 177 0
163 180 0
161 180 0
162 182 0
164 183 0
160 179 0
165 184 0
162 181 0
167 189 0
157 175 0
162 183 0
163 183 0
164 184 0
168 192 0
169 193 0
171 194 0
172 195 0
170 194 0
168 192 0
167 190 0
173 196 0
169 193 0
168 192 0
163 187 0
170 194 0
168 192 0
167 191 0
169 192 0
170 194 0
169 192 0
168 192 0
167 191 0
165 189 0
161 184 0
166 191 0
165 189 0
165 189 0
170 194 0
171 194 0
168 193 0
170 194 0
164 188 0
168 191 0
165 189 0
166 190 0
166 189 0
163 185 0
166 190 0
165 189 0
166 190 0
164 187 0
166 190 0
163 186 0
164 188 0
166 189 0
162 186 0
162 185 0
159 182 0
169 193 0
159 183 0
161 185 0
159 183 0
160 183 0
168 192 0
159 183 0
157 180 0
154 179 0
165 188 0
158 182 0
156 179 0
156 180 0
161 184 0
161 184 0
158 181 0
158 180 0
159 182 0
159 181 0
153 176 0
157 181 0
165 188 0
149 172 0
152 174 0
159 182 0
156 178 0
154 177 0
156 179 0
159 182 0
150 174 0
155 176 0
149 172 0
151 174 0
151 173 0
138 159 0
150 172 0
152 174 0
148 170 0
143 164 0
149 171 0
145 167 0
135 156 40
125 147 51
112 135 76
94 119 88
81 108 95
63 95 95
58 92 107
57 91 107
58 92 113
59 93 118
58 92 125
58 92 124
58 92 115
59 93 126
57 90 117
59 93 124
59 93 117
57 91 121
59 93 125
60 94 133
59 94 134
59 93 131
58 93 128
60 95 140
60 94 135
59 94 126
59 94 130
59 93 131
60 95 140
59 94 133
60 95 150
61 96 150
60 96 149
61 96 148
61 96 153
61 96 147
59 94 142
61 96 152
61 96 142
61 96 145
62 97 155
64 99 152
67 100 153
67 99 140
62 96 139
67 100 150
75 103 144
63 96 141
69 98 130
63 97 141
65 98 130
70 102 136
62 96 137
67 99 117
66 99 131
66 99 126
67 101 142
63 97 139
72 102 120
66 98 121
61 95 124
58 92 131
66 98 124
63 95 111
59 94 135
60 93 128
58 92 125
61 94 130
62 94 117
67 100 131
59 94 134
59 93 126
58 92 124
57 91 114
59 93 130
59 94 129
60 95 128
58 92 125
59 93 122
60 94 133
59 93 122
59 94 134
59 93 126
57 90 111
58 92 130
59 93 122
60 95 136
59 93 129
59 93 131
58 91 118
61 95 137
60 94 137
59 94 129
59 93 131
58 92 126
59 94 126
59 93 131
60 94 131
58 92 117
59 93 120
60 95 131
59 94 126
59 93 129
60 95 143
58 92 125
59 93 121
59 94 126
60 94 126
61 96 133
59 93 125
60 94 130
58 93 121
59 93 130
59 94 131
58 92 118
59 93 133
59 94 126
57 90 120
60 95 137
57 91 124
59 93 125
58 93 128
59 93 130
60 94 128
60 95 133
58 92 118
60 94 122
57 90 110
60 94 128
59 93 118
59 93 129
59 92 122
57 90 117
60 93 128
58 91 108
59 93 120
56 90 115
57 90 114
58 91 108
58 91 120
58 91 124
58 91 117
58 92 115
58 91 117
58 91 122
58 92 115
58 91 110
54 86 99
54 87 101
57 90 111
58 88 99
74 97 88
90 108 63
95 108 31
114 126 0
123 138 0
127 141 0
125 140 0
112 127 0
115 128 0
124 138 0
105 118 0
121 137 0
133 148 0
123 140 0
115 129 0
123 138 0
130 145 0
116 132 0
115 131 0
129 144 0
127 143 0
129 144 0
132 147 0
131 145 0
131 147 0
122 136 0
131 146 0
127 142 0
130 144 0
131 147 0
124 138 0
131 146 0
121 138 0
140 157 0
122 139 0
123 137 0
134 151 0
130 146 0
130 145 0
128 144 0
134 148 0
135 151 0
139 153 0
140 155 0
133 147 0
142 157 0
139 155 0
126 139 0
135 151 0
136 152 0
138 154 0
147 162 0
140 154 0
142 157 0
140 156 0
130 145 0
133 150 0
135 151 0
139 151 0
146 164 0
133 147 0
146 162 0
150 164 0
133 147 0
142 157 0
138 152 0
148 166 0
142 157 0
148 164 0
150 166 0
138 151 0
144 159 0
144 161 0
141 153 0
147 162 0
142 158 0
147 162 0
145 162 0
142 156 0
151 168 0
141 156 0
147 162 0
146 160 0
144 157 0
150 163 0
148 163 0
149 164 0
145 158 0
149 164 0
150 165 0
147 162 0
143 159 0
148 165 0
151 166 0
150 165 0
142 157 0
147 159 0
153 167 0
145 162 0
156 173 0
154 171 0
152 167 0
156 171 0
156 170 0
156 171 0
154 170 0
160 175 0
144 159 0
152 167 0
156 173 0
160 179 0
153 169 0
149 163 0
154 170 0
149 164 0
152 168 0
159 177 0
157 172 0
152 169 0
155 172 0
162 180 0
157 173 0
159 175 0
160 180 0
158 176 0
160 177 0
160 178 0
164 182 0
154 173 0
162 178 0
160 178 0
160 177 0
155 174 0
158 176 0
161 179 0
164 183 0
160 179 0
163 183 0
163 184 0
158 176 0
161 181 0
159 176 0
164 183 0
165 183 0
158 174 0
157 174 0
160 180 0
163 181 0
163 181 0
168 187 0
162 182 0
158 178 0
161 180 0
165 185 0
165 184 0
166 187 0
162 180 0
165 185 0
166 184 0
162 180 0
160 179 0
165 185 0
166 184 0
169 193 0
169 193 0
170 194 0
170 194 0
170 193 0
170 193 0
168 191 0
168 192 0
170 193 0
171 194 0
170 194 0
167 191 0
165 188 0
166 190 0
169 193 0
168 191 0
164 188 0
169 193 0
167 190 0
165 189 0
168 192 0
171 194 0
165 189 0
165 187 0
168 191 0
162 185 0
165 190 0
163 187 0
166 190 0
168 191 0
161 184 0
170 193 0
164 189 0
165 189 0
161 185 0
165 188 0
159 183 0
168 192 0
166 189 0
168 192 0
164 187 0
166 190 0
161 184 0
166 188 0
168 191 0
161 184 0
162 186 0
161 185 0
162 185 0
165 188 0
162 184 0
160 182 0
156 179 0
157 181 0
156 180 0
154 177 0
157 181 0
154 177 0
154 177 0
160 183 0
154 176 0
163 186 0
166 188 0
154 177 0
159 182 0
160 183 0
157 179 0
157 179 0
155 179 0
156 179 0
157 179 0
157 180 0
154 176 0
144 166 0
151 173 0
150 172 0
146 169 0
153 175 0
150 173 0
150 173 0
147 170 0
153 175 0
147 169 0
147 169 0
144 166 0
149 171 0
141 162 0
126 149 54
120 142 60
118 141 65
103 128 88
81 108 95
66 96 99
57 90 110
60 94 125
58 91 120
58 91 114
55 89 107
57 91 120
58 92 115
59 93 135
59 93 125
59 93 118
57 90 114
58 92 125
59 93 128
58 92 128
60 94 130
60 95 137
58 91 117
60 95 130
59 93 131
59 93 133
59 94 130
60 95 141
58 93 128
61 96 142
59 94 144
62 97 149
59 94 147
61 96 147
60 95 144
59 94 140
60 95 145
60 96 143
60 95 140
62 97 151
61 96 149
64 97 141
61 96 151
69 101 154
63 97 150
68 100 143
64 97 139
67 98 142
66 97 137
60 95 135
65 99 140
59 94 133
64 96 113
68 100 122
65 98 131
67 98 128
62 95 114
62 96 131
57 90 114
61 95 130
60 93 118
60 93 125
59 94 129
61 95 125
64 97 140
63 97 122
58 92 124
56 89 114
60 93 124
58 93 129
63 97 130
59 93 124
60 94 137
59 93 125
56 90 114
59 94 121
61 96 137
60 94 134
57 91 122
59 93 130
58 92 124
60 94 130
58 92 129
59 93 124
59 93 134
59 94 136
59 94 128
59 94 135
59 94 129
60 94 140
59 93 121
60 95 134
58 92 122
58 92 121
59 93 122
60 95 135
58 92 121
58 92 121
61 96 134
59 93 121
59 93 131
59 94 122
59 94 125
58 93 128
59 93 114
57 91 115
58 92 121
59 94 129
58 92 124
58 92 128
59 94 122
59 93 124
58 92 118
57 90 114
59 93 126
58 92 120
59 93 118
59 93 113
59 93 121
59 93 118
58 91 121
59 93 117
60 94 124
59 94 124
57 90 118
59 93 129
58 92 118
58 91 121
56 89 108
58 92 117
58 92 125
58 92 120
57 90 113
56 89 114
58 92 117
57 91 120
59 93 117
56 89 107
58 92 122
57 90 115
58 91 113
56 89 102
58 92 113
58 91 111
57 90 115
56 89 113
56 89 105
57 90 117
54 86 95
78 101 82
104 120 51
108 122 0
118 131 0
136 152 0
121 136 0
103 116 0
112 127 0
113 127 0
113 130 0
128 143 0
124 139 0
118 131 0
117 132 0
115 128 0
117 130 0
133 149 0
128 141 0
123 137 0
117 133 0
127 143 0
119 132 0
133 148 0
128 143 0
130 146 0
131 146 0
125 139 0
120 134 0
132 147 0
136 153 0
120 135 0
127 143 0
131 147 0
136 151 0
133 148 0
134 148 0
133 148 0
128 143 0
134 149 0
135 151 0
143 159 0
128 144 0
142 156 0
141 157 0
139 155 0
142 156 0
136 153 0
131 145 0
132 147 0
144 158 0
140 155 0
130 143 0
136 152 0
136 154 0
132 148 0
136 148 0
139 156 0
142 156 0
137 153 0
149 163 0
137 151 0
136 152 0
148 163 0
137 153 0
135 150 0
141 155 0
146 160 0
148 166 0
145 160 0
140 154 0
147 162 0
145 164 0
145 159 0
143 158 0
142 155 0
149 164 0
150 166 0
140 154 0
146 159 0
141 154 0
146 160 0
150 165 0
145 162 0
148 164 0
145 161 0
149 165 0
155 172 0
147 162 0
153 170 0
147 162 0
149 163 0
150 168 0
146 160 0
146 160 0
149 163 0
159 174 0
151 166 0
144 158 0
154 168 0
160 178 0
148 162 0
155 170 0
147 163 0
153 171 0
147 165 0
148 164 0
148 164 0
154 170 0
152 169 0
157 173 0
154 170 0
154 171 0
156 174 0
155 171 0
154 170 0
157 172 0
159 176 0
153 171 0
153 169 0
150 163 0
155 171 0
157 173 0
157 176 0
159 176 0
159 176 0
159 177 0
160 178 0
153 169 0
157 174 0
164 182 0
160 177 0
162 179 0
156 176 0
160 176 0
156 173 0
161 180 0
161 180 0
157 175 0
164 183 0
160 176 0
164 182 0
162 181 0
157 175 0
162 180 0
159 178 0
161 179 0
162 179 0
162 182 0
167 189 0
158 174 0
163 184 0
161 178 0
163 182 0
162 183 0
161 179 0
166 184 0
163 182 0
164 182 0
163 183 0
165 186 0
165 183 0
164 183 0
162 182 0
170 191 0
169 193 0
165 188 0
172 195 0
166 190 0
171 194 0
169 193 0
170 193 0
166 189 0
167 191 0
169 193 0
168 192 0
168 191 0
169 192 0
171 195 0
170 193 0
168 191 0
163 186 0
167 190 0
167 190 0
170 194 0
163 187 0
165 189 0
169 192 0
167 190 0
162 185 0
163 187 0
168 191 0
169 193 0
170 193 0
163 187 0
167 190 0
165 188 0
167 190 0
165 189 0
167 191 0
167 191 0
167 190 0
165 187 0
166 190 0
163 187 0
165 188 0
161 184 0
166 189 0
166 189 0
164 187 0
159 183 0
160 184 0
166 190 0
158 181 0
163 186 0
158 182 0
161 185 0
163 187 0
166 188 0
158 181 0
154 176 0
154 178 0
163 186 0
152 174 0
157 180 0
155 178 0
158 182 0
154 177 0
149 171 0
158 181 0
149 171 0
158 181 0
158 181 0
157 180 0
154 176 0
149 171 0
157 180 0
153 176 0
155 178 0
146 169 0
142 164 0
147 169 0
148 171 0
148 168 0
142 164 0
145 169 0
142 163 0
147 169 0
142 163 0
146 168 0
143 165 0
140 161 0
141 162 25
134 155 44
120 144 65
111 134 84
91 117 95
82 109 95
61 94 120
57 91 118
58 91 110
57 91 113
57 90 115
59 93 122
58 92 121
57 91 114
58 92 111
58 92 115
60 95 135
59 93 122
57 90 117
59 93 128
60 94 135
56 89 117
56 90 110
59 93 134
59 93 134
61 95 141
59 94 131
61 96 139
60 95 136
61 96 144
58 92 128
59 94 137
60 95 137
61 95 141
60 95 141
60 95 149
60 94 139
61 97 143
61 96 147
61 96 147
64 97 149
65 98 147
70 100 139
67 98 138
72 101 142
71 101 137
67 99 139
65 97 137
64 96 135
62 95 133
59 93 129
62 96 135
63 97 130
63 96 124
59 93 122
65 97 128
62 95 129
75 105 115
59 93 129
70 101 133
60 94 126
63 95 124
63 96 121
59 91 110
66 98 125
59 91 107
58 92 122
57 90 102
61 93 122
60 94 125
57 91 115
59 93 126
59 93 124
59 93 118
59 93 122
59 93 125
58 93 121
59 93 125
58 92 118
58 91 122
58 91 124
59 93 126
60 94 135
58 92 118
58 91 121
60 94 131
59 93 124
59 93 133
60 94 134
58 92 122
59 93 129
60 94 133
60 95 133
59 94 128
59 94 133
59 93 126
57 90 121
58 92 122
59 93 124
59 92 115
60 94 133
60 94 121
58 93 128
58 93 124
60 94 131
58 92 126
60 95 135
58 91 118
58 91 121
60 95 131
60 94 135
59 93 128
59 93 124
60 94 125
58 92 115
59 94 124
61 95 136
59 93 118
58 92 115
60 95 135
59 94 124
60 94 128
59 93 122
59 93 128
59 93 130
57 91 115
56 89 115
58 92 125
59 93 115
59 93 126
59 93 122
58 92 121
60 94 121
57 90 113
57 91 114
59 92 118
59 93 122
57 90 117
57 90 114
59 92 117
58 92 111
58 91 113
55 86 94
56 89 105
57 90 110
56 89 102
52 83 82
61 92 102
83 104 72
106 122 36
103 118 18
115 128 0
108 123 0
114 129 0
118 133 0
108 124 0
113 127 0
112 127 0
113 127 0
130 145 0
133 148 0
125 140 0
125 141 0
123 138 0
122 138 0
118 134 0
125 141 0
124 141 0
128 143 0
129 144 0
128 143 0
126 141 0
128 142 0
135 151 0
124 139 0
120 134 0
126 140 0
133 150 0
125 138 0
135 154 0
137 154 0
133 149 0
132 149 0
122 138 0
128 141 0
139 155 0
135 149 0
143 160 0
138 153 0
135 150 0
142 159 0
139 154 0
136 149 0
140 157 0
137 156 0
132 147 0
136 151 0
141 156 0
141 157 0
138 152 0
133 146 0
131 146 0
143 159 0
151 167 0
135 151 0
142 158 0
135 152 0
140 157 0
145 160 0
139 157 0
146 161 0
144 160 0
141 158 0
130 144 0
146 165 0
140 157 0
149 163 0
152 171 0
142 158 0
146 162 0
139 153 0
144 158 0
146 162 0
148 163 0
144 161 0
148 164 0
149 166 0
151 167 0
153 166 0
148 163 0
153 168 0
152 167 0
144 160 0
140 155 0
153 167 0
144 159 0
149 164 0
151 167 0
155 174 0
147 162 0
152 168 0
148 164 0
152 168 0
154 169 0
158 174 0
151 164 0
148 162 0
154 170 0
155 170 0
157 174 0
154 169 0
155 172 0
149 167 0
156 171 0
153 169 0
153 170 0
154 172 0
160 175 0
153 168 0
156 174 0
148 165 0
149 166 0
156 172 0
151 166 0
156 174 0
154 167 0
153 170 0
158 176 0
155 172 0
166 184 0
160 178 0
157 174 0
156 173 0
158 176 0
160 178 0
154 170 0
161 179 0
160 174 0
165 182 0
161 179 0
157 175 0
159 176 0
162 180 0
161 179 0
155 171 0
161 180 0
163 181 0
165 183 0
155 173 0
158 174 0
160 178 0
159 176 0
162 180 0
168 187 0
162 182 0
163 181 0
162 179 0
163 182 0
165 183 0
165 183 0
163 184 0
165 185 0
164 184 0
165 184 0
164 183 0
165 183 0
167 186 0
164 184 0
168 188 0
165 184 0
167 185 0
167 187 0
162 182 0
169 193 0
171 194 0
169 193 0
170 193 0
168 191 0
166 190 0
168 192 0
171 194 0
164 188 0
166 190 0
171 194 0
167 191 0
169 193 0
166 189 0
169 193 0
169 193 0
167 191 0
168 192 0
166 190 0
168 191 0
169 192 0
168 191 0
167 190 0
169 192 0
169 193 0
167 190 0
167 191 0
166 190 0
165 189 0
165 188 0
163 187 0
168 192 0
162 185 0
166 189 0
164 187 0
166 189 0
166 189 0
168 191 0
157 180 0
164 186 0
165 189 0
160 184 0
164 188 0
159 182 0
161 185 0
156 179 0
162 186 0
160 183 0
155 179 0
165 188 0
160 184 0
156 180 0
165 188 0
157 180 0
155 177 0
156 179 0
158 180 0
165 188 0
163 186 0
155 178 0
158 181 0
152 176 0
158 180 0
161 184 0
154 177 0
153 176 0
155 177 0
155 178 0
151 173 0
155 178 0
155 178 0
155 178 0
157 180 0
149 172 0
146 169 0
160 183 0
157 179 0
148 171 0
149 172 0
150 172 0
148 170 0
143 165 0
146 168 0
148 170 0
138 160 0
147 168 0
138 159 0
145 167 0
135 157 18
136 157 31
115 136 36
103 126 82
90 116 90
74 103 100
57 90 103
58 91 107
57 90 111
55 88 99
58 92 115
59 93 121
56 90 99
56 90 118
56 89 105
56 89 110
55 89 115
58 92 108
58 91 117
58 92 131
60 95 136
58 92 125
59 93 126
60 95 136
59 93 125
60 94 130
60 94 121
60 95 139
60 95 135
61 96 144
59 93 125
61 96 141
59 94 137
62 97 148
61 96 145
60 96 144
61 97 153
60 95 139
61 96 142
59 93 129
61 97 153
66 98 145
68 99 134
64 96 140
73 102 140
75 102 133
78 104 140
72 100 136
68 98 128
64 97 141
62 96 135
70 102 130
73 105 134
67 100 124
65 97 117
67 99 128
66 98 118
65 97 120
64 97 124
66 98 121
61 93 114
62 94 115
65 97 118
65 96 113
59 93 131
60 92 118
61 94 114
64 97 118
57 90 108
58 92 120
58 92 124
59 94 134
57 91 122
58 92 118
57 91 118
58 93 130
60 94 128
61 95 139
59 93 125
58 92 128
60 94 129
58 92 120
59 94 125
60 94 128
59 93 128
59 93 130
61 96 136
60 94 129
58 93 128
58 92 122
59 94 129
57 91 117
59 94 125
59 94 131
59 93 126
57 90 114
59 93 121
60 95 139
58 92 121
58 92 124
59 93 121
59 93 129
59 93 124
59 93 118
61 95 137
59 93 133
60 94 135
58 92 118
60 94 130
60 95 134
58 92 121
57 91 113
61 96 137
59 92 130
59 92 121
58 92 124
59 93 121
57 91 117
57 91 113
59 93 124
57 90 114
58 92 114
57 91 111
57 90 113
60 94 125
58 91 110
58 92 120
56 89 99
58 91 111
58 92 115
57 90 113
59 93 126
56 89 107
58 92 126
58 92 120
55 87 103
58 92 125
57 90 113
57 89 103
57 90 111
56 88 102
55 88 103
57 90 111
55 86 113
55 86 97
57 88 102
81 102 74
96 112 44
114 130 0
117 132 0
104 117 0
113 127 0
118 131 0
116 132 0
127 143 0
120 137 0
117 132 0
126 142 0
126 140 0
129 145 0
127 143 0
112 127 0
127 143 0
117 131 0
119 135 0
114 130 0
118 131 0
125 141 0
134 149 0
128 145 0
117 133 0
133 150 0
131 146 0
129 146 0
133 148 0
131 148 0
126 141 0
130 145 0
124 141 0
131 150 0
140 154 0
141 158 0
139 156 0
132 149 0
129 145 0
143 157 0
120 135 0
126 143 0
132 144 0
128 145 0
129 145 0
139 153 0
146 162 0
132 146 0
132 146 0
142 160 0
148 162 0
132 147 0
136 151 0
136 151 0
134 151 0
138 154 0
144 159 0
146 163 0
137 152 0
143 158 0
142 160 0
141 155 0
138 153 0
147 165 0
145 161 0
148 164 0
147 165 0
144 159 0
139 154 0
150 168 0
143 158 0
141 157 0
142 156 0
147 159 0
140 154 0
149 168 0
154 172 0
145 160 0
147 163 0
143 157 0
148 164 0
145 162 0
144 158 0
151 168 0
147 160 0
155 170 0
147 163 0
154 168 0
158 175 0
144 160 0
152 166 0
153 169 0
139 155 0
148 165 0
152 167 0
149 165 0
147 164 0
154 170 0
152 168 0
148 164 0
151 169 0
153 169 0
156 173 0
150 167 0
151 169 0
155 172 0
151 166 0
148 165 0
150 167 0
154 171 0
158 176 0
157 173 0
157 173 0
159 174 0
158 173 0
152 170 0
155 170 0
154 172 0
156 173 0
155 170 0
155 171 0
159 176 0
160 179 0
155 171 0
149 166 0
159 177 0
149 165 0
158 176 0
159 176 0
159 177 0
157 175 0
161 178 0
160 176 0
155 173 0
160 179 0
159 175 0
162 180 0
165 183 0
157 176 0
163 182 0
161 179 0
163 180 0
159 179 0
166 185 0
164 183 0
163 182 0
165 182 0
158 177 0
166 186 0
165 184 0
163 182 0
162 180 0
167 187 0
165 184 0
161 178 0
164 184 0
162 182 0
158 178 0
159 178 0
163 181 0
158 178 0
163 183 0
163 182 0
163 183 0
166 186 0
168 187 0
169 192 0
168 191 0
168 192 0
173 196 0
169 193 0
169 193 0
168 191 0
167 190 0
171 194 0
167 191 0
167 190 0
170 194 0
170 193 0
169 193 0
167 190 0
168 191 0
166 191 0
167 190 0
167 191 0
167 191 0
169 192 0
166 190 0
168 192 0
169 192 0
166 189 0
167 191 0
166 188 0
164 187 0
164 187 0
163 186 0
164 188 0
161 185 0
168 192 0
165 189 0
164 187 0
165 188 0
165 188 0
164 188 0
161 185 0
164 188 0
166 189 0
164 188 0
167 190 0
164 187 0
163 187 0
166 190 0
161 185 0
157 180 0
159 182 0
161 183 0
158 181 0
165 189 0
158 182 0
159 181 0
159 182 0
166 188 0
155 178 0
162 184 0
159 182 0
160 183 0
161 184 0
156 178 0
159 182 0
155 179 0
156 179 0
155 178 0
160 184 0
157 180 0
152 175 0
157 179 0
151 173 0
154 177 0
155 177 0
149 171 0
157 180 0
151 174 0
150 173 0
140 162 0
146 167 0
148 171 0
149 170 0
151 173 0
153 174 0
150 173 0
142 164 0
139 160 0
146 168 0
145 166 0
135 157 18
133 154 31
120 143 51
100 123 62
86 113 80
76 103 90
66 95 97
56 89 102
56 89 103
56 89 102
56 89 108
58 92 110
57 91 117
59 93 121
59 93 120
57 91 114
59 93 131
60 94 122
59 93 128
58 92 128
59 93 133
60 95 133
59 93 121
57 91 111
58 92 121
59 93 122
57 91 115
60 94 133
60 94 135
58 92 130
59 94 133
60 96 144
58 92 121
61 96 147
60 96 137
61 96 148
60 96 143
61 96 141
60 95 144
61 96 142
62 97 144
66 98 138
73 100 131
68 99 146
74 101 128
67 99 137
63 95 137
67 97 129
69 99 136
65 96 127
64 97 130
61 95 121
57 90 117
67 99 125
56 90 110
60 94 126
67 99 118
68 99 121
63 96 126
62 95 118
62 95 121
61 94 113
57 90 105
62 95 111
62 94 107
59 93 131
58 92 114
58 92 130
61 95 118
57 91 120
59 93 129
58 93 126
59 94 133
59 93 131
59 94 121
60 94 128
59 92 120
59 93 126
60 95 131
59 94 121
59 93 128
59 93 131
59 92 117
58 92 107
60 95 136
59 93 128
60 94 124
59 94 122
58 92 128
58 92 122
59 94 122
59 93 115
59 93 122
59 94 130
59 93 134
59 93 124
57 91 120
58 92 120
60 95 135
61 95 133
58 92 124
59 93 124
59 93 125
58 92 103
57 90 111
58 92 118
58 92 118
58 92 117
57 90 108
59 93 125
59 93 125
59 92 113
60 95 137
59 93 125
57 90 111
59 93 125
57 90 117
58 91 118
58 91 120
60 94 130
58 91 113
60 94 131
57 91 121
56 88 110
58 92 113
58 92 117
55 87 103
57 90 114
58 91 111
58 92 115
58 91 122
58 91 110
58 91 115
56 89 108
56 89 111
57 90 110
56 90 103
57 90 105
56 89 110
57 90 108
54 86 97
55 88 107
57 90 122
54 86 99
63 92 90
76 97 70
106 123 51
120 135 0
111 125 0
121 137 0
126 141 0
112 127 0
116 134 0
109 125 0
116 131 0
129 146 0
111 127 0
102 117 0
112 127 0
126 142 0
116 132 0
116 131 0
117 134 0
123 138 0
121 138 0
123 138 0
127 142 0
128 145 0
128 144 0
122 139 0
127 142 0
129 145 0
129 145 0
129 145 0
119 135 0
126 140 0
130 147 0
125 142 0
129 146 0
131 145 0
133 149 0
133 148 0
129 146 0
128 144 0
125 140 0
137 151 0
136 153 0
143 160 0
138 153 0
135 153 0
133 150 0
134 151 0
141 159 0
135 150 0
133 150 0
140 156 0
146 161 0
136 150 0
129 147 0
141 157 0
135 151 0
128 144 0
142 157 0
135 152 0
147 162 0
136 149 0
141 158 0
135 151 0
140 156 0
143 159 0
138 154 0
143 159 0
147 165 0
143 159 0
135 150 0
143 157 0
149 166 0
142 156 0
144 162 0
142 157 0
141 158 0
146 162 0
137 152 0
149 165 0
151 170 0
146 161 0
153 170 0
145 163 0
147 164 0
156 173 0
143 159 0
152 171 0
146 159 0
150 165 0
152 169 0
147 162 0
151 169 0
150 165 0
152 167 0
153 168 0
152 169 0
162 180 0
154 172 0
160 176 0
155 171 0
145 159 0
153 169 0
151 168 0
149 166 0
156 172 0
154 171 0
154 170 0
157 172 0
153 169 0
159 177 0
157 171 0
156 173 0
152 171 0
153 169 0
162 178 0
156 171 0
150 165 0
158 175 0
157 171 0
161 180 0
164 184 0
161 178 0
153 169 0
159 177 0
154 170 0
164 184 0
162 180 0
159 176 0
152 169 0
156 175 0
158 175 0
160 178 0
159 175 0
164 181 0
160 176 0
164 182 0
161 179 0
166 185 0
165 185 0
161 179 0
160 177 0
163 182 0
167 185 0
159 176 0
164 183 0
159 178 0
162 182 0
165 185 0
167 186 0
158 176 0
159 176 0
157 175 0
170 190 0
163 181 0
159 178 0
160 180 0
163 183 0
165 183 0
169 189 0
160 179 0
161 180 0
161 180 0
158 176 0
166 185 0
164 184 0
167 186 0
165 186 0
171 194 0
172 196 0
171 195 0
170 193 0
167 191 0
169 192 0
169 193 0
169 193 0
166 190 0
168 192 0
169 193 0
169 191 0
170 194 0
172 195 0
169 192 0
165 188 0
165 187 0
165 189 0
168 191 0
161 185 0
169 193 0
163 187 0
167 190 0
166 190 0
164 189 0
166 189 0
167 190 0
166 190 0
165 189 0
165 189 0
167 190 0
162 185 0
168 191 0
166 190 0
163 186 0
164 188 0
159 183 0
166 190 0
161 184 0
159 183 0
160 183 0
162 187 0
167 191 0
163 187 0
166 189 0
163 187 0
165 188 0
160 183 0
159 181 0
163 186 0
160 184 0
160 183 0
157 180 0
160 183 0
157 181 0
153 176 0
159 182 0
156 179 0
160 184 0
159 182 0
155 178 0
158 181 0
157 179 0
152 175 0
152 174 0
159 183 0
152 174 0
148 170 0
150 172 0
148 171 0
154 177 0
151 174 0
143 167 0
150 172 0
146 168 0
152 174 0
148 170 0
148 171 0
154 176 0
150 171 0
145 167 0
144 166 0
142 164 0
140 161 0
144 166 0
147 169 0
149 170 0
137 157 0
149 171 0
141 162 0
130 151 44
119 141 44
106 129 67
90 117 92
75 103 100
62 92 97
55 88 100
55 88 100
59 94 117
56 89 110
58 92 118
54 86 100
58 92 121
57 91 118
57 91 118
56 88 105
56 89 110
58 91 114
59 93 124
58 92 129
59 93 121
59 94 130
60 94 125
58 92 118
59 93 133
60 94 133
60 94 125
60 94 130
59 94 137
58 93 134
58 92 131
61 97 149
61 95 139
59 94 137
60 95 135
60 95 134
66 99 146
63 97 140
61 96 149
64 97 136
63 96 141
61 93 128
71 100 136
72 100 133
67 98 131
69 97 130
65 96 129
65 96 135
58 92 124
68 99 125
62 96 135
68 100 125
73 104 133
68 99 124
65 98 126
71 101 114
66 98 118
69 100 113
67 99 108
60 93 125
64 96 120
62 95 120
58 91 103
60 93 126
63 96 124
64 95 110
63 96 115
62 95 118
59 93 126
59 93 124
57 90 114
59 93 124
58 92 114
58 92 125
57 91 115
57 91 118
58 92 122
60 94 134
59 93 118
59 93 134
59 93 125
58 92 124
58 91 108
58 91 114
57 92 117
57 90 111
59 94 125
59 93 122
59 94 126
58 92 111
59 94 122
57 91 111
58 92 114
59 94 120
59 94 124
59 93 129
59 93 113
59 93 120
57 91 118
59 93 122
59 93 128
57 90 108
59 93 122
59 93 128
59 94 130
59 93 118
58 91 120
59 93 128
59 93 124
58 91 114
60 94 135
58 92 122
58 92 118
58 92 130
56 90 110
60 94 130
60 94 125
58 92 118
59 93 110
59 93 125
57 91 100
58 92 115
57 91 110
59 93 121
58 91 107
57 90 110
58 92 120
57 91 126
57 90 105
57 90 113
59 92 115
57 90 107
57 91 111
58 92 111
56 88 107
55 87 110
57 90 110
56 88 110
53 85 92
53 85 90
55 87 103
70 96 92
90 110 74
102 119 44
103 116 0
108 124 0
106 121 0
111 125 0
102 117 0
117 133 0
110 126 0
122 134 0
124 139 0
117 134 0
124 142 0
112 127 0
118 135 0
116 133 0
121 135 0
128 145 0
123 139 0
122 135 0
121 139 0
120 134 0
139 156 0
128 145 0
129 144 0
124 139 0
120 136 0
126 143 0
127 144 0
133 150 0
128 143 0
134 150 0
133 149 0
125 141 0
130 148 0
124 140 0
126 141 0
119 135 0
122 137 0
133 150 0
134 151 0
140 158 0
139 156 0
135 153 0
134 150 0
142 158 0
140 157 0
142 157 0
140 156 0
145 161 0
139 156 0
146 162 0
134 149 0
138 153 0
136 153 0
142 158 0
140 155 0
140 155 0
142 159 0
135 149 0
136 152 0
142 160 0
145 161 0
144 160 0
143 159 0
145 164 0
141 155 0
146 163 0
146 162 0
144 158 0
142 158 0
145 160 0
149 167 0
151 168 0
151 167 0
150 165 0
147 164 0
147 162 0
144 161 0
145 160 0
146 162 0
146 161 0
146 163 0
144 160 0
143 158 0
148 164 0
154 170 0
146 163 0
151 165 0
149 166 0
153 171 0
147 163 0
152 169 0
153 171 0
158 175 0
138 154 0
143 156 0
157 176 0
149 166 0
153 168 0
157 173 0
157 172 0
153 170 0
153 170 0
153 170 0
143 158 0
154 170 0
154 170 0
145 161 0
155 172 0
151 169 0
159 177 0
153 168 0
156 174 0
155 172 0
154 171 0
160 178 0
156 174 0
155 170 0
158 174 0
160 178 0
155 172 0
148 165 0
159 177 0
161 179 0
162 179 0
155 171 0
156 174 0
158 175 0
153 171 0
159 177 0
158 174 0
158 174 0
161 181 0
160 178 0
158 175 0
163 180 0
163 182 0
153 172 0
161 180 0
167 187 0
156 175 0
164 182 0
160 179 0
165 182 0
162 180 0
161 180 0
160 178 0
169 188 0
163 181 0
164 184 0
160 179 0
156 173 0
166 184 0
163 181 0
163 182 0
165 182 0
161 181 0
164 182 0
167 188 0
167 187 0
169 187 0
165 188 0
166 186 0
160 179 0
162 182 0
165 184 0
165 187 0
168 191 0
171 195 0
170 194 0
167 191 0
169 193 0
172 195 0
168 192 0
171 194 0
166 190 0
168 191 0
171 195 0
170 193 0
173 196 0
169 192 0
166 189 0
163 186 0
171 194 0
165 187 0
170 194 0
163 187 0
167 190 0
167 189 0
168 192 0
166 190 0
163 186 0
164 188 0
164 188 0
165 188 0
162 187 0
163 186 0
165 188 0
158 181 0
166 190 0
165 189 0
156 180 0
164 187 0
165 189 0
167 190 0
164 187 0
164 187 0
165 189 0
166 190 0
163 186 0
160 184 0
161 184 0
162 185 0
166 190 0
165 189 0
156 180 0
161 183 0
161 185 0
160 183 0
158 180 0
159 181 0
160 184 0
167 190 0
157 181 0
163 186 0
163 186 0
155 177 0
167 190 0
161 185 0
156 179 0
156 179 0
156 180 0
155 178 0
150 173 0
152 175 0
155 178 0
152 174 0
151 173 0
153 176 0
151 173 0
152 174 0
149 171 0
148 170 0
150 173 0
146 168 0
143 165 0
152 174 0
140 161 0
138 160 0
145 167 0
148 170 0
135 157 0
134 155 0
147 168 0
137 158 0
132 153 0
138 159 0
134 154 18
128 151 51
125 146 47
105 128 57
102 126 72
77 105 97
62 95 103
58 91 111
54 87 102
56 89 111
57 91 117
57 91 108
56 89 115
57 91 113
59 94 121
58 91 115
57 91 107
58 91 124
59 93 120
57 91 117
59 93 124
58 92 130
59 94 126
58 91 122
58 93 130
57 91 125
59 93 131
60 95 137
59 94 140
60 94 130
59 94 133
59 94 134
59 93 124
60 95 135
60 95 139
59 94 128
64 96 126
60 95 134
62 96 135
71 100 133
72 100 123
69 97 127
72 100 122
80 104 130
74 101 132
73 99 127
68 97 127
65 96 124
66 97 126
69 101 129
70 100 131
69 100 126
64 96 110
70 101 114
70 102 122
67 99 125
65 96 110
70 100 115
67 97 107
72 101 102
61 93 113
62 93 111
61 94 118
59 93 121
58 92 110
65 97 117
59 92 117
57 91 120
58 92 124
60 94 131
59 93 122
59 93 122
58 92 118
55 88 113
59 94 130
58 92 126
58 92 121
58 92 113
59 93 120
58 92 117
59 94 124
58 91 126
59 93 130
58 92 120
58 92 115
59 94 121
57 91 122
59 93 118
58 92 111
58 92 115
60 94 133
58 92 114
58 92 124
59 94 124
58 91 117
59 94 129
57 91 121
60 94 121
59 92 117
57 90 111
59 93 126
59 93 111
60 94 126
59 93 122
58 92 122
57 90 113
57 91 108
57 91 108
57 90 108
59 93 128
59 93 126
58 92 122
56 89 107
59 93 120
57 90 117
59 93 125
57 90 108
59 94 126
59 93 118
58 92 113
59 93 118
56 89 105
60 94 126
57 89 113
54 87 99
57 90 120
56 89 103
56 89 103
56 89 118
58 92 121
57 90 100
56 89 105
56 89 95
57 91 117
57 90 105
55 88 99
56 88 107
53 85 102
56 88 107
54 85 97
64 91 90
82 100 62
104 121 54
99 110 0
110 124 0
122 136 0
121 137 0
120 135 0
108 121 0
110 124 0
117 132 0
117 133 0
111 126 0
115 131 0
118 133 0
131 147 0
118 132 0
124 139 0
122 138 0
123 138 0
130 145 0
126 142 0
119 134 0
127 141 0
127 141 0
135 151 0
117 132 0
131 149 0
130 147 0
130 145 0
137 155 0
125 141 0
123 140 0
137 155 0
122 139 0
129 143 0
130 146 0
136 152 0
130 147 0
137 153 0
130 146 0
138 155 0
130 146 0
131 147 0
138 155 0
136 152 0
133 151 0
134 153 0
136 152 0
140 159 0
143 158 0
141 158 0
126 142 0
144 160 0
145 163 0
135 151 0
131 146 0
139 156 0
149 167 0
145 163 0
130 145 0
138 154 0
141 158 0
125 143 0
146 161 0
137 153 0
148 166 0
134 149 0
149 167 0
142 158 0
142 158 0
144 161 0
145 162 0
149 165 0
151 167 0
146 161 0
147 161 0
147 163 0
147 163 0
147 163 0
153 170 0
148 165 0
150 165 0
138 154 0
140 158 0
150 165 0
151 167 0
146 164 0
153 170 0
153 170 0
151 167 0
154 171 0
153 169 0
152 169 0
151 167 0
149 166 0
160 177 0
149 166 0
160 179 0
153 167 0
153 170 0
148 162 0
151 165 0
153 172 0
152 168 0
161 181 0
150 168 0
155 172 0
156 174 0
154 171 0
161 181 0
158 177 0
159 175 0
156 172 0
156 173 0
157 175 0
158 177 0
155 171 0
161 179 0
160 176 0
152 169 0
155 172 0
155 172 0
159 179 0
153 170 0
157 174 0
159 176 0
160 179 0
160 179 0
157 175 0
159 175 0
158 174 0
156 173 0
161 181 0
163 182 0
158 176 0
156 173 0
162 180 0
157 175 0
160 179 0
155 173 0
164 184 0
163 182 0
163 182 0
163 181 0
160 180 0
167 186 0
163 181 0
160 179 0
159 177 0
162 180 0
160 177 0
160 179 0
156 175 0
162 181 0
163 184 0
168 188 0
164 182 0
163 180 0
162 179 0
164 181 0
167 186 0
167 187 0
162 181 0
165 187 0
165 186 0
164 184 0
166 185 0
164 186 0
166 185 0
173 195 0
167 190 0
167 190 0
170 194 0
172 194 0
171 195 0
168 191 0
169 192 0
165 188 0
169 193 0
168 192 0
166 189 0
167 191 0
167 190 0
167 190 0
168 192 0
161 184 0
161 185 0
166 190 0
169 193 0
172 195 0
168 192 0
164 187 0
166 190 0
161 184 0
167 190 0
165 189 0
167 191 0
165 189 0
163 188 0
164 187 0
168 191 0
165 189 0
165 188 0
166 189 0
164 187 0
161 184 0
168 192 0
164 187 0
166 189 0
162 185 0
165 189 0
163 186 0
163 186 0
163 186 0
161 185 0
152 175 0
161 184 0
158 182 0
164 188 0
163 186 0
158 181 0
162 186 0
160 183 0
161 185 0
155 178 0
157 180 0
158 181 0
161 184 0
159 182 0
158 181 0
165 188 0
159 183 0
158 181 0
160 183 0
153 177 0
158 181 0
157 180 0
146 167 0
151 173 0
158 181 0
154 176 0
150 172 0
154 177 0
156 178 0
148 170 0
138 160 0
150 173 0
156 177 0
147 170 0
146 168 0
147 169 0
144 166 0
146 167 0
138 160 0
134 156 0
137 159 0
131 153 0
143 164 0
145 165 0
145 166 0
134 155 25
131 153 25
117 140 60
102 125 54
98 122 74
64 93 95
54 86 92
55 88 102
56 89 100
57 90 102
57 90 110
57 90 115
56 89 120
56 89 113
57 90 108
56 89 100
57 91 113
58 92 113
57 91 113
59 93 122
58 92 128
58 92 120
58 91 121
60 94 140
59 94 135
59 93 121
60 95 130
60 95 137
58 92 126
59 94 128
60 94 128
60 95 140
60 95 133
60 95 137
62 96 142
64 96 132
61 97 153
67 98 135
71 99 132
60 93 128
70 99 135
69 98 126
64 96 137
72 98 121
78 102 131
73 101 128
68 98 128
70 98 129
73 101 128
75 105 125
66 98 130
69 100 115
67 99 128
69 99 114
70 100 113
70 101 108
58 92 120
66 96 99
66 97 100
62 93 102
65 97 110
65 97 117
58 92 115
70 101 118
66 98 114
63 97 126
62 94 117
60 94 128
57 90 124
59 93 121
57 90 118
58 92 120
59 94 133
57 91 111
58 91 117
60 95 134
59 93 125
59 93 125
58 92 126
57 90 118
57 91 118
58 92 122
58 92 118
57 91 120
58 91 117
60 94 129
59 93 126
58 92 111
59 93 126
59 93 118
58 92 110
57 91 113
59 93 126
58 92 118
56 89 114
58 92 113
59 94 125
58 92 114
60 94 126
60 94 126
58 92 117
57 90 117
59 93 115
59 93 121
57 90 118
57 90 102
58 92 120
59 93 115
58 92 122
58 92 120
58 92 111
56 90 99
58 92 117
56 89 105
58 91 114
57 90 115
58 91 103
58 92 115
58 92 111
58 92 122
57 90 118
57 90 111
58 92 113
58 91 107
56 89 111
59 94 131
58 91 114
55 87 100
58 91 110
57 89 117
56 89 100
57 91 113
56 89 103
54 85 103
57 89 107
57 90 110
53 84 90
56 87 82
78 102 84
90 109 67
110 123 18
111 127 0
118 134 0
109 125 0
114 130 0
108 124 0
101 115 0
109 125 0
111 126 0
119 135 0
112 129 0
112 128 0
118 132 0
111 127 0
120 136 0
118 135 0
122 138 0
116 134 0
121 138 0
115 131 0
116 129 0
116 131 0
119 135 0
118 133 0
125 143 0
128 144 0
118 134 0
129 145 0
123 137 0
127 145 0
139 157 0
131 148 0
129 143 0
121 137 0
130 147 0
131 145 0
136 154 0
118 132 0
125 142 0
127 141 0
133 149 0
141 159 0
134 151 0
127 144 0
129 146 0
148 166 0
127 144 0
133 148 0
126 144 0
144 160 0
144 160 0
136 154 0
138 154 0
145 163 0
145 162 0
145 163 0
149 164 0
146 162 0
140 154 0
137 153 0
140 156 0
143 158 0
142 160 0
140 154 0
142 158 0
136 153 0
143 160 0
144 161 0
145 162 0
144 162 0
151 168 0
142 161 0
144 161 0
144 158 0
145 162 0
146 162 0
146 162 0
141 159 0
143 157 0
149 167 0
151 166 0
152 168 0
142 156 0
147 165 0
152 170 0
144 161 0
148 165 0
143 159 0
150 165 0
146 163 0
146 161 0
156 174 0
146 163 0
141 157 0
146 163 0
153 171 0
159 177 0
160 177 0
148 165 0
154 169 0
154 170 0
152 167 0
150 168 0
148 165 0
155 169 0
158 176 0
154 168 0
154 173 0
160 178 0
155 173 0
155 169 0
157 176 0
153 171 0
157 176 0
154 169 0
158 177 0
151 164 0
151 167 0
161 179 0
157 176 0
152 169 0
158 178 0
156 174 0
160 176 0
153 169 0
160 178 0
161 181 0
158 177 0
158 177 0
156 174 0
165 184 0
160 178 0
147 163 0
156 171 0
159 178 0
160 178 0
157 174 0
159 179 0
154 170 0
161 179 0
162 181 0
163 181 0
163 181 0
160 179 0
158 176 0
163 180 0
162 181 0
161 180 0
160 180 0
162 182 0
165 183 0
163 181 0
166 187 0
167 187 0
161 182 0
157 176 0
166 188 0
155 173 0
163 181 0
169 190 0
162 180 0
165 183 0
164 184 0
163 185 0
164 183 0
165 183 0
166 186 0
163 184 0
167 188 0
170 193 0
171 193 0
171 195 0
170 194 0
169 193 0
165 188 0
167 191 0
170 193 0
167 191 0
167 191 0
169 193 0
166 189 0
164 188 0
167 191 0
171 194 0
170 193 0
166 189 0
168 191 0
169 192 0
171 193 0
167 191 0
164 187 0
161 185 0
165 188 0
168 192 0
168 192 0
164 187 0
164 187 0
164 187 0
168 192 0
167 190 0
166 189 0
161 185 0
162 186 0
161 185 0
162 186 0
156 181 0
160 184 0
161 184 0
163 186 0
162 185 0
165 188 0
164 187 0
160 183 0
163 187 0
162 185 0
164 187 0
162 186 0
158 181 0
162 185 0
163 186 0
157 180 0
163 188 0
162 185 0
163 185 0
157 179 0
154 176 0
158 181 0
157 179 0
156 179 0
157 179 0
157 179 0
160 182 0
154 177 0
148 170 0
154 177 0
159 182 0
154 177 0
159 182 0
153 176 0
149 171 0
158 180 0
149 172 0
157 178 0
153 175 0
149 172 0
143 164 0
152 173 0
145 167 0
147 169 0
140 163 0
146 167 0
146 168 0
144 166 0
140 161 0
146 168 0
139 160 0
139 160 0
137 159 0
141 162 0
137 157 0
143 163 0
124 143 0
124 145 40
118 139 47
97 121 74
76 103 84
74 102 88
59 89 88
56 88 111
57 91 105
57 91 108
56 89 108
57 90 117
58 92 118
56 89 105
58 92 113
59 93 118
59 93 122
56 89 114
57 91 108
58 92 121
58 91 121
59 93 114
58 92 115
58 92 121
58 92 124
57 91 118
60 94 140
58 93 129
60 94 137
60 95 136
60 95 126
60 95 139
59 94 142
61 96 140
57 91 128
61 95 134
65 96 128
65 98 138
68 98 135
74 102 135
71 98 134
71 98 119
69 98 137
76 102 130
76 101 129
65 95 118
83 105 118
68 98 126
62 93 122
70 100 115
62 96 128
71 101 105
66 98 111
62 94 121
72 103 111
69 99 115
64 96 111
61 92 95
64 96 114
56 89 117
62 93 103
69 99 118
56 89 107
65 97 124
63 95 111
55 88 105
59 91 103
61 94 113
59 93 121
59 93 120
59 93 133
59 93 121
58 92 110
57 91 117
58 91 113
58 92 110
59 92 124
57 90 111
57 91 125
59 93 128
58 91 117
60 94 122
59 93 120
58 92 107
58 92 124
57 90 115
57 91 120
58 92 122
59 93 121
59 93 118
58 92 115
60 94 122
58 92 117
59 93 126
57 90 107
59 93 125
59 93 125
59 93 122
58 92 120
57 91 107
57 91 108
59 92 129
59 92 122
57 90 115
58 92 129
59 93 126
57 90 110
58 92 120
58 92 120
58 92 120
56 89 108
58 92 113
57 90 107
59 93 124
55 88 100
56 89 105
58 92 121
56 89 118
57 91 107
58 92 120
57 91 118
58 91 115
58 92 124
57 90 108
58 92 113
56 89 110
56 90 111
53 85 90
54 87 86
57 91 111
55 87 95
55 88 102
57 91 113
54 86 94
55 87 110
56 87 88
87 107 57
96 113 51
116 131 18
102 114 0
99 113 0
102 116 0
114 129 0
117 131 0
108 123 0
121 136 0
113 128 0
122 139 0
105 122 0
129 145 0
111 125 0
111 126 0
112 127 0
120 135 0
114 130 0
117 134 0
117 135 0
124 139 0
131 146 0
122 140 0
120 135 0
127 144 0
117 131 0
129 145 0
136 152 0
128 145 0
125 142 0
140 157 0
130 145 0
125 141 0
132 149 0
127 144 0
131 147 0
131 147 0
134 149 0
128 144 0
132 150 0
123 138 0
134 152 0
135 153 0
131 148 0
138 153 0
133 148 0
134 151 0
136 152 0
137 153 0
144 160 0
146 164 0
138 153 0
134 148 0
142 158 0
149 165 0
138 156 0
145 162 0
141 157 0
146 163 0
142 159 0
144 159 0
144 162 0
137 154 0
147 165 0
143 162 0
144 160 0
144 162 0
146 164 0
136 154 0
146 164 0
159 177 0
137 152 0
140 156 0
155 174 0
148 165 0
148 164 0
148 164 0
138 153 0
144 161 0
142 156 0
149 164 0
149 165 0
143 158 0
143 159 0
151 167 0
143 158 0
147 164 0
155 172 0
146 164 0
147 162 0
149 166 0
146 161 0
149 168 0
141 159 0
156 175 0
139 154 0
152 168 0
151 167 0
155 174 0
155 173 0
153 170 0
150 169 0
151 169 0
161 178 0
153 172 0
151 167 0
155 174 0
155 172 0
159 178 0
159 179 0
157 175 0
154 172 0
156 174 0
157 176 0
154 171 0
156 173 0
153 172 0
157 176 0
158 177 0
153 171 0
156 171 0
156 175 0
151 169 0
156 170 0
159 177 0
160 180 0
159 177 0
161 179 0
155 173 0
157 177 0
157 174 0
159 177 0
162 180 0
158 175 0
164 183 0
161 181 0
161 179 0
160 179 0
164 183 0
162 180 0
154 174 0
164 183 0
156 172 0
160 180 0
160 179 0
160 180 0
158 176 0
165 186 0
160 180 0
158 178 0
163 184 0
160 178 0
164 185 0
167 187 0
162 180 0
159 178 0
162 181 0
155 174 0
165 184 0
161 179 0
162 183 0
163 183 0
162 182 0
169 189 0
159 179 0
161 182 0
165 186 0
161 181 0
164 187 0
166 188 0
164 184 0
165 189 0
168 192 0
170 193 0
166 190 0
168 192 0
166 190 0
171 194 0
168 192 0
168 192 0
166 190 0
164 188 0
170 194 0
170 194 0
163 187 0
166 191 0
167 191 0
165 188 0
170 194 0
166 190 0
166 188 0
163 187 0
166 190 0
168 192 0
165 188 0
169 192 0
167 191 0
164 188 0
167 190 0
166 190 0
164 189 0
166 189 0
165 188 0
167 191 0
168 191 0
162 186 0
166 190 0
165 189 0
164 187 0
163 186 0
164 187 0
162 186 0
165 188 0
168 192 0
162 185 0
160 184 0
167 191 0
159 183 0
162 187 0
158 181 0
164 186 0
157 180 0
157 181 0
166 189 0
161 184 0
161 184 0
157 179 0
155 179 0
161 183 0
157 179 0
157 180 0
155 177 0
158 181 0
160 183 0
156 180 0
157 180 0
149 171 0
150 172 0
150 172 0
153 175 0
157 180 0
153 176 0
156 177 0
151 175 0
153 175 0
153 176 0
151 172 0
158 179 0
152 174 0
152 175 0
149 171 0
146 168 0
144 166 0
144 166 0
137 158 0
133 155 0
138 159 0
142 164 0
131 152 0
143 165 0
140 161 0
139 161 0
128 148 0
130 150 0
133 153 18
118 137 40
100 123 65
93 117 70
81 106 80
67 97 97
54 85 90
57 90 105
57 90 100
56 89 103
57 90 103
57 90 114
57 91 115
55 88 107
58 92 115
59 93 126
57 90 108
58 93 122
56 90 111
58 91 115
57 91 105
56 90 108
58 92 124
58 92 120
59 94 131
59 94 134
58 92 129
58 92 126
58 92 126
58 92 126
59 93 130
60 95 131
62 96 134
62 95 129
63 95 133
64 97 131
64 95 128
71 99 125
63 94 128
72 101 145
60 91 120
76 102 130
69 96 120
73 100 131
69 98 125
66 95 117
64 94 121
61 92 102
65 97 121
66 98 114
69 101 133
67 98 120
64 96 122
71 101 115
62 93 103
64 95 110
61 93 122
64 95 99
59 92 113
66 98 115
75 106 124
62 93 100
59 93 122
60 92 95
60 93 118
56 89 105
60 93 118
57 91 111
56 89 114
59 93 118
58 92 108
58 91 118
58 92 125
58 91 102
59 93 126
57 91 108
58 92 114
58 91 122
57 91 110
58 91 108
58 92 121
58 92 118
59 93 118
58 92 114
58 92 114
59 93 125
58 92 117
57 90 114
59 92 125
58 92 108
55 88 108
58 92 126
57 91 108
56 89 110
58 92 113
58 92 124
57 90 113
58 92 110
60 95 131
58 92 115
56 89 108
57 89 110
59 92 125
58 92 126
58 91 113
58 92 125
58 91 110
57 89 110
57 90 95
56 89 108
57 90 110
55 87 99
59 92 117
57 91 118
57 91 117
54 87 99
60 93 118
54 86 100
57 90 113
56 88 95
56 89 117
54 86 94
57 89 105
55 88 97
58 91 110
56 88 92
56 89 94
55 86 107
56 88 100
53 84 92
55 87 105
54 86 99
58 90 95
76 99 72
85 105 57
90 105 25
104 119 18
103 117 0
107 122 0
114 130 0
95 108 0
107 120 0
116 128 0
95 110 0
106 123 0
106 121 0
114 130 0
110 126 0
119 137 0
108 125 0
119 134 0
122 138 0
125 140 0
125 141 0
118 133 0
122 138 0
122 138 0
121 136 0
126 142 0
128 144 0
127 144 0
128 145 0
122 137 0
130 145 0
128 146 0
136 152 0
119 135 0
131 147 0
123 139 0
128 143 0
133 150 0
134 152 0
134 151 0
127 143 0
143 161 0
141 156 0
129 147 0
134 151 0
132 148 0
133 150 0
135 153 0
131 149 0
140 156 0
141 159 0
145 161 0
137 153 0
139 156 0
127 143 0
138 155 0
139 157 0
139 156 0
146 164 0
138 156 0
134 149 0
143 162 0
141 156 0
149 164 0
140 156 0
136 153 0
148 165 0
145 164 0
142 160 0
146 163 0
145 162 0
144 161 0
146 160 0
149 164 0
141 157 0
146 163 0
154 171 0
140 157 0
151 169 0
144 159 0
143 160 0
140 158 0
146 164 0
142 158 0
150 168 0
147 165 0
145 162 0
144 160 0
149 165 0
159 177 0
152 170 0
145 162 0
150 166 0
148 166 0
154 171 0
155 173 0
150 170 0
152 169 0
156 173 0
155 173 0
156 175 0
149 167 0
154 170 0
154 171 0
148 164 0
149 168 0
148 164 0
153 170 0
160 180 0
152 168 0
155 172 0
155 173 0
155 173 0
163 182 0
151 169 0
156 174 0
159 178 0
150 168 0
149 166 0
154 171 0
163 183 0
162 183 0
159 177 0
157 174 0
148 167 0
160 178 0
151 168 0
163 182 0
161 181 0
157 177 0
155 173 0
155 174 0
158 176 0
161 181 0
159 179 0
158 175 0
154 172 0
161 179 0
158 176 0
164 184 0
164 184 0
162 180 0
166 184 0
161 181 0
161 179 0
158 176 0
161 181 0
159 178 0
166 185 0
165 184 0
167 188 0
160 179 0
159 178 0
166 184 0
163 181 0
165 185 0
162 182 0
161 181 0
165 184 0
168 189 0
163 184 0
164 182 0
163 183 0
163 183 0
164 182 0
164 184 0
166 187 0
168 189 0
162 182 0
165 185 0
165 185 0
163 184 0
162 181 0
162 183 0
171 195 0
170 193 0
171 194 0
169 193 0
169 192 0
168 190 0
168 191 0
168 192 0
166 190 0
169 192 0
164 188 0
168 191 0
165 188 0
164 188 0
162 186 0
168 191 0
166 190 0
169 192 0
164 188 0
166 189 0
170 193 0
162 186 0
163 188 0
168 191 0
164 188 0
158 181 0
167 190 0
169 192 0
165 187 0
163 187 0
169 193 0
159 182 0
165 189 0
164 187 0
166 189 0
161 185 0
165 188 0
165 188 0
165 188 0
165 189 0
167 189 0
161 184 0
163 187 0
160 182 0
162 185 0
159 182 0
161 183 0
168 191 0
162 184 0
162 185 0
161 184 0
160 183 0
159 182 0
157 180 0
160 183 0
159 181 0
166 189 0
150 173 0
153 176 0
153 176 0
162 186 0
158 181 0
154 177 0
156 178 0
151 174 0
147 170 0
147 170 0
160 183 0
154 176 0
154 177 0
157 180 0
151 173 0
152 174 0
148 171 0
146 168 0
150 172 0
159 181 0
141 163 0
142 164 0
143 165 0
141 163 0
143 165 0
139 161 0
134 156 0
140 161 0
130 151 0
136 157 0
145 166 0
136 158 0
135 156 0
138 158 0
138 160 0
140 160 0
129 150 18
131 151 25
111 132 36
102 124 57
101 124 74
82 108 65
64 93 84
56 88 107
58 91 107
55 87 103
56 88 115
57 90 102
58 92 114
55 89 92
58 91 113
55 88 99
57 90 113
57 90 113
58 92 114
59 92 121
57 91 115
57 91 107
57 91 115
58 93 114
59 94 135
58 92 124
57 91 120
58 92 125
59 93 125
59 93 126
60 95 135
64 98 148
61 94 127
64 97 135
66 98 134
61 94 124
70 100 135
69 98 134
68 97 127
78 103 121
71 98 119
69 97 119
85 105 129
71 97 115
70 97 124
70 100 129
71 99 109
78 104 110
66 96 105
69 100 115
62 93 110
69 99 103
68 100 115
64 95 113
68 99 115
64 94 94
68 99 115
65 96 100
75 104 102
58 90 103
71 101 111
75 104 111
63 93 102
60 91 103
63 96 114
60 93 114
62 94 107
58 91 108
56 89 115
57 91 118
59 93 121
58 91 117
58 92 118
57 91 108
58 92 115
59 93 120
58 92 111
58 92 111
59 93 129
56 89 113
58 92 117
59 93 125
56 89 113
58 92 120
58 91 111
58 91 115
57 91 111
59 93 122
56 88 102
57 91 117
57 91 107
57 90 118
58 91 111
59 93 114
58 91 114
59 92 120
59 92 121
58 92 121
58 92 108
58 91 113
58 92 111
58 92 124
57 91 113
57 90 100
59 93 121
58 91 114
57 90 99
55 88 108
57 90 108
58 91 115
57 90 114
59 93 124
59 93 118
58 91 113
57 90 95
56 89 103
57 90 107
56 88 103
55 88 102
56 88 105
57 89 111
57 90 111
56 89 107
58 92 118
56 89 105
55 87 105
56 89 100
54 86 99
55 88 103
55 88 95
54 85 92
56 88 84
67 89 62
99 118 60
106 122 0
109 124 0
101 118 0
118 132 0
115 131 0
114 130 0
109 124 0
116 132 0
116 131 0
112 127 0
111 126 0
113 129 0
115 132 0
124 141 0
117 132 0
118 132 0
116 132 0
122 138 0
117 135 0
129 145 0
113 129 0
117 133 0
124 141 0
140 156 0
130 147 0
128 144 0
129 145 0
128 145 0
128 142 0
133 149 0
128 145 0
131 148 0
126 142 0
137 153 0
125 141 0
132 147 0
133 151 0
138 155 0
137 155 0
140 157 0
128 144 0
137 156 0
134 152 0
137 156 0
137 153 0
142 161 0
135 152 0
140 157 0
139 156 0
141 158 0
136 153 0
144 161 0
142 158 0
144 161 0
144 161 0
133 152 0
133 152 0
136 153 0
135 151 0
141 156 0
134 151 0
143 160 0
136 153 0
133 150 0
147 163 0
142 158 0
150 168 0
142 160 0
151 167 0
138 156 0
142 159 0
143 160 0
145 161 0
144 161 0
147 164 0
147 165 0
157 173 0
150 166 0
147 165 0
142 158 0
144 160 0
145 160 0
150 166 0
152 169 0
155 171 0
143 158 0
152 169 0
153 169 0
152 169 0
148 163 0
149 165 0
157 175 0
153 172 0
150 167 0
153 170 0
156 175 0
146 164 0
156 173 0
150 166 0
153 172 0
148 165 0
155 171 0
153 170 0
157 175 0
159 177 0
151 165 0
150 168 0
156 174 0
151 170 0
151 169 0
149 165 0
158 177 0
157 175 0
160 179 0
160 178 0
155 172 0
159 176 0
160 178 0
153 172 0
159 178 0
155 172 0
162 180 0
157 176 0
159 178 0
161 180 0
157 176 0
157 177 0
142 158 0
153 172 0
156 175 0
158 176 0
160 181 0
161 179 0
161 179 0
161 180 0
162 180 0
165 184 0
163 182 0
163 181 0
164 183 0
160 178 0
157 174 0
162 181 0
156 175 0
158 177 0
162 181 0
161 180 0
160 179 0
163 183 0
163 184 0
161 181 0
161 181 0
161 181 0
165 185 0
164 184 0
164 183 0
166 185 0
165 185 0
159 180 0
162 181 0
162 180 0
163 182 0
161 180 0
168 187 0
165 185 0
164 184 0
161 180 0
165 184 0
165 184 0
155 176 0
162 182 0
166 187 0
162 183 0
170 194 0
167 190 0
168 191 0
171 195 0
171 195 0
163 187 0
171 194 0
167 191 0
169 192 0
165 189 0
165 188 0
167 191 0
165 189 0
168 192 0
166 190 0
165 188 0
165 187 0
167 191 0
169 193 0
169 191 0
164 188 0
168 191 0
167 191 0
164 187 0
168 192 0
171 194 0
160 183 0
161 184 0
165 188 0
168 192 0
166 189 0
161 185 0
161 184 0
164 188 0
164 187 0
166 189 0
162 186 0
166 190 0
162 185 0
168 190 0
158 182 0
166 189 0
157 180 0
167 189 0
158 182 0
162 185 0
160 183 0
160 183 0
162 185 0
163 186 0
156 179 0
159 181 0
162 185 0
155 178 0
156 179 0
158 181 0
154 177 0
157 181 0
161 184 0
162 185 0
149 172 0
157 178 0
156 179 0
153 175 0
153 177 0
159 181 0
150 172 0
159 183 0
150 172 0
155 178 0
155 177 0
145 167 0
160 183 0
153 175 0
160 183 0
149 171 0
145 167 0
146 168 0
142 164 0
145 167 0
137 159 0
132 153 0
142 163 0
137 159 0
143 164 0
143 164 0
144 166 0
134 156 0
140 161 0
138 159 0
134 155 0
127 147 0
132 152 0
135 155 0
112 132 0
129 150 31
117 138 60
112 133 57
93 116 67
94 118 70
67 97 99
54 86 97
55 88 94
55 88 95
58 91 110
56 89 100
56 89 108
57 90 105
58 91 92
55 88 108
58 91 118
59 93 124
57 90 95
56 90 108
58 93 125
57 90 113
58 92 111
58 91 118
58 92 120
58 92 113
58 92 124
59 93 134
60 94 134
60 95 140
58 92 121
65 98 134
61 96 145
66 97 129
68 96 122
65 95 129
70 98 123
64 95 121
77 102 129
70 98 120
78 103 132
83 107 132
75 100 120
77 102 128
71 97 99
70 97 124
70 98 108
69 98 111
72 101 102
72 101 105
69 100 108
61 94 120
66 98 103
67 97 114
72 102 107
58 91 114
70 101 110
64 95 111
66 98 122
59 90 82
66 96 100
60 92 95
67 97 108
60 91 99
56 89 105
62 94 115
58 91 105
57 90 113
56 89 107
56 90 114
58 92 121
57 90 115
56 89 113
59 93 124
57 90 110
58 92 124
58 91 113
58 92 115
58 92 118
58 92 120
58 91 107
59 93 115
58 92 115
58 91 108
57 91 115
56 90 110
57 90 102
58 91 113
56 90 118
57 91 115
57 91 103
57 90 117
57 91 114
59 93 122
58 91 117
57 90 102
59 92 120
56 89 100
57 91 117
58 92 121
57 91 114
57 91 113
57 90 115
57 90 118
57 90 108
57 90 110
58 92 120
58 92 122
56 89 94
56 89 108
57 90 121
57 90 103
57 90 110
57 91 102
55 87 100
58 91 107
56 88 107
58 92 121
57 89 107
54 86 86
56 89 99
56 88 110
56 88 99
55 86 94
55 87 99
53 84 88
57 90 107
53 84 88
52 84 82
73 99 88
79 100 70
103 120 18
109 123 0
101 114 0
106 120 0
110 124 0
104 120 0
96 113 0
95 109 0
119 133 0
110 126 0
113 128 0
112 128 0
119 134 0
118 135 0
118 134 0
135 151 0
124 139 0
132 148 0
116 132 0
121 137 0
126 142 0
123 140 0
121 137 0
116 134 0
123 139 0
121 138 0
129 145 0
122 140 0
133 148 0
123 137 0
128 144 0
129 147 0
130 147 0
124 142 0
133 151 0
131 147 0
133 149 0
126 143 0
129 147 0
129 145 0
133 151 0
135 153 0
136 155 0
131 147 0
133 151 0
132 151 0
133 150 0
141 160 0
139 157 0
134 150 0
141 159 0
134 150 0
135 152 0
143 160 0
141 159 0
133 150 0
144 164 0
139 156 0
143 162 0
142 160 0
144 162 0
131 147 0
140 158 0
139 157 0
136 153 0
139 155 0
146 163 0
141 159 0
130 149 0
140 157 0
148 167 0
140 157 0
155 174 0
139 155 0
145 160 0
144 161 0
152 167 0
150 167 0
152 170 0
147 164 0
136 154 0
145 162 0
148 164 0
148 165 0
142 159 0
153 171 0
156 172 0
151 171 0
148 165 0
158 177 0
153 171 0
143 160 0
153 172 0
155 173 0
156 174 0
158 174 0
153 171 0
150 167 0
144 161 0
149 168 0
150 168 0
154 173 0
154 172 0
149 163 0
147 163 0
153 172 0
151 169 0
159 177 0
152 170 0
147 166 0
149 165 0
154 172 0
158 178 0
152 170 0
160 180 0
152 170 0
159 176 0
157 172 0
157 175 0
155 172 0
154 172 0
158 178 0
157 174 0
159 177 0
154 171 0
164 181 0
159 178 0
158 177 0
163 180 0
158 176 0
155 173 0
158 176 0
161 179 0
159 177 0
161 180 0
165 185 0
155 175 0
163 183 0
161 182 0
160 179 0
160 179 0
165 184 0
161 180 0
157 175 0
162 181 0
165 184 0
159 177 0
164 185 0
161 180 0
156 174 0
164 183 0
163 182 0
169 190 0
159 178 0
168 186 0
162 182 0
160 179 0
162 179 0
159 178 0
164 183 0
164 184 0
167 186 0
160 180 0
162 183 0
164 184 0
168 187 0
165 183 0
162 181 0
161 182 0
172 192 0
164 183 0
166 187 0
164 185 0
166 185 0
165 186 0
169 192 0
169 193 0
167 190 0
168 191 0
173 197 0
165 189 0
167 189 0
166 189 0
168 191 0
171 194 0
166 190 0
167 191 0
169 192 0
170 193 0
168 191 0
171 194 0
166 190 0
163 187 0
163 186 0
167 191 0
165 190 0
165 188 0
169 192 0
162 185 0
163 186 0
170 193 0
170 193 0
166 190 0
163 187 0
160 184 0
166 190 0
167 190 0
170 192 0
165 189 0
164 187 0
163 187 0
164 187 0
161 185 0
162 185 0
166 188 0
167 190 0
165 188 0
161 184 0
166 190 0
162 185 0
164 188 0
160 183 0
161 184 0
163 185 0
158 181 0
156 179 0
154 177 0
161 185 0
158 181 0
158 181 0
156 179 0
155 178 0
160 184 0
158 181 0
158 181 0
150 173 0
158 181 0
151 174 0
155 177 0
152 174 0
161 184 0
154 176 0
152 175 0
160 182 0
150 174 0
154 178 0
146 169 0
143 166 0
149 172 0
150 172 0
144 167 0
141 163 0
158 180 0
154 176 0
146 169 0
150 171 0
140 162 0
137 159 0
150 172 0
143 164 0
138 160 0
136 158 0
144 166 0
128 149 0
138 158 0
134 155 0
126 147 0
126 147 0
138 158 0
121 142 0
131 151 0
116 136 18
114 136 40
109 130 51
94 117 70
86 110 76
65 95 92
53 84 84
56 89 105
54 86 100
55 88 97
56 88 105
56 89 111
57 90 107
58 91 111
55 88 114
56 88 107
57 91 105
58 92 125
56 89 105
58 92 126
56 90 111
58 92 120
58 92 125
57 90 113
58 92 128
59 93 135
59 94 129
58 91 121
60 93 125
60 91 120
62 95 139
64 95 129
66 96 129
71 99 125
74 102 132
75 104 135
72 97 111
81 105 122
84 108 115
78 103 127
86 109 124
88 112 116
79 104 113
65 95 110
69 97 113
75 103 118
66 95 100
72 101 112
70 100 107
73 100 82
70 100 105
65 96 105
70 100 103
70 100 111
65 96 108
74 103 105
61 93 97
62 93 97
56 87 95
59 91 97
59 91 115
57 91 105
60 93 117
61 92 111
57 90 103
59 93 115
56 89 107
57 91 114
56 89 100
57 90 108
58 91 122
57 91 122
56 89 113
59 93 120
57 91 121
57 90 110
58 91 110
57 91 105
57 91 118
57 90 110
58 91 110
58 91 107
57 91 115
57 91 118
59 93 125
60 93 122
57 90 110
57 91 113
58 92 118
57 90 105
56 90 110
59 93 113
58 91 118
57 90 114
58 91 111
56 89 100
58 92 118
58 91 103
56 89 102
59 93 121
56 89 108
57 90 115
55 88 107
57 90 114
56 88 102
57 90 111
58 92 111
56 89 108
58 92 118
56 88 94
58 92 118
56 89 105
56 89 108
56 89 117
57 89 107
55 88 95
55 87 103
55 87 100
56 89 103
55 88 102
54 86 105
57 90 114
56 88 103
56 89 108
55 87 95
59 87 92
80 102 60
87 107 51
94 110 18
98 112 0
109 124 0
93 108 0
119 135 0
119 133 0
111 127 0
126 141 0
116 132 0
101 115 0
109 124 0
111 126 0
116 131 0
115 132 0
116 132 0
121 138 0
112 129 0
118 133 0
109 124 0
123 138 0
99 115 0
119 136 0
113 131 0
116 134 0
133 151 0
122 138 0
127 145 0
121 135 0
125 143 0
124 140 0
124 140 0
137 153 0
125 141 0
126 144 0
128 143 0
131 148 0
122 137 0
135 151 0
129 144 0
130 149 0
143 163 0
128 144 0
134 151 0
130 147 0
144 162 0
135 152 0
134 151 0
126 141 0
138 156 0
130 146 0
142 160 0
141 157 0
140 158 0
144 163 0
143 160 0
142 160 0
140 157 0
138 155 0
140 157 0
142 161 0
141 159 0
139 158 0
146 163 0
145 162 0
138 158 0
138 157 0
145 161 0
144 160 0
148 166 0
144 161 0
146 163 0
146 165 0
144 162 0
144 163 0
148 165 0
138 154 0
148 165 0
142 159 0
142 158 0
152 171 0
149 167 0
147 164 0
141 156 0
143 159 0
153 172 0
144 162 0
155 173 0
151 170 0
150 170 0
157 173 0
149 166 0
149 167 0
144 159 0
152 169 0
149 168 0
151 168 0
148 167 0
152 169 0
146 163 0
154 171 0
152 171 0
155 173 0
156 173 0
153 172 0
160 180 0
150 167 0
162 179 0
146 162 0
152 166 0
153 170 0
157 176 0
155 173 0
152 168 0
155 171 0
160 180 0
150 169 0
160 179 0
156 174 0
158 177 0
158 175 0
152 169 0
163 181 0
155 173 0
161 178 0
163 182 0
158 175 0
159 179 0
156 176 0
161 179 0
158 177 0
158 177 0
158 177 0
161 180 0
157 175 0
158 178 0
157 176 0
159 177 0
161 181 0
157 176 0
166 186 0
160 178 0
160 179 0
160 180 0
158 176 0
164 183 0
161 181 0
164 183 0
163 180 0
163 184 0
161 181 0
165 183 0
162 181 0
161 179 0
165 185 0
156 175 0
165 186 0
162 181 0
165 184 0
169 190 0
166 185 0
162 183 0
160 179 0
165 185 0
166 186 0
159 177 0
162 180 0
168 186 0
167 188 0
165 185 0
167 188 0
166 186 0
164 184 0
169 190 0
165 186 0
163 181 0
167 188 0
173 196 0
166 190 0
169 193 0
164 186 0
169 192 0
165 188 0
170 194 0
170 193 0
168 192 0
167 191 0
169 192 0
169 192 0
167 190 0
166 190 0
166 190 0
166 189 0
165 189 0
169 192 0
166 189 0
167 190 0
162 185 0
170 193 0
160 184 0
167 191 0
165 188 0
166 190 0
164 188 0
164 187 0
165 188 0
165 189 0
159 182 0
165 188 0
163 186 0
166 189 0
163 186 0
165 188 0
162 186 0
161 185 0
157 181 0
164 187 0
162 186 0
155 178 0
160 183 0
162 185 0
160 184 0
164 187 0
164 187 0
155 177 0
162 185 0
159 182 0
166 189 0
161 184 0
159 182 0
164 186 0
160 183 0
162 185 0
161 184 0
160 183 0
155 178 0
154 177 0
150 173 0
160 183 0
159 182 0
149 172 0
154 177 0
158 181 0
150 173 0
148 171 0
154 178 0
155 177 0
154 176 0
157 179 0
158 180 0
150 172 0
148 169 0
145 168 0
140 163 0
146 169 0
146 168 0
153 175 0
141 164 0
138 159 0
132 153 0
139 160 0
143 165 0
142 162 0
146 167 0
137 158 0
139 161 0
138 159 0
143 163 0
137 157 0
119 139 0
133 153 0
134 154 0
127 148 0
127 147 18
107 127 31
113 134 51
92 113 51
97 120 51
84 108 60
67 95 84
54 86 88
55 87 92
57 90 105
56 88 100
55 87 97
55 88 102
57 91 95
57 90 108
57 91 110
56 90 108
57 91 110
58 92 113
56 90 114
58 91 111
56 90 102
59 94 131
59 93 124
58 92 115
58 91 118
59 92 128
61 95 134
62 94 129
59 92 118
67 95 124
65 93 115
74 101 124
60 92 121
71 99 128
79 103 120
78 103 123
75 100 119
75 102 111
85 105 129
82 104 117
86 108 117
77 101 118
79 105 111
71 101 111
71 100 107
71 99 104
70 99 108
73 103 108
69 99 94
70 100 105
66 96 110
78 107 111
70 100 107
65 93 95
63 94 102
68 97 97
64 96 111
59 89 99
62 93 100
67 97 102
58 91 100
63 94 95
58 91 115
61 94 111
58 92 120
57 91 111
57 91 114
59 93 111
57 91 103
57 90 113
57 90 107
58 92 120
56 89 113
59 92 105
56 90 102
56 88 102
58 91 121
57 90 114
57 90 114
56 89 108
57 91 111
57 90 107
55 88 114
58 91 115
57 90 108
56 89 102
56 89 103
58 92 118
57 90 111
59 92 125
57 91 118
57 89 114
58 92 113
57 90 111
57 90 110
54 86 99
56 89 108
57 90 117
59 93 113
56 89 110
58 91 105
57 90 113
57 91 111
57 90 113
58 91 108
57 90 115
56 89 102
58 92 120
56 89 105
54 86 94
56 88 110
58 92 114
56 89 110
55 88 100
55 87 100
57 90 110
57 90 121
55 87 94
54 85 100
52 84 86
53 84 90
54 86 94
53 85 97
70 94 70
89 105 44
87 105 54
106 121 25
102 115 0
99 115 0
101 116 0
103 120 0
115 131 0
112 128 0
113 129 0
112 128 0
107 120 0
110 125 0
109 125 0
109 125 0
120 136 0
98 114 0
114 130 0
104 120 0
114 129 0
121 138 0
121 136 0
125 141 0
131 147 0
128 145 0
115 131 0
107 122 0
133 150 0
126 142 0
120 137 0
132 149 0
132 151 0
126 143 0
132 149 0
127 146 0
128 144 0
124 140 0
136 152 0
120 138 0
129 147 0
142 159 0
122 139 0
137 154 0
132 150 0
134 150 0
135 152 0
134 152 0
135 151 0
130 147 0
142 162 0
131 150 0
140 158 0
130 148 0
139 155 0
141 159 0
144 162 0
136 153 0
130 148 0
137 155 0
138 156 0
142 161 0
142 160 0
137 155 0
139 155 0
140 157 0
154 173 0
137 154 0
142 161 0
145 162 0
143 160 0
150 168 0
146 166 0
145 164 0
150 168 0
144 163 0
143 160 0
150 169 0
150 169 0
140 157 0
147 164 0
141 157 0
146 165 0
147 165 0
145 164 0
153 171 0
147 164 0
150 169 0
151 170 0
147 165 0
150 169 0
152 171 0
143 161 0
149 167 0
151 168 0
151 168 0
156 173 0
149 166 0
152 171 0
157 176 0
152 168 0
157 174 0
158 176 0
149 167 0
147 163 0
149 167 0
155 173 0
153 172 0
148 164 0
155 174 0
149 168 0
154 171 0
158 178 0
157 175 0
153 171 0
149 167 0
152 172 0
155 174 0
162 181 0
156 175 0
155 173 0
158 175 0
156 173 0
161 177 0
153 173 0
157 177 0
152 168 0
156 172 0
156 174 0
157 174 0
158 176 0
155 173 0
158 177 0
162 180 0
163 182 0
158 178 0
162 181 0
157 173 0
161 180 0
160 179 0
156 173 0
157 176 0
157 174 0
157 173 0
159 177 0
159 177 0
161 179 0
161 180 0
161 181 0
167 187 0
163 183 0
160 180 0
158 177 0
159 178 0
168 186 0
160 178 0
162 182 0
160 177 0
163 182 0
164 185 0
161 180 0
163 184 0
160 178 0
160 181 0
167 185 0
166 187 0
165 185 0
166 184 0
158 178 0
167 188 0
165 183 0
165 184 0
164 185 0
163 184 0
160 179 0
163 184 0
162 183 0
171 191 0
162 183 0
167 188 0
168 192 0
167 191 0
166 190 0
170 193 0
167 191 0
169 193 0
169 192 0
171 195 0
171 194 0
167 191 0
169 193 0
168 191 0
165 189 0
167 190 0
164 187 0
168 191 0
168 192 0
166 189 0
166 189 0
161 185 0
164 187 0
163 187 0
163 186 0
165 188 0
169 191 0
166 190 0
164 187 0
162 186 0
167 190 0
163 187 0
168 191 0
162 185 0
164 188 0
165 189 0
162 186 0
165 188 0
171 194 0
165 189 0
165 188 0
169 191 0
159 182 0
164 187 0
166 189 0
157 181 0
158 181 0
164 186 0
161 185 0
165 188 0
166 189 0
164 187 0
153 176 0
158 182 0
162 185 0
157 181 0
160 183 0
161 184 0
162 185 0
157 180 0
158 182 0
161 184 0
155 177 0
151 174 0
158 181 0
150 172 0
153 176 0
156 178 0
147 170 0
145 168 0
157 180 0
148 171 0
152 174 0
145 166 0
153 176 0
153 174 0
150 172 0
154 176 0
155 177 0
145 167 0
143 165 0
141 162 0
149 171 0
156 179 0
140 160 0
153 174 0
140 162 0
132 154 0
133 155 0
129 151 0
139 160 0
136 157 0
132 152 0
132 152 0
131 151 0
125 145 0
134 154 0
127 147 0
128 148 0
129 148 18
129 149 18
115 135 36
92 113 54
98 122 82
76 102 72
55 86 86
58 90 90
54 86 95
57 89 94
55 88 103
57 89 107
55 87 97
54 86 90
56 90 95
57 90 103
57 90 113
59 93 120
56 89 108
56 90 105
58 92 117
57 91 110
59 93 126
58 92 125
59 93 125
58 92 121
63 94 118
59 93 117
61 93 117
77 103 121
63 94 121
75 100 109
71 100 121
81 107 127
74 102 129
77 102 115
79 107 129
78 101 109
76 100 111
80 105 113
84 109 117
73 102 129
82 106 103
81 107 107
76 103 100
69 98 100
68 97 111
72 101 107
71 100 108
69 98 82
70 99 92
64 95 114
67 97 99
75 104 99
65 96 108
58 90 94
67 98 110
64 96 113
68 98 105
69 99 107
62 93 103
59 91 108
60 92 108
62 93 114
55 88 100
55 88 103
56 88 111
57 91 111
57 90 105
56 89 105
56 90 102
55 88 102
57 90 100
58 91 114
58 92 117
57 90 111
58 91 118
56 89 105
59 92 115
57 91 110
56 88 102
57 90 115
58 91 113
57 90 114
57 90 108
58 91 105
58 92 113
58 91 113
57 90 108
56 89 103
56 90 97
56 89 113
57 90 110
56 89 105
58 92 122
57 90 110
57 90 110
56 90 99
56 89 94
56 89 97
56 89 113
57 90 114
57 90 108
56 90 105
57 90 113
55 88 102
54 86 113
55 87 95
57 89 114
55 88 95
57 89 113
57 90 100
54 86 97
56 88 97
51 82 88
57 90 114
56 88 100
56 89 107
54 86 88
54 86 94
55 85 95
62 90 78
83 104 62
99 116 57
75 91 0
100 115 18
104 120 0
91 105 0
112 128 0
117 132 0
114 128 0
116 130 0
109 125 0
114 128 0
111 128 0
107 124 0
106 121 0
110 128 0
120 137 0
115 131 0
110 128 0
113 128 0
115 131 0
123 141 0
120 136 0
111 127 0
118 135 0
126 143 0
127 141 0
132 149 0
127 143 0
135 153 0
121 137 0
125 142 0
114 132 0
128 147 0
131 147 0
133 150 0
136 155 0
134 152 0
129 146 0
121 137 0
132 150 0
130 147 0
127 146 0
127 145 0
127 144 0
131 147 0
140 160 0
127 143 0
135 152 0
143 161 0
142 159 0
136 153 0
133 151 0
134 153 0
136 154 0
138 156 0
138 155 0
136 153 0
145 165 0
141 159 0
137 155 0
141 159 0
135 153 0
142 161 0
149 167 0
135 153 0
143 162 0
146 164 0
148 168 0
146 164 0
142 159 0
146 163 0
140 158 0
140 159 0
147 165 0
143 161 0
145 162 0
154 172 0
141 159 0
154 172 0
145 162 0
143 161 0
154 172 0
150 170 0
147 164 0
150 167 0
147 164 0
146 163 0
143 163 0
142 160 0
155 174 0
143 162 0
149 166 0
146 166 0
146 165 0
152 170 0
150 168 0
144 160 0
148 165 0
154 173 0
155 174 0
153 170 0
152 172 0
152 169 0
156 175 0
158 177 0
155 173 0
154 172 0
161 182 0
150 169 0
145 161 0
159 178 0
155 176 0
153 173 0
159 178 0
152 169 0
159 177 0
156 173 0
154 174 0
158 176 0
147 165 0
154 173 0
154 174 0
157 176 0
151 167 0
159 177 0
155 175 0
160 181 0
157 176 0
156 172 0
155 174 0
156 174 0
157 175 0
160 180 0
157 175 0
156 176 0
162 183 0
158 179 0
158 177 0
157 176 0
158 177 0
157 177 0
163 182 0
155 174 0
164 183 0
157 176 0
164 183 0
159 177 0
160 179 0
160 177 0
157 176 0
160 178 0
164 183 0
167 187 0
159 178 0
166 184 0
162 181 0
161 179 0
166 187 0
162 182 0
164 185 0
168 188 0
164 182 0
157 174 0
168 188 0
162 181 0
165 185 0
161 180 0
164 183 0
166 187 0
165 186 0
164 182 0
163 181 0
166 187 0
169 189 0
165 185 0
162 183 0
163 184 0
161 180 0
166 188 0
168 189 0
171 195 0
167 190 0
165 189 0
166 190 0
171 194 0
167 191 0
168 191 0
165 188 0
166 190 0
168 191 0
168 191 0
166 190 0
165 189 0
163 186 0
167 191 0
167 191 0
167 191 0
166 190 0
164 188 0
170 193 0
167 191 0
165 189 0
167 191 0
165 188 0
167 190 0
165 189 0
168 191 0
164 187 0
166 189 0
159 182 0
161 185 0
163 186 0
156 179 0
163 186 0
162 186 0
164 186 0
162 186 0
163 187 0
161 184 0
160 183 0
161 184 0
165 188 0
159 181 0
160 184 0
159 181 0
164 188 0
155 179 0
161 184 0
161 184 0
159 183 0
160 183 0
165 188 0
155 177 0
156 179 0
162 185 0
162 186 0
159 182 0
158 181 0
156 179 0
156 178 0
155 178 0
151 174 0
153 176 0
155 179 0
154 176 0
153 175 0
148 170 0
159 182 0
141 162 0
147 170 0
153 176 0
153 174 0
150 173 0
153 176 0
143 165 0
152 175 0
154 176 0
140 163 0
141 163 0
154 176 0
139 160 0
144 167 0
135 157 0
142 163 0
149 171 0
145 167 0
142 163 0
147 168 0
146 168 0
134 154 0
142 163 0
131 152 0
139 159 0
136 156 0
130 150 0
130 150 0
127 148 0
130 149 0
120 140 25
105 125 44
105 125 47
109 131 54
82 106 65
82 106 70
57 87 88
65 95 84
53 85 84
56 89 105
56 88 97
54 86 88
56 89 94
56 89 102
57 91 99
58 91 121
55 88 100
57 91 117
57 90 122
57 91 118
56 88 102
57 91 113
58 92 131
58 91 111
58 92 124
60 93 120
66 97 129
63 95 120
60 94 126
69 98 120
67 97 125
78 106 125
74 102 128
78 106 135
93 113 114
83 107 110
85 108 111
87 113 108
87 110 112
86 109 99
85 111 114
84 108 99
72 100 108
78 105 110
88 113 105
79 107 120
78 105 110
74 102 105
67 97 92
66 95 92
66 97 103
77 105 105
65 95 99
63 93 100
67 96 97
61 91 107
70 99 100
69 98 94
59 90 100
71 100 105
61 92 95
58 90 102
62 95 102
58 91 102
57 91 115
56 89 111
55 88 100
56 89 103
56 89 113
55 87 102
56 89 100
57 90 97
57 89 110
58 91 110
56 89 105
56 89 99
57 91 114
57 91 108
56 89 107
56 89 103
57 90 110
57 90 97
58 91 115
55 88 97
57 90 108
55 88 105
57 91 103
56 89 103
56 89 102
55 87 102
56 89 92
57 90 113
55 88 94
54 86 94
59 92 115
58 92 111
56 88 102
56 89 102
55 88 108
55 88 95
56 88 105
56 88 103
56 89 102
56 88 107
56 89 107
58 91 114
58 91 111
57 90 111
55 87 102
55 87 97
57 90 114
54 87 90
54 85 102
53 85 94
53 84 94
54 86 82
55 87 105
52 82 82
50 78 76
70 93 78
92 109 44
90 105 0
102 116 0
108 120 0
85 99 0
116 132 0
103 116 0
104 120 0
110 126 0
115 130 0
106 121 0
112 128 0
120 136 0
106 121 0
110 125 0
114 128 0
108 123 0
117 133 0
119 137 0
124 140 0
126 143 0
119 136 0
121 139 0
125 142 0
123 141 0
128 144 0
121 136 0
120 137 0
117 133 0
127 142 0
124 139 0
124 139 0
119 136 0
122 141 0
136 153 0
131 149 0
141 159 0
130 149 0
135 152 0
129 147 0
127 145 0
132 149 0
135 152 0
136 154 0
124 142 0
132 149 0
134 150 0
131 148 0
137 153 0
131 147 0
134 154 0
141 159 0
140 159 0
146 165 0
135 151 0
136 153 0
139 158 0
144 161 0
144 162 0
135 153 0
135 151 0
139 158 0
136 153 0
140 160 0
148 168 0
145 163 0
132 148 0
138 158 0
144 162 0
138 156 0
150 169 0
146 163 0
147 166 0
147 165 0
144 163 0
146 165 0
140 158 0
152 174 0
140 158 0
142 160 0
148 164 0
144 160 0
147 164 0
149 167 0
148 166 0
155 171 0
152 171 0
151 169 0
142 159 0
138 157 0
146 166 0
154 171 0
150 169 0
141 160 0
153 172 0
153 172 0
153 171 0
152 173 0
159 178 0
152 170 0
157 177 0
145 163 0
152 172 0
151 170 0
148 167 0
146 165 0
145 164 0
151 169 0
159 176 0
147 166 0
159 178 0
150 169 0
152 169 0
157 175 0
157 176 0
158 177 0
158 177 0
152 171 0
149 168 0
158 174 0
156 172 0
160 178 0
152 169 0
152 171 0
158 176 0
157 176 0
159 178 0
157 176 0
152 170 0
155 174 0
163 182 0
164 184 0
158 177 0
156 173 0
159 178 0
159 178 0
158 176 0
160 179 0
162 182 0
152 171 0
163 182 0
159 179 0
161 179 0
161 180 0
167 187 0
160 179 0
153 170 0
161 180 0
157 175 0
153 172 0
161 179 0
160 179 0
156 175 0
159 177 0
161 184 0
164 183 0
161 181 0
163 183 0
162 180 0
163 183 0
159 176 0
166 185 0
161 180 0
164 184 0
161 177 0
159 178 0
166 185 0
166 185 0
165 185 0
167 188 0
166 186 0
161 180 0
163 183 0
162 183 0
164 184 0
165 186 0
167 189 0
166 186 0
165 184 0
166 186 0
169 190 0
164 184 0
171 194 0
168 191 0
169 193 0
167 191 0
167 191 0
167 190 0
168 192 0
166 190 0
165 188 0
168 191 0
165 188 0
166 189 0
167 191 0
166 190 0
163 188 0
168 191 0
171 194 0
164 187 0
167 190 0
163 187 0
169 193 0
165 189 0
172 195 0
164 188 0
163 186 0
163 187 0
169 193 0
166 189 0
161 184 0
167 190 0
164 187 0
163 186 0
168 191 0
158 181 0
165 188 0
161 185 0
160 183 0
163 186 0
165 189 0
163 185 0
164 187 0
164 188 0
165 189 0
162 185 0
155 177 0
156 179 0
162 185 0
159 183 0
160 184 0
164 187 0
167 190 0
159 182 0
164 188 0
163 187 0
156 179 0
156 178 0
160 183 0
160 184 0
159 182 0
160 183 0
153 177 0
149 171 0
157 180 0
155 178 0
152 174 0
155 179 0
152 175 0
151 174 0
149 173 0
155 177 0
153 176 0
155 177 0
147 169 0
154 177 0
150 173 0
150 173 0
148 170 0
138 160 0
145 167 0
145 166 0
148 171 0
136 158 0
140 161 0
142 163 0
142 164 0
136 157 0
136 157 0
137 157 0
124 146 0
137 157 0
132 152 0
135 156 0
123 143 0
135 154 0
138 158 0
123 144 0
128 147 0
123 144 0
128 148 0
116 135 18
111 131 31
116 135 44
102 123 57
88 111 67
74 100 74
67 93 78
61 91 90
56 90 110
56 90 100
56 89 94
57 90 97
54 86 102
54 86 99
56 89 103
58 92 107
56 89 105
58 91 117
56 89 111
58 91 117
56 89 107
58 91 121
58 92 124
58 92 115
60 92 118
63 93 113
69 98 124
62 90 117
65 94 124
78 105 126
77 104 120
78 106 124
78 103 102
87 111 118
82 106 115
87 110 109
90 114 108
88 110 109
85 109 105
93 117 107
88 111 107
86 110 105
80 106 100
99 125 110
78 107 114
76 102 90
72 100 102
66 96 103
77 106 108
69 99 108
69 97 99
74 102 102
72 100 95
70 98 90
68 97 108
71 100 95
74 103 114
63 94 97
63 93 107
63 94 94
63 93 88
60 91 105
56 89 100
56 89 95
55 87 95
57 91 103
57 90 108
56 88 105
57 90 117
57 91 118
56 89 105
55 87 108
57 90 113
58 92 115
57 91 110
57 90 102
54 87 90
56 89 110
57 90 124
58 92 100
56 89 103
57 90 103
57 90 107
57 91 110
57 90 111
57 91 110
55 87 90
56 89 114
58 91 122
57 90 107
55 88 90
58 91 113
56 89 108
55 88 102
56 90 102
54 86 88
58 92 114
56 88 103
56 88 102
56 89 108
54 86 99
55 87 105
56 88 108
56 89 90
56 89 107
55 88 94
56 88 108
54 86 99
56 89 105
55 87 90
55 87 102
52 83 88
54 86 102
55 87 97
56 87 94
59 87 90
76 99 54
77 95 40
87 106 44
103 118 0
92 105 0
98 113 0
104 120 0
107 121 0
103 117 0
112 129 0
106 122 0
100 116 0
108 124 0
109 124 0
116 131 0
117 132 0
103 121 0
110 125 0
123 139 0
117 132 0
119 136 0
121 136 0
122 138 0
127 143 0
114 130 0
115 134 0
111 126 0
123 138 0
117 134 0
114 130 0
129 147 0
128 144 0
126 142 0
126 142 0
121 140 0
129 143 0
133 150 0
138 156 0
127 145 0
136 152 0
125 143 0
132 149 0
135 152 0
123 139 0
132 148 0
136 154 0
128 145 0
133 151 0
146 162 0
135 156 0
134 152 0
137 155 0
144 160 0
131 148 0
147 166 0
134 151 0
142 159 0
137 155 0
139 157 0
140 158 0
142 159 0
155 174 0
146 166 0
148 167 0
137 156 0
145 164 0
134 151 0
144 162 0
136 154 0
146 164 0
148 166 0
139 158 0
144 162 0
153 170 0
150 170 0
149 168 0
147 164 0
143 161 0
152 170 0
138 155 0
144 163 0
147 167 0
151 172 0
142 160 0
149 167 0
148 167 0
156 174 0
153 169 0
153 173 0
146 165 0
148 168 0
150 169 0
150 169 0
148 167 0
148 165 0
150 170 0
155 173 0
154 172 0
150 166 0
147 165 0
150 168 0
158 177 0
148 166 0
150 168 0
153 172 0
153 171 0
155 172 0
160 180 0
156 174 0
153 173 0
154 175 0
156 174 0
155 174 0
150 168 0
145 163 0
156 174 0
149 167 0
159 177 0
160 179 0
155 171 0
149 169 0
158 176 0
159 179 0
154 171 0
150 169 0
160 180 0
151 170 0
152 171 0
151 170 0
160 180 0
155 173 0
156 175 0
157 173 0
155 174 0
164 183 0
158 178 0
155 174 0
160 180 0
160 182 0
158 176 0
158 177 0
160 179 0
157 177 0
158 178 0
162 182 0
161 180 0
160 179 0
161 180 0
160 180 0
166 186 0
161 180 0
163 183 0
161 182 0
161 180 0
162 180 0
161 181 0
162 183 0
162 181 0
158 180 0
159 180 0
163 183 0
166 185 0
164 184 0
160 181 0
159 180 0
157 177 0
166 187 0
162 182 0
162 182 0
167 188 0
162 183 0
165 186 0
160 180 0
164 183 0
163 185 0
166 185 0
159 179 0
164 185 0
167 187 0
160 180 0
166 186 0
164 184 0
163 184 0
163 185 0
171 191 0
165 189 0
170 193 0
168 191 0
167 190 0
166 189 0
162 186 0
168 191 0
164 188 0
166 190 0
169 192 0
168 192 0
162 186 0
166 191 0
163 187 0
166 190 0
166 190 0
168 192 0
163 186 0
168 191 0
169 193 0
166 190 0
163 186 0
167 190 0
159 182 0
163 186 0
164 188 0
162 186 0
162 186 0
162 185 0
163 187 0
164 187 0
166 189 0
164 188 0
163 187 0
159 183 0
161 184 0
161 185 0
163 186 0
161 184 0
160 184 0
161 185 0
162 186 0
165 188 0
155 177 0
166 189 0
159 182 0
163 187 0
154 176 0
167 190 0
162 185 0
159 181 0
160 183 0
162 185 0
160 183 0
153 175 0
161 184 0
152 175 0
156 178 0
155 179 0
158 180 0
161 184 0
157 180 0
156 179 0
154 177 0
158 180 0
152 175 0
152 175 0
151 174 0
151 173 0
152 174 0
156 179 0
153 175 0
148 169 0
149 171 0
152 174 0
146 167 0
146 168 0
150 172 0
144 165 0
151 173 0
140 162 0
145 166 0
146 167 0
139 161 0
142 163 0
146 168 0
136 157 0
136 156 0
135 156 0
139 160 0
140 161 0
139 160 0
141 161 0
130 151 0
133 153 0
123 143 0
124 143 0
127 145 0
123 143 0
121 141 0
115 135 36
117 137 36
108 127 31
89 110 57
87 109 47
80 104 72
75 102 80
56 86 74
53 85 94
52 83 88
57 90 110
53 85 92
57 90 102
56 88 97
55 87 107
58 91 105
56 89 97
55 88 110
56 89 108
58 91 110
58 92 114
60 92 107
60 93 110
58 92 120
64 97 128
67 97 121
71 101 133
74 101 107
80 106 111
77 101 115
71 100 124
79 103 125
90 112 109
83 106 115
84 110 114
91 115 105
99 120 95
99 121 97
83 107 107
73 99 99
84 110 111
87 111 107
79 107 103
80 107 102
77 103 111
74 101 95
72 99 97
77 105 90
68 98 102
59 89 99
66 97 100
70 99 103
70 100 94
63 93 97
70 98 94
66 97 107
59 90 97
65 95 99
64 96 111
60 90 86
65 95 95
58 91 114
56 88 113
56 89 99
54 86 97
56 89 113
54 86 100
55 88 95
55 88 99
56 89 95
57 91 117
56 89 94
57 91 113
58 92 113
55 88 100
56 89 105
55 88 88
58 91 120
56 89 99
56 90 92
57 90 105
56 89 105
55 88 99
56 89 107
56 89 103
57 90 110
55 87 99
58 92 118
54 86 97
56 89 100
57 89 103
54 86 99
58 91 118
57 90 99
54 86 92
56 89 102
54 86 99
55 88 105
56 89 107
56 89 100
53 85 95
53 85 97
54 85 100
54 86 100
53 84 90
55 87 99
55 87 95
55 87 100
54 86 94
54 86 95
53 85 88
54 85 92
56 86 95
69 90 65
85 104 44
105 121 36
105 120 18
100 115 0
101 117 0
95 110 0
103 120 0
103 118 0
100 116 0
101 115 0
114 131 0
99 115 0
107 122 0
115 133 0
106 122 0
115 129 0
111 128 0
123 140 0
111 125 0
116 134 0
115 131 0
116 132 0
110 126 0
116 134 0
112 130 0
102 119 0
116 134 0
126 143 0
129 148 0
125 142 0
119 138 0
124 144 0
122 140 0
131 150 0
127 146 0
116 133 0
127 144 0
140 156 0
129 145 0
136 155 0
128 145 0
134 151 0
128 142 0
143 161 0
135 154 0
146 165 0
132 150 0
124 144 0
124 141 0
128 144 0
129 148 0
136 156 0
139 157 0
141 159 0
149 168 0
140 159 0
141 160 0
137 156 0
137 154 0
134 154 0
144 161 0
139 156 0
132 152 0
141 160 0
144 164 0
137 155 0
147 165 0
141 160 0
147 166 0
148 166 0
138 155 0
138 155 0
149 168 0
141 159 0
145 164 0
143 159 0
147 165 0
141 158 0
147 163 0
156 174 0
146 163 0
148 165 0
157 175 0
143 162 0
152 169 0
149 166 0
153 174 0
148 167 0
145 162 0
136 153 0
153 170 0
140 161 0
152 171 0
148 166 0
151 172 0
156 174 0
153 172 0
144 161 0
150 170 0
161 180 0
155 172 0
148 167 0
144 160 0
155 174 0
146 164 0
147 167 0
145 162 0
156 175 0
156 173 0
159 177 0
158 177 0
150 167 0
151 169 0
162 180 0
158 176 0
146 164 0
155 174 0
153 172 0
150 169 0
151 169 0
151 171 0
155 175 0
154 172 0
159 177 0
155 176 0
154 172 0
159 179 0
167 187 0
160 179 0
153 172 0
155 172 0
163 183 0
156 174 0
156 172 0
164 183 0
154 174 0
156 176 0
150 169 0
163 184 0
160 178 0
161 179 0
160 180 0
158 177 0
164 184 0
155 173 0
155 172 0
154 173 0
163 183 0
161 179 0
160 177 0
162 181 0
163 181 0
166 186 0
162 182 0
159 180 0
162 182 0
163 182 0
157 177 0
168 188 0
159 176 0
160 178 0
164 185 0
166 187 0
164 185 0
164 184 0
160 178 0
166 186 0
164 183 0
164 183 0
164 183 0
162 180 0
164 185 0
168 188 0
164 183 0
164 184 0
166 186 0
160 177 0
161 179 0
163 184 0
163 182 0
166 187 0
164 186 0
165 186 0
165 185 0
163 184 0
165 186 0
170 193 0
170 193 0
163 186 0
168 193 0
169 192 0
172 195 0
170 193 0
168 191 0
169 192 0
166 190 0
167 190 0
168 192 0
164 187 0
168 192 0
171 194 0
169 193 0
172 195 0
163 187 0
162 186 0
172 196 0
168 192 0
165 189 0
165 188 0
166 190 0
164 187 0
165 189 0
159 183 0
163 187 0
166 189 0
167 190 0
163 186 0
164 187 0
164 188 0
165 188 0
168 192 0
159 183 0
161 185 0
161 184 0
165 188 0
163 186 0
165 187 0
161 184 0
162 185 0
166 189 0
159 183 0
165 187 0
166 189 0
158 180 0
161 185 0
167 190 0
160 184 0
159 182 0
158 180 0
154 177 0
155 179 0
154 177 0
155 178 0
159 182 0
160 182 0
162 186 0
155 178 0
155 178 0
152 174 0
155 177 0
152 175 0
150 172 0
154 176 0
162 184 0
157 180 0
147 169 0
147 170 0
152 174 0
145 168 0
156 179 0
145 167 0
153 174 0
149 171 0
142 164 0
144 166 0
144 166 0
148 169 0
144 164 0
142 163 0
153 174 0
144 166 0
141 163 0
145 166 0
148 169 0
140 161 0
135 156 0
132 152 0
136 157 0
126 147 0
129 151 0
129 149 0
126 145 0
126 146 0
135 154 0
121 141 0
129 149 0
118 137 0
121 140 25
109 128 31
91 111 25
85 107 54
90 113 54
85 108 72
76 100 72
63 90 70
54 86 84
54 86 97
56 88 103
55 88 95
58 91 114
54 86 92
55 88 97
57 90 103
56 88 102
57 91 107
55 88 99
57 90 115
57 91 107
62 93 114
64 95 117
65 94 112
77 105 107
77 104 120
77 102 121
75 99 108
71 98 121
85 110 117
79 104 121
78 103 113
92 115 104
82 106 107
93 117 102
93 113 86
96 119 92
84 109 105
94 117 86
95 116 97
87 112 103
91 115 97
78 104 90
87 113 94
87 113 103
82 106 88
71 98 76
68 96 92
62 92 103
65 94 92
70 98 84
63 92 100
67 96 86
74 101 92
70 99 92
68 97 82
57 88 88
67 96 76
63 93 97
57 88 102
58 89 99
58 90 95
54 87 88
52 84 86
56 88 88
56 88 105
56 88 102
55 88 108
55 88 102
58 92 115
56 88 102
55 88 95
56 88 95
58 91 117
56 89 108
57 90 107
57 90 107
57 91 113
56 89 110
54 86 90
56 89 110
54 86 94
56 89 107
57 89 107
55 87 110
57 90 97
56 89 110
56 89 113
55 87 92
57 90 111
55 88 110
55 87 97
55 87 108
57 91 107
55 87 108
54 86 95
54 86 84
55 88 103
53 85 95
53 84 102
53 85 97
56 89 103
54 85 99
54 87 99
56 89 103
53 85 90
54 85 92
53 84 86
54 84 86
59 86 70
78 100 72
97 114 47
86 102 25
96 111 18
97 112 0
109 125 0
89 104 0
109 124 0
112 128 0
113 129 0
107 122 0
104 119 0
113 130 0
111 126 0
120 135 0
112 129 0
106 124 0
115 131 0
121 139 0
110 126 0
101 117 0
116 133 0
119 135 0
119 135 0
114 131 0
124 141 0
111 127 0
107 122 0
119 136 0
122 138 0
127 145 0
118 135 0
121 138 0
128 145 0
116 134 0
129 146 0
127 145 0
124 142 0
131 146 0
121 141 0
131 150 0
114 132 0
128 144 0
138 156 0
135 152 0
130 148 0
142 159 0
130 147 0
129 149 0
128 146 0
126 144 0
123 142 0
141 158 0
136 154 0
127 144 0
139 156 0
137 155 0
142 161 0
141 157 0
133 151 0
138 157 0
140 159 0
140 159 0
139 158 0
132 150 0
140 159 0
140 157 0
139 157 0
146 166 0
137 157 0
132 151 0
139 157 0
137 155 0
139 157 0
143 162 0
145 164 0
151 168 0
151 172 0
147 166 0
138 158 0
141 161 0
140 158 0
145 165 0
143 159 0
147 165 0
142 159 0
148 169 0
156 175 0
146 165 0
146 166 0
155 174 0
150 169 0
153 174 0
152 170 0
154 172 0
150 169 0
154 174 0
149 170 0
152 170 0
151 168 0
151 171 0
150 168 0
155 174 0
161 180 0
155 175 0
155 173 0
152 170 0
146 165 0
159 177 0
152 171 0
149 167 0
155 173 0
152 169 0
154 173 0
154 173 0
154 172 0
157 177 0
154 172 0
158 176 0
159 179 0
156 176 0
157 175 0
157 177 0
152 170 0
159 181 0
162 181 0
153 171 0
148 166 0
157 176 0
156 174 0
161 178 0
161 180 0
156 176 0
158 177 0
160 180 0
158 177 0
159 178 0
157 174 0
156 176 0
160 181 0
158 175 0
162 180 0
155 175 0
162 183 0
163 183 0
156 174 0
157 176 0
157 175 0
160 178 0
157 178 0
165 186 0
159 178 0
155 173 0
167 185 0
160 180 0
162 181 0
165 183 0
160 182 0
167 186 0
156 173 0
160 179 0
155 174 0
166 185 0
165 185 0
160 180 0
167 186 0
164 185 0
154 173 0
164 184 0
162 182 0
163 184 0
166 187 0
163 182 0
163 183 0
161 181 0
165 186 0
162 184 0
161 180 0
161 180 0
165 185 0
162 180 0
165 186 0
167 187 0
166 187 0
169 189 0
159 181 0
168 189 0
166 185 0
165 186 0
168 192 0
171 195 0
166 190 0
169 192 0
172 195 0
167 191 0
168 192 0
168 192 0
164 187 0
170 193 0
169 193 0
169 192 0
163 187 0
168 192 0
168 191 0
169 192 0
163 187 0
168 192 0
168 192 0
164 188 0
165 188 0
167 190 0
163 186 0
167 191 0
163 186 0
162 186 0
168 192 0
164 188 0
166 189 0
167 191 0
162 186 0
164 187 0
163 187 0
163 186 0
158 182 0
161 185 0
166 189 0
165 187 0
163 186 0
164 187 0
164 188 0
157 181 0
159 182 0
162 186 0
158 181 0
160 184 0
162 185 0
165 188 0
162 185 0
158 181 0
160 183 0
160 183 0
167 189 0
152 175 0
159 182 0
163 186 0
158 182 0
153 176 0
157 181 0
152 175 0
162 185 0
155 177 0
146 169 0
159 181 0
151 173 0
155 177 0
147 170 0
155 178 0
144 167 0
151 173 0
157 179 0
158 181 0
159 182 0
154 177 0
146 169 0
148 170 0
141 164 0
149 171 0
149 172 0
151 173 0
145 167 0
147 169 0
142 165 0
138 159 0
148 170 0
142 162 0
146 168 0
145 165 0
130 152 0
144 166 0
144 164 0
129 149 0
128 149 0
124 145 0
129 149 0
131 151 0
127 147 0
124 143 0
118 137 0
118 136 0
123 142 0
116 135 0
112 131 0
93 111 31
102 122 44
85 106 57
89 110 51
75 100 72
73 99 80
56 86 80
55 87 94
55 87 86
54 86 95
55 87 92
55 87 92
56 89 102
57 91 113
56 89 103
55 87 94
56 89 102
57 90 102
56 89 103
62 93 111
59 90 107
65 94 110
72 99 109
69 97 128
74 101 111
81 106 90
93 114 95
73 100 125
86 109 107
93 114 96
90 112 111
91 112 105
98 119 102
91 114 103
100 123 97
103 126 99
88 110 84
88 111 107
91 114 99
85 107 99
82 108 97
90 115 94
92 117 90
71 99 95
82 108 95
74 101 88
76 105 90
66 95 99
70 96 74
73 100 80
65 94 92
62 91 90
68 96 95
67 95 95
63 93 78
59 89 84
63 94 90
62 93 92
61 92 90
57 89 94
57 90 102
57 90 97
54 86 99
55 87 92
57 90 103
58 91 102
55 88 97
56 89 100
56 89 99
53 85 86
55 87 92
54 86 88
57 91 103
57 90 113
55 88 97
54 86 80
56 88 107
55 87 102
56 89 97
53 85 97
55 87 97
54 85 97
56 89 107
53 84 105
56 89 108
56 89 102
55 88 86
54 87 95
54 87 97
56 89 99
55 87 90
55 88 95
55 87 105
54 86 100
52 82 99
54 86 95
53 85 94
52 83 94
53 84 80
55 87 97
52 83 92
53 84 78
54 86 100
52 82 80
53 82 84
59 86 78
75 96 51
74 91 36
98 114 36
88 103 0
91 106 0
101 117 0
96 110 0
102 116 0
96 111 0
99 115 0
110 124 0
108 123 0
117 134 0
103 120 0
104 119 0
118 135 0
115 131 0
97 113 0
100 116 0
108 125 0
126 144 0
118 133 0
112 130 0
109 126 0
112 129 0
113 130 0
115 130 0
115 132 0
123 142 0
127 144 0
121 137 0
113 131 0
128 144 0
131 148 0
122 139 0
132 148 0
130 147 0
125 143 0
116 133 0
130 147 0
140 157 0
128 145 0
130 148 0
128 146 0
124 140 0
123 141 0
134 151 0
132 147 0
138 157 0
127 146 0
135 154 0
135 151 0
137 156 0
133 153 0
142 160 0
130 147 0
125 142 0
127 143 0
141 160 0
143 163 0
138 158 0
146 165 0
143 162 0
141 160 0
131 148 0
137 156 0
144 164 0
129 148 0
140 157 0
144 164 0
139 157 0
149 169 0
149 167 0
148 167 0
146 166 0
144 164 0
145 165 0
141 159 0
148 167 0
142 160 0
141 161 0
145 162 0
147 167 0
148 168 0
146 165 0
141 160 0
149 167 0
148 167 0
148 167 0
151 171 0
146 164 0
149 166 0
143 160 0
153 170 0
148 166 0
149 167 0
152 168 0
149 168 0
155 173 0
152 171 0
152 169 0
148 167 0
148 165 0
146 164 0
147 165 0
150 169 0
154 175 0
147 163 0
154 176 0
149 169 0
154 173 0
151 170 0
152 170 0
151 171 0
147 166 0
160 180 0
151 169 0
150 169 0
149 167 0
158 178 0
160 180 0
151 169 0
155 176 0
152 172 0
152 171 0
157 177 0
156 175 0
157 174 0
149 169 0
156 176 0
153 172 0
156 177 0
155 174 0
148 167 0
152 170 0
162 184 0
149 168 0
155 174 0
157 176 0
154 171 0
156 176 0
158 177 0
157 177 0
162 179 0
156 175 0
163 183 0
159 180 0
166 186 0
157 178 0
158 179 0
156 175 0
154 176 0
155 174 0
163 184 0
162 184 0
162 182 0
160 182 0
164 184 0
162 180 0
161 178 0
163 183 0
157 174 0
162 182 0
169 190 0
164 184 0
164 185 0
158 178 0
161 179 0
161 179 0
159 180 0
167 186 0
166 186 0
167 188 0
163 184 0
165 185 0
163 182 0
166 188 0
160 181 0
162 185 0
162 182 0
158 179 0
162 182 0
164 184 0
161 182 0
163 183 0
161 181 0
167 188 0
163 185 0
166 187 0
160 180 0
165 185 0
171 194 0
170 194 0
167 190 0
172 195 0
170 193 0
166 189 0
172 196 0
167 190 0
169 193 0
170 193 0
174 197 0
164 187 0
166 189 0
157 182 0
165 188 0
167 191 0
164 188 0
166 190 0
163 187 0
167 190 0
167 191 0
169 193 0
163 186 0
165 188 0
166 190 0
165 188 0
167 190 0
165 187 0
164 187 0
163 186 0
164 187 0
165 188 0
163 187 0
164 188 0
163 186 0
166 189 0
163 186 0
166 189 0
161 184 0
161 184 0
162 184 0
163 187 0
159 182 0
157 180 0
161 185 0
161 184 0
160 183 0
157 181 0
160 183 0
161 185 0
156 179 0
156 180 0
155 179 0
160 183 0
157 179 0
157 180 0
163 186 0
150 173 0
150 172 0
155 177 0
158 179 0
151 175 0
153 176 0
157 180 0
155 177 0
158 181 0
151 172 0
158 181 0
156 179 0
155 178 0
138 160 0
143 165 0
148 170 0
146 169 0
153 176 0
145 167 0
155 178 0
145 167 0
146 168 0
144 165 0
134 155 0
149 171 0
146 167 0
134 155 0
143 164 0
137 159 0
139 160 0
134 155 0
137 158 0
136 157 0
134 153 0
135 156 0
139 160 0
126 146 0
126 146 0
137 157 0
137 157 0
133 153 0
130 149 0
128 147 0
123 141 0
120 139 0
115 133 0
118 134 0
111 130 25
104 124 31
96 117 40
76 97 47
76 100 74
68 93 62
56 84 67
57 88 97
52 83 92
53 85 92
55 87 88
54 86 102
55 87 100
55 88 103
57 90 110
56 89 105
56 88 111
56 89 117
57 88 97
67 96 115
68 96 97
72 98 115
67 96 105
78 103 99
78 103 95
85 109 111
95 116 99
90 113 99
70 97 99
98 118 90
92 115 99
91 115 108
101 120 86
89 113 94
108 127 78
87 112 100
89 111 90
98 122 92
95 118 102
85 107 88
86 111 99
96 120 97
78 103 84
78 106 88
74 100 88
75 102 82
73 100 92
65 93 76
71 99 86
77 104 80
69 98 86
66 94 88
59 88 72
69 96 74
67 96 102
60 90 84
59 89 92
56 87 90
58 88 92
53 85 92
54 86 86
55 88 95
54 87 84
51 82 88
53 85 92
55 89 95
56 88 108
53 84 97
55 88 103
54 86 86
55 87 97
56 89 97
56 90 102
55 88 94
55 87 90
52 83 82
56 89 100
55 87 94
53 84 95
54 86 103
55 87 107
55 88 88
53 85 78
55 88 97
55 87 92
55 88 94
53 85 94
56 89 92
53 84 90
56 88 102
53 85 94
55 86 94
54 85 88
56 89 103
53 84 90
51 81 76
55 87 90
52 83 67
55 87 100
55 87 88
56 87 82
56 82 72
76 99 74
77 95 40
75 93 36
82 98 0
93 108 18
99 112 0
90 105 0
80 95 0
90 105 0
97 112 0
102 118 0
91 108 0
97 113 0
109 126 0
110 127 0
103 119 0
102 116 0
104 120 0
112 128 0
118 135 0
125 141 0
107 123 0
111 128 0
120 135 0
117 133 0
137 155 0
117 135 0
117 134 0
114 131 0
121 137 0
117 133 0
121 137 0
132 147 0
127 146 0
123 141 0
136 153 0
122 140 0
123 142 0
138 154 0
127 144 0
120 136 0
120 137 0
124 140 0
124 141 0
124 143 0
131 148 0
123 139 0
131 150 0
133 152 0
121 139 0
135 154 0
126 144 0
129 146 0
129 150 0
128 145 0
134 151 0
141 160 0
137 155 0
142 161 0
130 149 0
141 159 0
139 160 0
134 153 0
146 165 0
138 156 0
141 158 0
133 152 0
134 153 0
144 164 0
144 163 0
138 154 0
140 160 0
144 161 0
142 161 0
140 158 0
146 166 0
137 154 0
145 163 0
143 163 0
152 170 0
137 156 0
144 164 0
139 158 0
152 171 0
142 161 0
144 162 0
155 174 0
142 160 0
146 163 0
145 164 0
151 167 0
143 163 0
145 164 0
144 164 0
149 168 0
152 169 0
148 167 0
154 172 0
153 171 0
155 176 0
146 165 0
153 172 0
157 179 0
157 176 0
149 168 0
142 158 0
154 174 0
156 175 0
153 173 0
153 173 0
150 169 0
159 179 0
152 170 0
151 169 0
150 169 0
154 174 0
154 173 0
152 173 0
158 176 0
149 167 0
150 170 0
152 169 0
157 177 0
155 174 0
160 179 0
160 178 0
157 178 0
157 176 0
152 172 0
152 171 0
156 175 0
161 180 0
158 178 0
159 178 0
160 180 0
153 171 0
162 182 0
154 173 0
158 177 0
160 179 0
154 173 0
163 182 0
159 180 0
158 177 0
163 183 0
158 178 0
159 179 0
157 177 0
153 171 0
154 171 0
164 184 0
159 178 0
163 184 0
159 178 0
160 178 0
159 177 0
163 183 0
162 182 0
162 182 0
162 182 0
161 183 0
159 178 0
157 177 0
163 183 0
158 180 0
163 182 0
161 180 0
170 190 0
164 183 0
164 184 0
161 181 0
161 181 0
166 187 0
160 177 0
161 183 0
164 184 0
165 184 0
163 185 0
163 183 0
163 183 0
165 186 0
169 190 0
164 185 0
163 183 0
169 191 0
163 186 0
160 181 0
164 185 0
168 188 0
164 185 0
164 185 0
166 185 0
168 188 0
163 183 0
167 191 0
170 194 0
165 188 0
167 191 0
169 193 0
167 191 0
166 190 0
163 186 0
166 189 0
163 187 0
161 185 0
167 191 0
169 193 0
166 190 0
163 187 0
165 188 0
166 191 0
168 191 0
164 188 0
167 191 0
169 192 0
164 188 0
166 189 0
163 187 0
164 187 0
160 183 0
166 189 0
164 188 0
166 189 0
160 184 0
157 181 0
168 191 0
165 188 0
165 188 0
164 188 0
163 187 0
167 190 0
167 191 0
159 182 0
156 179 0
161 184 0
158 182 0
160 183 0
160 183 0
159 181 0
160 182 0
160 183 0
158 181 0
155 178 0
165 188 0
163 186 0
157 181 0
162 185 0
162 184 0
152 175 0
153 177 0
162 184 0
162 185 0
162 185 0
157 179 0
166 189 0
155 178 0
152 175 0
157 178 0
159 181 0
156 180 0
150 173 0
154 176 0
161 183 0
149 172 0
155 177 0
153 176 0
156 178 0
150 172 0
140 161 0
149 171 0
147 170 0
142 164 0
146 168 0
149 171 0
143 165 0
150 171 0
145 167 0
142 164 0
147 168 0
145 166 0
138 159 0
149 169 0
143 164 0
136 158 0
141 162 0
138 159 0
139 160 0
132 152 0
136 156 0
128 146 0
125 145 0
132 153 0
130 149 0
120 138 0
123 142 0
124 143 0
119 137 0
116 135 0
110 128 18
101 119 25
106 125 36
91 111 47
84 106 40
80 102 65
74 98 65
64 92 78
54 85 78
55 88 103
54 86 92
57 91 99
54 87 92
55 88 102
54 87 90
56 88 92
56 89 103
56 89 103
69 97 105
57 89 107
71 99 114
65 93 105
70 97 100
76 103 111
81 106 105
88 111 101
86 110 103
90 110 95
97 122 107
95 118 113
85 106 100
95 116 95
97 117 84
106 125 82
95 118 90
105 125 76
89 114 103
95 116 74
92 113 92
94 117 86
94 117 94
81 106 92
89 113 76
67 94 84
72 99 99
74 101 94
77 104 86
68 96 90
68 95 67
63 92 94
70 96 70
61 90 88
71 98 84
68 95 86
78 104 70
60 90 97
59 91 105
57 88 78
57 88 90
54 86 90
55 87 99
54 86 95
55 88 100
55 88 80
54 85 88
56 89 100
55 87 97
55 87 88
56 89 100
54 86 95
53 85 86
56 89 97
55 88 90
54 86 84
56 88 99
54 85 95
55 87 94
54 86 95
55 87 100
56 89 103
54 86 88
52 82 78
55 86 92
54 86 100
53 85 86
56 88 90
54 86 94
54 86 95
53 85 78
54 86 92
54 86 94
54 86 94
52 83 86
52 83 88
54 86 95
54 86 90
52 82 84
55 86 74
59 85 76
70 93 60
74 95 57
84 101 36
97 113 40
90 105 0
89 105 0
99 115 0
86 101 0
89 103 0
105 120 0
94 110 0
98 113 0
107 124 0
108 125 0
111 124 0
120 136 0
95 110 0
103 118 0
109 125 0
104 120 0
108 125 0
115 132 0
107 124 0
111 127 0
106 123 0
116 133 0
110 125 0
120 136 0
104 119 0
109 127 0
120 137 0
110 127 0
123 141 0
128 145 0
123 139 0
127 145 0
122 139 0
129 144 0
119 135 0
124 141 0
129 148 0
124 141 0
120 139 0
124 143 0
119 135 0
131 150 0
123 140 0
122 139 0
130 149 0
133 149 0
125 141 0
126 144 0
136 155 0
141 160 0
141 158 0
138 157 0
144 164 0
128 145 0
142 161 0
134 152 0
132 151 0
131 150 0
132 151 0
146 165 0
135 153 0
139 159 0
132 151 0
137 156 0
146 165 0
149 169 0
145 163 0
146 165 0
145 164 0
141 160 0
139 158 0
135 153 0
149 169 0
144 163 0
138 158 0
149 169 0
153 172 0
144 163 0
141 159 0
142 164 0
137 155 0
142 162 0
142 161 0
148 166 0
145 164 0
152 172 0
147 166 0
143 162 0
145 166 0
154 174 0
148 167 0
154 174 0
149 168 0
157 174 0
151 171 0
146 165 0
151 170 0
154 174 0
153 174 0
150 167 0
153 171 0
148 166 0
150 167 0
152 170 0
144 163 0
155 174 0
156 176 0
149 167 0
157 179 0
152 172 0
157 177 0
154 173 0
158 178 0
149 168 0
155 174 0
151 169 0
156 176 0
149 169 0
154 173 0
158 178 0
155 174 0
160 180 0
151 171 0
154 173 0
156 175 0
155 173 0
160 180 0
151 170 0
151 171 0
148 166 0
153 172 0
157 174 0
154 172 0
154 170 0
153 174 0
161 181 0
157 178 0
157 177 0
164 182 0
155 173 0
155 172 0
154 173 0
149 168 0
162 182 0
155 175 0
156 176 0
163 184 0
158 176 0
161 178 0
161 179 0
158 179 0
161 181 0
161 180 0
163 182 0
157 177 0
160 179 0
162 182 0
158 179 0
164 185 0
163 183 0
162 183 0
161 181 0
164 184 0
162 183 0
164 184 0
162 179 0
161 182 0
161 179 0
161 180 0
161 182 0
166 186 0
162 183 0
169 190 0
167 189 0
166 186 0
163 181 0
159 180 0
160 180 0
166 186 0
163 183 0
167 188 0
167 190 0
167 187 0
161 181 0
167 187 0
166 187 0
164 185 0
164 185 0
164 185 0
164 185 0
165 186 0
167 187 0
163 183 0
170 193 0
163 187 0
167 191 0
161 184 0
164 188 0
165 189 0
164 188 0
166 190 0
168 191 0
168 192 0
164 188 0
169 192 0
163 186 0
163 187 0
167 191 0
168 191 0
161 184 0
165 188 0
169 192 0
160 183 0
164 188 0
166 190 0
166 189 0
167 190 0
164 188 0
164 188 0
165 188 0
164 188 0
168 191 0
156 179 0
163 187 0
162 185 0
167 191 0
161 185 0
162 186 0
163 186 0
160 183 0
166 190 0
162 185 0
163 187 0
161 185 0
161 184 0
160 184 0
161 184 0
162 185 0
161 184 0
150 173 0
163 187 0
155 178 0
161 184 0
161 184 0
158 181 0
157 180 0
157 180 0
154 178 0
164 188 0
149 172 0
155 177 0
156 179 0
159 182 0
153 176 0
160 183 0
154 177 0
150 174 0
156 179 0
153 176 0
162 186 0
149 171 0
156 179 0
156 179 0
150 172 0
143 166 0
152 175 0
151 172 0
156 178 0
145 168 0
144 167 0
139 161 0
152 173 0
142 164 0
147 169 0
148 170 0
141 163 0
133 154 0
145 167 0
141 162 0
149 171 0
140 162 0
144 166 0
141 163 0
141 162 0
140 161 0
139 160 0
135 154 0
137 157 0
134 154 0
139 159 0
129 148 0
128 147 0
121 141 0
111 130 0
104 123 0
122 140 0
116 135 0
122 140 0
102 120 25
115 133 25
86 104 40
87 106 40
82 102 40
71 93 57
58 87 80
60 87 65
51 82 65
55 85 82
55 87 100
54 86 94
56 89 108
54 86 95
55 88 97
57 90 113
56 89 100
54 87 82
65 95 108
60 92 113
71 98 94
78 103 108
68 94 82
80 105 99
89 111 85
101 124 100
99 122 107
96 117 103
94 117 95
103 123 80
108 129 86
107 126 76
111 131 86
105 124 76
99 120 84
96 117 74
89 112 65
86 110 92
87 108 88
101 122 88
78 102 78
105 128 84
86 108 67
80 105 86
74 100 94
67 96 88
65 94 74
68 95 60
59 88 88
65 94 84
79 105 76
66 93 70
61 89 74
61 90 72
72 99 80
69 98 95
56 85 74
60 90 97
54 85 78
53 84 78
55 87 95
53 84 88
53 85 94
53 84 76
56 88 97
52 83 90
53 84 84
54 86 90
54 85 92
54 86 72
55 88 100
50 81 67
55 87 95
56 88 110
56 88 97
56 88 92
54 85 80
54 85 99
54 87 95
53 84 90
54 86 86
52 83 99
55 87 95
51 81 86
53 85 95
53 84 90
54 87 90
52 83 80
54 86 92
54 86 103
56 89 107
53 84 90
52 82 88
54 85 95
63 89 76
64 87 60
55 76 62
98 114 25
82 99 36
94 108 0
85 100 0
98 113 0
91 104 0
93 109 0
93 108 0
93 107 0
101 116 0
94 109 0
112 129 0
102 119 0
106 122 0
99 115 0
114 129 0
111 127 0
94 110 0
106 122 0
109 124 0
120 137 0
114 130 0
115 132 0
105 121 0
123 140 0
110 127 0
128 147 0
106 121 0
117 133 0
119 136 0
115 131 0
120 138 0
125 145 0
116 133 0
119 136 0
124 142 0
122 139 0
128 145 0
124 140 0
122 142 0
127 146 0
131 148 0
128 147 0
132 150 0
125 143 0
125 143 0
130 148 0
133 152 0
134 152 0
127 144 0
137 155 0
136 155 0
144 162 0
134 150 0
132 149 0
129 148 0
132 150 0
130 146 0
142 160 0
148 168 0
129 147 0
137 157 0
133 151 0
148 169 0
144 164 0
133 153 0
129 147 0
132 150 0
142 159 0
144 164 0
149 169 0
140 160 0
143 164 0
142 162 0
132 149 0
141 159 0
138 156 0
145 165 0
148 168 0
142 161 0
147 167 0
140 160 0
148 165 0
146 164 0
141 160 0
134 153 0
150 169 0
151 171 0
145 165 0
153 173 0
139 157 0
149 168 0
138 156 0
145 165 0
147 166 0
151 168 0
140 157 0
153 172 0
151 170 0
153 174 0
145 164 0
157 176 0
154 175 0
151 172 0
146 164 0
151 169 0
150 170 0
152 171 0
149 169 0
156 175 0
156 174 0
149 169 0
154 175 0
157 177 0
154 173 0
150 170 0
161 182 0
150 167 0
155 175 0
154 173 0
148 165 0
146 165 0
156 177 0
151 169 0
155 175 0
162 182 0
153 172 0
154 171 0
160 182 0
154 173 0
155 175 0
156 175 0
157 176 0
155 175 0
156 175 0
157 177 0
153 172 0
156 176 0
153 173 0
153 171 0
162 182 0
162 182 0
159 179 0
159 178 0
160 178 0
159 178 0
163 183 0
156 177 0
162 182 0
157 177 0
157 178 0
156 174 0
163 184 0
157 179 0
163 183 0
160 181 0
154 173 0
157 178 0
159 180 0
164 185 0
162 182 0
163 183 0
161 183 0
155 175 0
165 186 0
164 183 0
151 170 0
162 183 0
160 181 0
169 191 0
157 177 0
163 183 0
164 185 0
159 178 0
160 180 0
160 180 0
163 183 0
171 192 0
164 184 0
159 180 0
165 185 0
161 182 0
166 186 0
163 184 0
163 183 0
160 181 0
165 185 0
166 186 0
162 184 0
161 181 0
161 182 0
165 186 0
166 186 0
170 190 0
162 183 0
164 185 0
164 184 0
165 187 0
169 193 0
166 189 0
166 189 0
169 192 0
168 192 0
162 186 0
165 189 0
165 189 0
167 190 0
167 191 0
166 189 0
165 188 0
167 190 0
169 193 0
159 182 0
167 191 0
168 192 0
170 194 0
163 186 0
167 189 0
164 187 0
163 187 0
163 186 0
167 191 0
162 185 0
165 187 0
173 196 0
165 189 0
163 188 0
159 182 0
161 185 0
162 185 0
168 192 0
161 185 0
163 185 0
161 185 0
159 183 0
163 187 0
163 186 0
155 179 0
161 184 0
161 184 0
158 181 0
164 187 0
165 189 0
164 187 0
161 184 0
159 181 0
161 183 0
159 183 0
162 185 0
160 183 0
160 184 0
152 175 0
159 182 0
158 181 0
160 183 0
160 183 0
157 180 0
163 186 0
156 179 0
153 176 0
157 180 0
160 183 0
146 169 0
160 182 0
158 181 0
149 171 0
150 172 0
152 174 0
158 180 0
153 175 0
151 173 0
153 176 0
142 164 0
141 163 0
146 168 0
149 170 0
147 170 0
141 163 0
153 176 0
141 163 0
145 165 0
144 165 0
139 160 0
151 172 0
139 160 0
136 158 0
137 158 0
143 164 0
143 164 0
142 163 0
130 151 0
139 159 0
129 150 0
137 157 0
129 148 0
129 148 0
122 142 0
124 143 0
116 135 0
120 138 0
113 131 0
126 144 0
106 125 0
114 132 0
107 126 25
81 99 40
104 122 36
94 113 47
85 106 51
73 95 44
81 105 62
76 100 74
57 86 70
53 84 82
54 85 90
55 87 88
52 84 80
55 88 90
55 87 100
55 88 94
63 94 108
65 95 107
65 92 90
80 108 100
83 106 117
83 106 98
87 109 90
95 118 100
93 116 102
98 119 95
101 120 95
97 119 76
102 123 82
104 125 94
104 123 67
106 125 78
108 127 72
105 127 88
92 113 62
99 120 78
95 117 76
80 103 80
78 103 84
89 113 94
101 124 70
92 114 70
93 113 51
89 110 62
82 105 70
73 98 67
65 92 74
67 93 86
65 91 62
67 94 82
63 90 72
66 93 72
61 91 70
57 85 65
55 85 80
57 87 74
56 87 90
52 83 80
53 84 99
51 81 72
53 85 99
54 85 74
53 84 94
50 80 78
53 84 94
54 86 95
52 84 84
53 85 88
52 83 67
54 86 99
53 84 76
54 86 84
54 86 88
53 84 86
53 84 84
52 83 84
53 85 92
53 84 80
51 82 86
52 83 90
53 85 95
51 81 80
53 85 99
56 88 90
54 86 86
53 84 86
53 83 84
52 82 90
55 86 78
53 79 70
54 79 51
69 89 67
66 86 60
90 105 25
84 101 40
101 117 0
91 105 25
103 117 0
94 108 0
110 126 0
103 117 0
89 104 0
88 103 0
96 110 0
97 112 0
100 117 0
106 122 0
104 120 0
99 115 0
95 110 0
100 114 0
109 126 0
114 131 0
96 112 0
111 127 0
100 115 0
112 129 0
108 123 0
113 129 0
122 139 0
119 137 0
116 135 0
110 125 0
122 138 0
125 141 0
111 129 0
118 134 0
110 127 0
122 139 0
112 130 0
124 140 0
116 135 0
121 140 0
128 147 0
125 144 0
123 140 0
127 145 0
129 147 0
118 136 0
125 142 0
134 152 0
127 144 0
139 157 0
127 144 0
134 153 0
125 142 0
142 160 0
127 144 0
129 147 0
135 154 0
134 151 0
136 153 0
131 150 0
133 151 0
134 152 0
139 158 0
139 159 0
127 146 0
129 147 0
136 154 0
136 155 0
142 161 0
138 156 0
139 157 0
140 160 0
143 161 0
137 154 0
141 160 0
148 168 0
132 151 0
138 157 0
147 165 0
145 165 0
153 170 0
144 162 0
137 155 0
148 169 0
139 159 0
144 163 0
148 168 0
146 166 0
149 168 0
145 164 0
146 163 0
147 167 0
146 167 0
136 155 0
149 168 0
150 169 0
154 174 0
151 170 0
153 175 0
145 163 0
146 164 0
147 167 0
150 171 0
154 172 0
149 167 0
145 164 0
150 170 0
153 174 0
146 165 0
150 168 0
147 167 0
148 166 0
149 169 0
154 173 0
148 167 0
150 170 0
159 180 0
150 169 0
154 172 0
156 174 0
154 173 0
158 178 0
159 181 0
154 172 0
161 182 0
154 172 0
154 174 0
149 168 0
160 180 0
155 175 0
149 166 0
160 180 0
157 176 0
159 177 0
155 174 0
155 176 0
160 180 0
163 184 0
154 173 0
156 178 0
155 173 0
159 178 0
157 178 0
158 177 0
162 183 0
162 181 0
158 177 0
153 173 0
158 178 0
156 175 0
159 178 0
150 170 0
158 178 0
153 171 0
159 179 0
164 183 0
160 179 0
160 180 0
157 176 0
158 178 0
164 184 0
163 183 0
163 182 0
155 172 0
153 172 0
164 185 0
164 186 0
165 185 0
166 186 0
161 180 0
160 179 0
162 181 0
164 184 0
162 182 0
166 186 0
165 185 0
162 182 0
166 186 0
166 187 0
162 183 0
165 186 0
161 183 0
161 181 0
168 188 0
166 186 0
166 187 0
160 178 0
161 183 0
159 178 0
162 183 0
162 181 0
163 184 0
166 188 0
167 187 0
166 187 0
166 186 0
162 180 0
162 182 0
163 182 0
162 183 0
166 186 0
168 192 0
169 193 0
169 192 0
164 187 0
169 193 0
163 186 0
167 190 0
165 189 0
168 192 0
168 192 0
166 189 0
167 190 0
164 187 0
168 192 0
166 189 0
169 192 0
169 193 0
159 183 0
168 191 0
166 189 0
163 187 0
164 188 0
165 188 0
165 188 0
165 190 0
164 188 0
160 184 0
169 192 0
164 188 0
166 190 0
164 187 0
164 187 0
168 192 0
154 177 0
163 186 0
163 185 0
161 184 0
166 189 0
158 182 0
160 182 0
158 181 0
162 185 0
161 183 0
160 183 0
158 181 0
160 184 0
165 188 0
158 182 0
159 182 0
160 183 0
158 180 0
160 184 0
156 179 0
161 183 0
159 182 0
156 179 0
156 180 0
163 186 0
158 180 0
157 180 0
152 176 0
153 176 0
153 176 0
151 174 0
155 178 0
157 180 0
158 181 0
154 177 0
148 171 0
149 171 0
157 179 0
150 173 0
151 173 0
145 168 0
144 166 0
144 167 0
147 168 0
148 171 0
151 173 0
147 169 0
150 172 0
144 166 0
147 169 0
147 169 0
140 161 0
140 162 0
140 162 0
142 164 0
141 163 0
128 149 0
136 156 0
138 159 0
135 155 0
140 161 0
136 157 0
128 148 0
126 146 0
125 145 0
134 154 0
115 134 0
127 146 0
109 128 0
118 136 0
111 130 0
114 133 0
117 135 0
117 135 0
110 128 18
109 126 18
91 109 40
91 110 47
78 97 47
82 103 57
83 106 67
69 94 78
65 91 76
59 89 80
57 88 82
53 85 88
56 88 102
54 86 82
55 87 114
62 93 99
61 90 88
66 95 100
70 95 94
69 97 94
89 113 90
91 114 100
94 115 90
93 112 92
95 117 84
101 121 92
94 115 97
93 112 74
99 119 78
106 128 84
109 130 82
108 130 78
105 126 78
102 122 86
105 126 67
95 117 92
103 124 74
98 118 72
96 118 80
87 108 72
98 121 72
94 115 60
96 115 65
83 103 44
84 104 51
77 98 62
88 107 57
81 103 54
75 100 76
74 96 65
63 89 62
68 94 74
59 87 74
70 96 70
51 80 65
61 90 72
51 81 80
50 80 70
54 86 82
50 80 78
53 85 78
54 86 80
51 82 65
53 84 74
53 85 78
53 85 94
51 82 74
52 83 80
52 83 76
53 85 97
53 84 82
54 86 99
51 81 72
53 84 84
51 80 78
54 85 76
51 82 72
51 81 82
54 85 97
49 79 57
53 84 82
51 81 78
51 81 86
57 86 65
57 83 74
64 87 60
74 94 62
67 87 57
68 85 51
94 111 31
92 107 44
79 94 0
95 109 0
94 107 0
108 121 0
95 108 0
100 115 0
101 115 0
93 109 0
102 119 0
95 109 0
110 127 0
99 114 0
115 130 0
98 113 0
104 120 0
88 105 0
101 116 0
100 117 0
107 121 0
116 133 0
107 122 0
105 119 0
110 127 0
118 133 0
116 134 0
104 120 0
116 132 0
113 130 0
106 122 0
115 133 0
118 135 0
116 134 0
129 147 0
120 137 0
113 129 0
124 141 0
109 125 0
119 137 0
126 143 0
118 136 0
121 140 0
122 140 0
131 149 0
125 141 0
137 155 0
126 144 0
111 129 0
127 147 0
138 157 0
130 148 0
135 153 0
144 163 0
129 148 0
129 148 0
139 157 0
132 152 0
141 159 0
129 147 0
129 148 0
141 160 0
132 150 0
144 164 0
131 150 0
134 154 0
134 152 0
146 166 0
144 163 0
139 159 0
140 162 0
138 157 0
133 150 0
133 152 0
141 161 0
142 161 0
142 162 0
142 160 0
144 164 0
147 166 0
147 166 0
140 159 0
141 160 0
139 159 0
146 164 0
148 168 0
145 164 0
147 168 0
148 166 0
144 162 0
145 166 0
145 163 0
142 162 0
152 173 0
147 168 0
154 174 0
145 164 0
151 167 0
153 173 0
146 166 0
155 176 0
155 173 0
147 166 0
154 172 0
155 174 0
145 162 0
143 162 0
147 167 0
149 169 0
149 170 0
155 176 0
150 171 0
149 169 0
151 169 0
149 169 0
154 174 0
155 176 0
159 179 0
153 172 0
159 179 0
151 170 0
153 173 0
149 167 0
148 168 0
154 174 0
146 164 0
154 174 0
159 177 0
153 172 0
160 179 0
147 167 0
159 178 0
161 180 0
144 164 0
157 176 0
163 182 0
154 172 0
155 175 0
153 172 0
160 180 0
148 168 0
160 179 0
151 172 0
160 181 0
159 179 0
158 179 0
163 182 0
152 171 0
157 177 0
160 180 0
162 183 0
157 177 0
160 180 0
159 178 0
162 182 0
160 181 0
158 178 0
159 180 0
161 182 0
158 176 0
163 182 0
157 176 0
158 178 0
157 176 0
160 181 0
160 180 0
162 183 0
161 185 0
163 184 0
162 183 0
161 179 0
165 187 0
163 182 0
160 180 0
161 182 0
163 183 0
162 183 0
162 183 0
162 182 0
162 182 0
158 179 0
158 180 0
165 186 0
161 184 0
165 185 0
164 185 0
165 185 0
164 185 0
165 183 0
164 184 0
164 184 0
163 184 0
161 182 0
163 182 0
166 186 0
165 185 0
166 187 0
159 179 0
166 186 0
163 184 0
165 185 0
164 183 0
159 180 0
161 184 0
166 189 0
162 186 0
171 194 0
169 191 0
169 193 0
168 192 0
166 189 0
170 193 0
167 190 0
164 188 0
168 191 0
169 193 0
165 189 0
165 189 0
162 186 0
162 185 0
165 188 0
166 189 0
166 190 0
168 192 0
166 189 0
163 187 0
169 192 0
167 190 0
165 188 0
162 185 0
169 192 0
165 188 0
166 190 0
166 188 0
164 186 0
163 186 0
158 181 0
162 185 0
167 189 0
161 183 0
160 183 0
160 183 0
163 186 0
159 183 0
162 186 0
162 185 0
157 180 0
160 183 0
148 171 0
160 183 0
163 186 0
162 186 0
153 175 0
163 186 0
158 182 0
159 183 0
159 182 0
164 187 0
158 180 0
158 181 0
153 177 0
154 177 0
158 181 0
156 180 0
158 180 0
152 175 0
150 174 0
157 179 0
155 178 0
152 174 0
153 175 0
156 178 0
154 177 0
152 173 0
146 169 0
145 167 0
149 170 0
148 171 0
147 169 0
147 169 0
144 167 0
147 169 0
145 167 0
158 179 0
147 168 0
143 166 0
151 172 0
143 165 0
147 168 0
143 165 0
145 167 0
137 158 0
151 172 0
136 157 0
133 154 0
142 164 0
134 155 0
136 157 0
144 165 0
123 144 0
133 154 0
120 140 0
135 155 0
120 139 0
130 149 0
127 147 0
122 140 0
124 142 0
110 128 0
123 141 0
110 128 0
116 134 0
99 117 0
105 123 0
95 112 25
80 98 47
81 100 47
82 103 54
78 100 57
59 84 62
65 90 80
66 92 76
56 85 78
54 87 78
54 87 94
52 83 86
56 86 82
65 95 103
67 94 94
79 104 97
82 105 84
93 113 78
89 110 94
96 118 99
100 121 90
99 120 78
93 114 72
106 126 76
119 137 82
109 130 80
96 117 74
107 126 74
116 135 70
116 135 62
106 127 70
88 112 78
89 112 72
93 115 88
104 126 88
92 114 60
93 114 60
96 116 57
95 115 60
105 125 65
91 110 54
91 111 44
94 114 40
91 110 47
85 103 36
96 115 51
100 119 36
90 109 40
82 101 36
68 89 47
73 93 51
76 98 67
70 93 65
58 85 72
55 83 70
55 86 76
52 83 76
51 81 65
52 83 84
51 80 80
52 83 62
52 83 72
50 80 80
52 82 72
51 81 80
53 84 95
52 83 82
52 83 82
49 78 74
50 80 67
51 81 76
53 84 86
49 78 62
54 84 80
60 86 82
52 81 67
71 96 78
61 84 70
67 89 54
73 92 47
78 98 51
72 88 25
68 84 25
73 89 25
94 108 18
77 91 0
85 99 0
89 101 0
90 106 0
93 107 0
95 110 0
93 108 0
94 111 0
102 118 0
91 106 0
90 105 0
94 111 0
105 120 0
101 117 0
96 111 0
102 118 0
100 115 0
100 115 0
107 124 0
100 117 0
109 125 0
106 122 0
111 127 0
115 131 0
117 133 0
115 132 0
115 133 0
117 133 0
115 131 0
110 127 0
109 127 0
114 131 0
114 132 0
120 138 0
122 140 0
124 141 0
124 142 0
117 133 0
129 148 0
121 138 0
125 142 0
122 140 0
113 131 0
124 142 0
128 145 0
137 156 0
136 153 0
131 149 0
132 152 0
133 152 0
137 154 0
127 146 0
121 139 0
140 159 0
146 163 0
135 153 0
126 146 0
139 159 0
128 147 0
135 154 0
134 153 0
143 161 0
138 156 0
136 154 0
127 145 0
140 158 0
137 155 0
137 156 0
145 164 0
139 157 0
139 158 0
146 166 0
145 165 0
145 164 0
139 156 0
147 166 0
142 162 0
144 164 0
144 163 0
136 155 0
146 165 0
143 162 0
147 166 0
149 168 0
144 164 0
137 157 0
142 162 0
145 164 0
144 163 0
140 159 0
150 170 0
151 172 0
143 162 0
147 167 0
150 169 0
148 167 0
144 164 0
150 170 0
152 172 0
144 165 0
142 162 0
146 165 0
148 168 0
147 167 0
154 174 0
153 172 0
145 166 0
148 169 0
148 168 0
153 171 0
151 171 0
149 169 0
153 171 0
153 173 0
156 176 0
153 173 0
147 165 0
155 174 0
156 176 0
151 171 0
152 172 0
155 174 0
154 173 0
156 176 0
159 179 0
157 178 0
157 176 0
154 174 0
158 177 0
163 181 0
155 173 0
150 169 0
148 166 0
155 175 0
161 182 0
155 175 0
157 177 0
163 181 0
159 177 0
157 177 0
155 175 0
159 180 0
157 177 0
152 170 0
158 180 0
157 176 0
160 179 0
160 181 0
158 178 0
155 173 0
154 172 0
157 177 0
159 178 0
158 179 0
157 175 0
160 181 0
164 181 0
162 182 0
163 183 0
164 183 0
153 173 0
161 182 0
157 178 0
158 176 0
160 179 0
163 185 0
155 174 0
164 185 0
163 182 0
159 179 0
162 182 0
165 185 0
165 185 0
158 176 0
161 181 0
164 185 0
163 183 0
163 184 0
161 183 0
161 182 0
165 186 0
163 182 0
170 192 0
163 183 0
167 187 0
159 180 0
164 184 0
163 184 0
163 184 0
169 191 0
163 184 0
167 189 0
167 187 0
164 184 0
168 190 0
168 189 0
163 184 0
164 186 0
162 184 0
164 185 0
167 189 0
170 193 0
171 192 0
162 184 0
163 184 0
169 193 0
168 191 0
172 194 0
167 191 0
172 196 0
165 188 0
169 192 0
169 193 0
163 188 0
166 189 0
166 189 0
166 190 0
166 189 0
172 195 0
161 183 0
167 191 0
169 192 0
165 189 0
163 186 0
166 189 0
163 187 0
169 193 0
163 186 0
165 189 0
164 187 0
168 192 0
168 191 0
169 192 0
165 189 0
163 186 0
164 187 0
164 188 0
164 188 0
160 183 0
165 189 0
164 187 0
155 178 0
166 190 0
160 183 0
166 189 0
165 189 0
161 182 0
166 189 0
156 179 0
163 186 0
164 188 0
158 181 0
153 177 0
163 186 0
156 180 0
157 179 0
159 182 0
165 188 0
162 185 0
159 182 0
162 185 0
153 176 0
152 174 0
161 183 0
164 187 0
156 178 0
151 174 0
153 175 0
162 186 0
156 178 0
155 178 0
160 183 0
145 168 0
154 177 0
148 171 0
144 166 0
153 174 0
149 171 0
153 175 0
154 175 0
148 171 0
146 168 0
152 175 0
149 171 0
149 171 0
144 167 0
154 176 0
145 167 0
140 161 0
143 164 0
140 162 0
151 173 0
133 154 0
137 159 0
134 157 0
142 164 0
146 167 0
141 161 0
135 155 0
127 147 0
136 157 0
121 141 0
134 154 0
133 153 0
132 152 0
125 144 0
130 150 0
109 128 0
118 136 0
113 132 0
120 137 0
114 132 0
119 137 0
96 112 0
110 127 18
106 122 0
93 111 31
85 102 25
81 100 51
79 99 60
66 86 40
76 100 62
64 90 80
56 84 70
54 83 90
62 92 92
55 87 102
56 89 99
60 90 103
75 102 103
82 105 90
86 110 80
90 113 78
99 120 76
100 118 84
106 125 84
109 128 70
108 130 72
119 137 70
124 142 57
114 133 82
111 132 54
111 128 62
106 128 90
111 132 70
109 127 67
107 127 57
108 128 67
98 118 60
95 115 60
105 127 76
99 118 74
92 113 67
92 111 57
97 118 57
92 112 36
98 117 40
105 124 44
100 120 36
90 108 31
87 105 25
91 107 18
96 113 18
92 108 25
75 90 18
91 107 0
98 115 0
92 107 36
72 90 18
86 104 40
80 99 40
79 98 51
73 93 47
73 92 40
56 80 60
60 84 51
61 84 65
65 87 62
57 81 54
63 87 67
74 95 57
74 95 54
61 86 62
69 90 47
69 90 60
68 86 67
75 94 47
66 86 47
75 95 40
85 101 25
83 99 25
80 97 47
73 89 36
82 95 0
78 93 18
82 97 0
90 105 0
85 99 0
96 110 0
96 109 0
86 101 0
84 99 0
80 95 0
87 101 0
94 108 0
88 102 0
97 111 0
97 112 0
110 126 0
104 119 0
100 116 0
114 132 0
97 113 0
92 107 0
95 112 0
99 116 0
99 114 0
103 119 0
114 131 0
103 118 0
99 116 0
96 113 0
109 124 0
118 135 0
105 122 0
107 124 0
125 143 0
108 124 0
110 130 0
106 122 0
107 124 0
122 141 0
115 134 0
123 141 0
105 122 0
118 136 0
121 139 0
129 146 0
125 142 0
122 138 0
133 152 0
129 147 0
130 148 0
132 150 0
125 142 0
133 150 0
127 145 0
134 151 0
132 150 0
121 141 0
130 148 0
127 147 0
123 143 0
131 150 0
133 152 0
131 148 0
131 148 0
137 156 0
138 157 0
140 158 0
130 148 0
131 150 0
129 147 0
133 150 0
133 152 0
142 159 0
138 157 0
136 155 0
141 159 0
146 165 0
142 161 0
135 154 0
143 163 0
139 158 0
142 160 0
135 154 0
146 164 0
146 164 0
138 159 0
146 165 0
151 170 0
134 153 0
140 159 0
139 158 0
148 168 0
140 159 0
153 171 0
158 176 0
150 169 0
148 167 0
146 166 0
143 162 0
147 166 0
148 168 0
153 174 0
145 164 0
145 164 0
147 166 0
155 175 0
153 174 0
143 163 0
148 167 0
157 176 0
152 172 0
150 169 0
153 173 0
152 171 0
154 175 0
146 165 0
147 167 0
148 167 0
149 169 0
149 167 0
153 171 0
153 174 0
152 170 0
157 176 0
155 175 0
145 165 0
154 173 0
157 177 0
155 176 0
154 173 0
156 175 0
155 175 0
156 177 0
156 175 0
156 176 0
157 176 0
154 173 0
157 177 0
160 180 0
159 178 0
160 179 0
153 172 0
152 170 0
154 173 0
159 178 0
163 180 0
160 180 0
152 170 0
158 178 0
153 171 0
154 174 0
160 179 0
160 181 0
162 181 0
156 175 0
164 183 0
158 179 0
158 179 0
156 175 0
152 171 0
162 183 0
163 182 0
164 185 0
163 183 0
161 182 0
163 183 0
157 176 0
157 177 0
159 178 0
161 181 0
157 175 0
160 180 0
162 183 0
164 185 0
160 180 0
160 181 0
160 179 0
162 183 0
162 182 0
167 188 0
156 176 0
164 183 0
162 183 0
159 179 0
163 184 0
166 188 0
163 184 0
163 184 0
166 187 0
166 186 0
163 183 0
160 181 0
164 184 0
164 185 0
162 183 0
162 182 0
160 181 0
169 190 0
160 181 0
163 183 0
160 180 0
168 190 0
158 176 0
164 185 0
169 190 0
166 187 0
166 186 0
161 181 0
162 183 0
164 186 0
166 188 0
164 185 0
167 191 0
169 192 0
168 192 0
165 188 0
168 192 0
166 190 0
168 190 0
168 191 0
171 193 0
166 190 0
164 188 0
168 191 0
164 188 0
162 186 0
166 190 0
161 185 0
169 193 0
165 187 0
169 193 0
166 189 0
161 184 0
159 182 0
164 187 0
166 189 0
163 186 0
170 193 0
165 188 0
157 180 0
165 188 0
162 185 0
165 189 0
159 183 0
167 189 0
161 184 0
164 187 0
164 187 0
165 187 0
163 187 0
157 180 0
166 190 0
161 183 0
161 184 0
159 182 0
160 183 0
162 185 0
162 185 0
157 180 0
160 183 0
159 183 0
161 184 0
158 182 0
160 183 0
161 184 0
159 180 0
159 181 0
155 178 0
163 186 0
150 173 0
152 175 0
153 177 0
159 182 0
156 179 0
156 178 0
153 177 0
150 173 0
158 181 0
149 172 0
158 181 0
154 176 0
153 175 0
145 167 0
149 172 0
146 169 0
144 167 0
149 171 0
152 174 0
152 174 0
150 172 0
148 169 0
145 167 0
153 175 0
143 165 0
139 161 0
135 156 0
139 161 0
137 159 0
143 163 0
148 169 0
144 165 0
145 167 0
141 162 0
141 162 0
141 161 0
141 162 0
126 146 0
124 144 0
117 138 0
130 150 0
130 150 0
125 144 0
137 158 0
124 144 0
122 140 0
123 143 0
109 128 0
105 126 0
122 140 0
126 144 0
113 131 0
94 110 0
103 119 0
98 115 25
101 118 18
87 106 40
96 113 51
75 96 54
80 100 60
64 90 74
69 93 62
63 89 70
60 88 84
53 82 80
64 94 95
61 89 82
65 92 82
70 96 70
80 102 88
92 113 84
95 115 72
102 122 76
110 131 60
107 125 70
106 129 74
107 126 60
114 131 54
112 131 92
110 128 47
116 136 62
107 124 31
113 129 60
101 122 76
99 120 60
114 131 51
107 127 60
93 115 65
97 118 51
110 130 44
113 132 54
109 130 51
103 124 47
101 120 51
93 112 47
100 120 54
92 109 44
83 101 18
87 105 25
82 99 25
93 109 18
103 119 0
90 106 0
96 112 0
86 102 0
88 102 0
83 98 18
90 103 0
81 95 0
85 99 0
67 80 0
85 100 0
80 96 0
89 103 0
80 95 18
87 101 0
91 106 0
81 96 31
79 94 18
70 84 25
89 105 18
76 91 0
75 90 25
69 84 18
95 108 0
79 93 0
93 108 0
83 96 0
79 93 0
77 91 0
83 97 0
88 102 0
89 103 0
106 121 0
88 101 0
83 97 0
93 108 0
94 109 0
93 106 0
85 100 0
105 120 0
86 101 0
103 118 0
81 98 0
103 118 0
97 112 0
87 103 0
109 125 0
96 111 0
108 125 0
96 113 0
107 123 0
100 117 0
116 133 0
97 114 0
117 135 0
106 121 0
96 113 0
120 136 0
125 142 0
103 119 0
119 136 0
120 138 0
104 121 0
118 135 0
118 135 0
111 128 0
106 123 0
114 131 0
116 133 0
105 123 0
116 135 0
126 143 0
128 146 0
121 140 0
116 135 0
116 134 0
133 151 0
121 139 0
127 144 0
129 146 0
116 135 0
133 151 0
112 130 0
131 149 0
127 145 0
133 152 0
136 154 0
125 142 0
134 152 0
130 150 0
143 161 0
131 150 0
139 159 0
142 161 0
139 156 0
134 154 0
141 160 0
133 150 0
135 154 0
136 154 0
133 152 0
144 165 0
141 160 0
142 161 0
135 154 0
142 161 0
144 163 0
143 164 0
144 163 0
138 158 0
143 162 0
132 152 0
146 164 0
142 162 0
152 172 0
149 168 0
149 170 0
147 166 0
144 163 0
141 160 0
147 167 0
139 160 0
144 163 0
142 161 0
147 165 0
136 156 0
141 161 0
153 172 0
147 167 0
149 168 0
156 173 0
152 171 0
142 162 0
149 170 0
149 169 0
142 161 0
152 172 0
149 170 0
147 166 0
147 166 0
150 169 0
154 173 0
149 169 0
151 172 0
159 180 0
157 175 0
152 172 0
154 174 0
150 170 0
146 165 0
152 171 0
157 177 0
151 171 0
153 174 0
156 174 0
159 179 0
158 179 0
154 173 0
155 176 0
158 179 0
158 180 0
156 177 0
151 171 0
151 170 0
153 174 0
156 177 0
154 173 0
155 176 0
155 176 0
158 178 0
160 180 0
156 175 0
157 177 0
153 173 0
160 182 0
153 173 0
153 175 0
156 176 0
158 177 0
155 176 0
160 181 0
158 179 0
160 180 0
162 182 0
160 180 0
160 179 0
157 176 0
160 181 0
158 178 0
162 182 0
152 170 0
160 181 0
158 179 0
161 181 0
160 178 0
162 182 0
151 170 0
160 180 0
160 180 0
161 183 0
165 186 0
159 179 0
163 184 0
165 187 0
161 182 0
161 180 0
166 188 0
165 186 0
166 187 0
156 175 0
161 182 0
160 181 0
164 186 0
161 181 0
163 183 0
162 183 0
167 188 0
162 183 0
163 184 0
161 181 0
164 184 0
164 183 0
167 189 0
164 186 0
163 183 0
164 186 0
159 179 0
163 183 0
163 183 0
165 185 0
160 181 0
163 186 0
161 181 0
160 181 0
165 184 0
164 186 0
161 181 0
161 182 0
167 188 0
169 190 0
165 187 0
169 191 0
167 191 0
168 191 0
168 192 0
166 190 0
168 191 0
165 189 0
167 190 0
167 190 0
168 191 0
160 182 0
163 186 0
168 192 0
167 190 0
164 187 0
164 187 0
166 190 0
162 184 0
165 189 0
167 191 0
168 192 0
166 189 0
168 191 0
164 187 0
167 190 0
165 189 0
169 192 0
165 188 0
162 185 0
158 182 0
163 186 0
166 190 0
165 189 0
169 192 0
161 185 0
162 185 0
160 183 0
161 184 0
164 188 0
165 187 0
162 185 0
160 183 0
162 185 0
161 183 0
161 183 0
157 181 0
154 178 0
157 181 0
159 183 0
161 184 0
162 185 0
159 181 0
160 183 0
159 181 0
158 181 0
157 180 0
155 178 0
154 178 0
161 184 0
160 183 0
158 182 0
155 178 0
157 180 0
159 182 0
149 172 0
153 176 0
158 181 0
153 175 0
154 177 0
151 173 0
160 183 0
154 176 0
154 177 0
147 170 0
146 168 0
154 176 0
144 166 0
146 169 0
150 173 0
142 164 0
140 163 0
143 165 0
141 163 0
144 166 0
152 174 0
137 158 0
144 166 0
143 165 0
146 167 0
137 157 0
151 172 0
138 159 0
138 158 0
132 153 0
136 157 0
138 159 0
136 156 0
129 150 0
124 145 0
125 145 0
116 136 0
119 138 0
138 157 0
115 134 0
135 157 0
127 145 0
119 136 0
122 141 0
112 131 0
107 125 0
117 136 0
104 122 0
107 123 0
104 120 18
94 109 31
86 103 31
86 104 36
72 91 47
76 95 51
62 84 60
66 89 70
62 85 65
61 87 74
65 91 82
64 89 88
79 104 92
67 93 86
72 97 76
81 103 67
96 116 84
106 124 67
114 135 60
100 120 62
112 130 44
114 132 76
108 129 78
123 142 54
118 138 65
128 146 54
123 142 36
129 149 44
120 142 51
116 135 60
107 125 51
107 125 54
99 119 62
104 123 60
105 125 57
101 119 44
100 119 40
98 115 25
101 121 51
101 120 40
85 103 31
99 116 25
93 111 31
96 114 25
94 111 18
93 110 0
102 119 0
112 126 0
90 103 0
104 120 0
93 108 0
96 110 0
97 112 0
83 97 0
81 96 0
99 114 0
95 109 0
87 101 0
93 108 0
84 99 0
81 94 0
84 98 0
80 95 0
92 106 0
86 102 0
86 99 0
96 111 0
92 106 0
94 109 0
73 86 0
86 100 0
93 107 0
93 107 0
83 96 0
89 102 0
81 96 0
93 109 0
95 111 0
94 110 0
78 92 0
95 109 0
80 96 0
92 107 0
90 105 0
92 109 0
105 121 0
93 109 0
106 121 0
84 100 0
101 117 0
102 118 0
104 120 0
106 120 0
104 120 0
115 132 0
118 134 0
94 110 0
107 122 0
104 119 0
110 126 0
113 130 0
116 132 0
121 137 0
97 113 0
113 130 0
113 131 0
104 121 0
107 125 0
113 131 0
126 144 0
121 137 0
113 130 0
120 138 0
113 130 0
110 127 0
119 138 0
130 148 0
116 134 0
123 139 0
111 128 0
128 146 0
122 140 0
128 145 0
106 122 0
131 149 0
125 142 0
140 159 0
135 153 0
131 150 0
138 158 0
131 151 0
130 149 0
141 162 0
135 153 0
137 155 0
130 148 0
127 146 0
125 145 0
131 150 0
124 142 0
127 147 0
137 156 0
136 156 0
135 156 0
132 153 0
131 151 0
139 159 0
145 162 0
137 157 0
142 160 0
133 151 0
140 159 0
134 154 0
140 159 0
142 161 0
130 148 0
138 159 0
138 157 0
134 153 0
144 164 0
145 165 0
145 164 0
135 152 0
144 166 0
142 160 0
151 173 0
146 165 0
144 162 0
146 165 0
147 166 0
146 167 0
146 164 0
148 168 0
151 170 0
145 165 0
153 173 0
149 170 0
149 168 0
146 165 0
157 175 0
147 165 0
154 174 0
158 178 0
142 161 0
148 166 0
152 172 0
155 174 0
151 170 0
150 171 0
151 172 0
145 164 0
152 173 0
151 170 0
152 171 0
155 174 0
148 167 0
150 170 0
154 174 0
159 178 0
153 172 0
159 180 0
156 176 0
156 176 0
150 171 0
158 177 0
155 175 0
160 180 0
154 173 0
147 167 0
151 170 0
155 175 0
154 173 0
156 176 0
158 180 0
156 177 0
156 176 0
155 173 0
160 181 0
159 180 0
152 171 0
157 178 0
157 177 0
160 180 0
158 177 0
164 185 0
159 180 0
158 176 0
160 179 0
159 179 0
164 183 0
159 179 0
159 177 0
154 175 0
162 182 0
157 177 0
162 183 0
156 177 0
163 183 0
159 179 0
159 178 0
166 186 0
162 181 0
158 180 0
163 183 0
155 176 0
160 181 0
160 181 0
165 187 0
163 183 0
159 178 0
162 183 0
159 180 0
161 182 0
164 184 0
167 186 0
162 181 0
158 179 0
162 182 0
164 186 0
166 187 0
162 182 0
162 181 0
153 174 0
160 180 0
164 185 0
166 187 0
164 185 0
163 184 0
166 188 0
160 180 0
166 187 0
167 188 0
167 188 0
166 187 0
166 185 0
162 183 0
161 183 0
168 189 0
163 183 0
164 185 0
163 184 0
162 183 0
167 188 0
166 185 0
169 189 0
167 187 0
164 186 0
168 189 0
166 190 0
167 190 0
162 186 0
166 190 0
168 191 0
167 190 0
170 193 0
165 189 0
168 191 0
163 187 0
167 191 0
163 186 0
161 185 0
162 186 0
166 190 0
167 191 0
166 189 0
169 192 0
168 191 0
160 183 0
162 186 0
164 188 0
168 191 0
168 192 0
161 185 0
164 187 0
168 191 0
165 188 0
164 188 0
159 182 0
159 182 0
164 187 0
162 186 0
161 185 0
163 186 0
164 186 0
166 190 0
160 184 0
167 190 0
157 180 0
158 180 0
163 187 0
162 185 0
160 184 0
156 179 0
158 180 0
165 188 0
158 181 0
167 189 0
158 181 0
159 182 0
152 175 0
158 181 0
163 186 0
153 177 0
162 186 0
157 179 0
152 175 0
153 176 0
151 173 0
156 180 0
156 179 0
153 175 0
150 174 0
154 177 0
145 167 0
160 183 0
160 183 0
158 181 0
154 177 0
157 178 0
147 169 0
156 179 0
145 167 0
151 174 0
149 171 0
150 172 0
150 173 0
143 165 0
147 169 0
150 172 0
149 171 0
144 166 0
147 169 0
135 157 0
139 161 0
141 162 0
146 167 0
143 164 0
140 161 0
150 172 0
145 166 0
132 153 0
147 167 0
130 150 0
137 158 0
128 148 0
123 144 0
135 155 0
136 156 0
131 151 0
122 142 0
127 147 0
114 133 0
115 134 0
112 131 0
119 138 0
115 132 0
103 120 0
106 124 0
114 132 0
107 123 0
105 120 0
113 129 18
79 96 18
96 113 25
88 107 36
88 104 36
67 89 60
71 90 51
66 90 72
73 97 60
55 81 67
78 100 65
68 94 86
73 96 82
97 118 72
91 111 60
93 113 57
101 120 65
106 125 54
102 119 51
114 134 57
111 130 60
120 138 51
122 139 47
121 140 40
119 139 44
116 132 31
121 140 54
116 134 44
104 123 47
113 132 57
104 123 25
108 125 25
107 126 40
112 130 36
108 127 40
111 129 40
95 114 36
105 124 25
96 113 25
107 125 25
93 110 0
100 117 0
97 115 18
96 113 0
104 120 0
95 112 0
84 97 0
94 109 0
98 114 0
110 126 0
95 110 0
89 104 0
96 111 0
102 117 0
92 106 0
86 101 0
92 107 0
85 102 0
97 112 0
98 113 0
83 97 0
93 108 0
109 124 0
87 102 0
96 112 0
90 104 0
89 104 0
93 107 0
93 108 0
91 106 0
107 122 0
90 106 0
102 118 0
97 112 0
92 106 0
99 114 0
105 120 0
93 108 0
98 113 0
89 105 0
97 113 0
103 117 0
95 112 0
102 118 0
97 113 0
98 112 0
94 109 0
108 124 0
110 126 0
99 116 0
86 101 0
102 118 0
110 126 0
102 119 0
101 118 0
104 121 0
97 115 0
115 131 0
103 119 0
105 123 0
113 129 0
109 125 0
120 138 0
108 125 0
107 125 0
126 142 0
124 142 0
114 131 0
125 142 0
109 127 0
112 130 0
115 130 0
129 149 0
121 140 0
115 133 0
127 144 0
129 147 0
119 137 0
130 149 0
121 140 0
125 143 0
130 150 0
125 142 0
132 149 0
114 132 0
119 138 0
128 145 0
133 151 0
140 160 0
131 151 0
121 138 0
128 146 0
128 147 0
134 154 0
126 144 0
125 144 0
137 156 0
129 150 0
136 153 0
132 152 0
138 156 0
150 170 0
137 154 0
135 155 0
131 149 0
130 151 0
136 157 0
138 158 0
135 154 0
141 160 0
135 154 0
138 158 0
133 149 0
147 167 0
138 157 0
143 163 0
140 159 0
145 166 0
144 164 0
147 168 0
145 165 0
142 162 0
150 170 0
143 161 0
136 153 0
149 168 0
151 171 0
152 171 0
147 166 0
155 175 0
149 169 0
145 165 0
153 171 0
148 167 0
147 165 0
148 168 0
141 161 0
144 162 0
149 168 0
147 166 0
144 163 0
149 168 0
145 164 0
150 170 0
146 165 0
155 174 0
151 172 0
149 169 0
152 173 0
156 175 0
155 175 0
158 177 0
151 170 0
150 170 0
151 171 0
155 174 0
151 170 0
155 176 0
151 170 0
155 176 0
155 177 0
154 173 0
155 174 0
150 171 0
156 176 0
156 175 0
162 182 0
154 176 0
160 180 0
155 174 0
155 175 0
151 172 0
158 177 0
158 177 0
149 168 0
155 175 0
152 172 0
157 178 0
161 182 0
150 169 0
157 174 0
156 175 0
158 178 0
159 179 0
166 188 0
159 179 0
158 177 0
160 180 0
159 179 0
159 180 0
160 180 0
155 175 0
158 176 0
159 179 0
162 183 0
163 185 0
164 183 0
154 175 0
156 176 0
164 185 0
158 180 0
158 178 0
155 175 0
165 186 0
161 181 0
160 181 0
167 189 0
159 178 0
163 183 0
165 186 0
161 180 0
161 181 0
162 182 0
166 187 0
164 186 0
162 182 0
162 182 0
166 184 0
161 182 0
164 186 0
166 188 0
164 185 0
170 191 0
160 179 0
162 184 0
164 185 0
167 189 0
167 189 0
169 191 0
158 180 0
165 187 0
167 188 0
162 185 0
166 187 0
170 190 0
165 185 0
169 190 0
165 187 0
164 186 0
165 185 0
165 186 0
165 186 0
165 184 0
166 186 0
163 184 0
168 190 0
168 190 0
161 184 0
171 194 0
170 193 0
169 193 0
170 192 0
165 188 0
172 195 0
167 190 0
169 193 0
166 190 0
164 188 0
173 196 0
166 189 0
166 190 0
166 190 0
165 189 0
168 192 0
168 191 0
165 188 0
171 194 0
163 187 0
165 188 0
163 187 0
165 189 0
159 183 0
159 183 0
162 186 0
164 186 0
169 192 0
161 184 0
165 188 0
164 188 0
162 186 0
167 190 0
163 186 0
160 184 0
161 185 0
166 189 0
164 187 0
160 183 0
164 188 0
169 192 0
160 182 0
161 183 0
162 185 0
160 183 0
159 182 0
159 183 0
155 179 0
151 174 0
157 180 0
156 179 0
158 181 0
166 189 0
155 179 0
161 184 0
158 180 0
161 184 0
154 176 0
148 172 0
160 183 0
155 178 0
151 175 0
156 180 0
151 174 0
152 175 0
150 172 0
154 176 0
153 175 0
156 179 0
140 161 0
145 167 0
149 172 0
153 176 0
157 180 0
152 174 0
150 173 0
139 161 0
150 172 0
147 169 0
149 171 0
145 167 0
146 168 0
144 166 0
145 167 0
155 176 0
143 165 0
141 163 0
137 158 0
148 170 0
145 166 0
136 156 0
136 157 0
133 154 0
133 154 0
131 151 0
130 151 0
118 138 0
127 147 0
126 146 0
124 142 0
132 152 0
126 144 0
129 149 0
104 123 0
124 142 0
119 137 0
126 144 0
123 143 0
113 131 0
102 118 0
118 135 0
95 112 0
103 119 0
101 119 18
102 118 0
86 104 18
77 94 25
85 102 40
95 114 62
78 99 47
77 97 62
67 87 65
79 101 76
78 99 57
86 107 57
85 106 70
102 120 47
102 123 67
97 117 51
118 137 51
117 134 47
119 139 51
118 136 57
127 144 40
119 139 36
129 146 44
133 152 18
127 145 25
114 131 40
135 152 31
123 142 31
114 130 36
108 126 25
108 126 36
111 129 31
112 131 25
111 129 40
102 119 18
109 127 25
111 128 18
103 120 31
101 118 0
102 118 0
106 122 0
102 118 0
109 126 0
104 120 0
95 110 0
101 117 0
94 110 0
108 124 0
106 122 0
103 119 0
95 111 0
97 113 0
84 99 0
97 112 0
100 115 0
92 106 0
87 103 0
93 108 0
100 115 0
80 94 0
90 105 0
92 108 0
102 118 0
100 116 0
94 109 0
97 112 0
97 113 0
90 105 0
88 104 0
83 98 0
84 99 0
92 107 0
99 115 0
95 110 0
81 99 0
83 99 0
92 108 0
96 112 0
103 120 0
99 113 0
84 100 0
109 124 0
86 102 0
95 112 0
98 114 0
109 124 0
85 103 0
94 108 0
110 125 0
96 112 0
120 136 0
114 131 0
107 124 0
110 127 0
105 123 0
117 134 0
111 128 0
108 126 0
109 125 0
101 118 0
110 125 0
107 125 0
110 127 0
111 129 0
107 122 0
119 137 0
105 123 0
116 135 0
120 137 0
124 142 0
122 140 0
122 142 0
121 139 0
138 155 0
116 136 0
119 138 0
118 136 0
128 146 0
126 145 0
124 144 0
129 148 0
129 146 0
123 143 0
128 146 0
129 147 0
133 152 0
128 147 0
130 150 0
135 154 0
132 153 0
127 144 0
138 158 0
133 151 0
131 150 0
134 154 0
138 159 0
130 150 0
141 161 0
135 154 0
143 161 0
134 154 0
126 144 0
132 151 0
144 163 0
143 162 0
136 158 0
132 153 0
134 154 0
140 159 0
139 159 0
138 158 0
139 158 0
139 157 0
143 161 0
141 160 0
144 164 0
135 154 0
142 162 0
141 158 0
150 169 0
137 157 0
142 161 0
147 166 0
153 173 0
149 170 0
151 171 0
145 165 0
144 163 0
138 158 0
147 165 0
152 171 0
145 165 0
150 172 0
150 171 0
149 168 0
148 168 0
151 172 0
156 176 0
144 165 0
151 170 0
148 168 0
149 169 0
150 171 0
143 163 0
152 173 0
154 172 0
159 179 0
153 175 0
157 178 0
150 169 0
149 171 0
150 168 0
156 178 0
146 165 0
159 179 0
150 171 0
153 172 0
159 179 0
156 177 0
154 174 0
158 179 0
158 180 0
158 180 0
152 172 0
156 177 0
155 173 0
158 180 0
159 180 0
159 180 0
165 185 0
151 171 0
150 170 0
162 184 0
163 184 0
160 179 0
160 179 0
165 186 0
156 175 0
155 176 0
156 177 0
156 174 0
160 180 0
162 182 0
161 182 0
165 185 0
156 175 0
167 187 0
160 180 0
162 181 0
158 179 0
162 182 0
152 171 0
157 177 0
156 174 0
165 185 0
162 183 0
160 180 0
161 181 0
165 186 0
160 180 0
156 175 0
159 179 0
158 176 0
159 179 0
166 187 0
162 180 0
162 183 0
165 186 0
167 186 0
164 185 0
164 184 0
167 188 0
163 183 0
164 183 0
159 179 0
161 181 0
165 185 0
162 184 0
162 184 0
166 188 0
161 181 0
169 190 0
164 183 0
166 187 0
167 188 0
170 189 0
165 186 0
165 185 0
167 186 0
162 183 0
164 187 0
167 188 0
165 186 0
166 187 0
171 192 0
161 183 0
169 189 0
165 186 0
163 181 0
167 188 0
164 185 0
169 190 0
168 188 0
164 185 0
168 190 0
166 187 0
168 192 0
166 190 0
164 188 0
166 190 0
168 190 0
168 191 0
164 187 0
163 186 0
162 186 0
165 189 0
166 189 0
169 192 0
174 197 0
170 193 0
168 192 0
167 191 0
164 187 0
164 187 0
163 186 0
164 188 0
167 190 0
169 191 0
168 191 0
167 189 0
165 188 0
162 186 0
155 179 0
162 187 0
161 184 0
164 187 0
165 189 0
165 189 0
164 187 0
158 181 0
160 184 0
165 188 0
162 186 0
165 188 0
164 187 0
163 185 0
161 184 0
163 186 0
162 184 0
159 182 0
154 178 0
162 185 0
158 182 0
160 184 0
161 184 0
160 182 0
164 188 0
160 183 0
157 179 0
149 173 0
154 177 0
154 177 0
156 179 0
162 185 0
155 179 0
157 180 0
158 180 0
153 175 0
154 177 0
152 175 0
156 179 0
153 177 0
148 172 0
160 183 0
160 182 0
152 174 0
158 181 0
152 174 0
154 176 0
146 168 0
150 172 0
147 169 0
145 166 0
143 164 0
149 170 0
144 166 0
141 163 0
142 164 0
147 168 0
136 157 0
144 164 0
142 164 0
142 164 0
148 170 0
134 155 0
148 169 0
145 166 0
137 159 0
136 158 0
135 156 0
131 151 0
137 158 0
126 148 0
131 152 0
127 148 0
117 137 0
132 151 0
118 137 0
144 163 0
127 148 0
123 144 0
126 145 0
119 138 0
124 142 0
129 147 0
120 138 0
122 140 0
104 121 0
108 126 0
105 121 0
99 115 0
113 129 0
98 114 25
97 113 25
89 105 36
85 102 44
73 91 31
77 96 36
88 106 44
70 89 40
83 103 47
95 113 60
100 117 62
96 114 36
120 136 36
96 115 62
116 135 40
122 141 40
122 141 44
120 139 44
129 148 40
127 145 36
118 138 40
134 154 0
132 148 25
129 147 36
124 140 31
128 145 0
114 132 25
119 136 31
120 137 18
110 126 25
120 138 36
108 125 25
125 143 18
106 122 18
112 130 0
113 130 0
101 117 0
118 136 0
105 122 0
116 133 0
96 113 0
105 122 0
107 123 0
112 127 0
92 108 0
94 110 0
112 128 0
101 117 0
116 131 0
95 110 0
99 114 0
101 117 0
100 116 0
96 113 0
108 124 0
92 108 0
90 103 0
91 107 0
96 112 0
106 121 0
96 112 0
110 125 0
95 110 0
91 107 0
98 113 0
82 96 0
82 96 0
93 107 0
89 103 0
104 119 0
106 121 0
90 106 0
95 111 0
99 115 0
96 112 0
108 123 0
97 114 0
116 133 0
97 114 0
105 120 0
114 131 0
87 103 0
101 117 0
97 114 0
93 108 0
109 126 0
94 109 0
111 128 0
94 109 0
128 145 0
108 125 0
121 138 0
108 124 0
108 126 0
127 144 0
114 130 0
103 119 0
117 134 0
117 134 0
112 129 0
107 124 0
111 128 0
125 144 0
120 138 0
116 132 0
132 151 0
126 141 0
110 127 0
105 123 0
105 123 0
127 146 0
123 140 0
125 143 0
121 140 0
131 150 0
122 141 0
125 144 0
125 143 0
119 137 0
127 147 0
123 143 0
119 139 0
127 145 0
132 151 0
138 157 0
138 157 0
134 152 0
132 150 0
134 153 0
130 149 0
140 158 0
125 145 0
134 153 0
132 150 0
134 153 0
134 154 0
138 157 0
141 160 0
132 152 0
139 158 0
139 160 0
131 151 0
135 156 0
141 161 0
138 157 0
135 155 0
138 158 0
147 167 0
138 159 0
141 160 0
139 157 0
143 162 0
146 165 0
142 161 0
151 170 0
134 153 0
144 163 0
146 166 0
150 172 0
145 165 0
142 163 0
150 170 0
144 163 0
138 156 0
134 155 0
144 164 0
145 165 0
146 166 0
151 170 0
152 172 0
146 167 0
145 165 0
144 163 0
144 163 0
142 161 0
157 178 0
157 178 0
151 172 0
158 178 0
149 170 0
153 173 0
152 172 0
150 171 0
154 174 0
154 174 0
153 173 0
155 176 0
154 175 0
152 172 0
152 172 0
151 170 0
155 176 0
152 174 0
150 170 0
155 175 0
156 176 0
154 175 0
149 169 0
154 175 0
155 176 0
156 177 0
150 171 0
153 173 0
154 173 0
159 179 0
158 178 0
157 176 0
162 182 0
155 176 0
154 172 0
148 168 0
155 177 0
150 169 0
156 176 0
161 182 0
161 181 0
157 178 0
161 182 0
156 175 0
161 183 0
162 183 0
162 181 0
159 180 0
158 178 0
157 177 0
160 180 0
161 181 0
160 181 0
157 177 0
163 182 0
154 174 0
160 179 0
160 179 0
164 184 0
156 175 0
154 175 0
160 181 0
164 185 0
163 183 0
161 181 0
160 180 0
163 184 0
166 186 0
162 182 0
162 184 0
164 186 0
160 183 0
159 180 0
164 185 0
162 183 0
166 186 0
167 189 0
162 183 0
164 184 0
162 183 0
163 184 0
161 182 0
160 181 0
162 183 0
165 185 0
166 188 0
165 186 0
164 187 0
165 185 0
167 189 0
163 183 0
168 189 0
163 183 0
166 187 0
167 188 0
168 190 0
164 183 0
165 186 0
164 187 0
163 184 0
169 190 0
166 186 0
162 183 0
166 186 0
164 186 0
168 191 0
166 187 0
165 187 0
169 190 0
169 193 0
164 187 0
165 188 0
171 194 0
171 194 0
168 192 0
167 191 0
166 189 0
168 191 0
171 194 0
168 192 0
164 187 0
165 188 0
166 190 0
164 187 0
165 189 0
173 196 0
167 190 0
167 191 0
170 193 0
164 188 0
167 190 0
162 186 0
164 188 0
165 188 0
163 186 0
166 189 0
162 185 0
161 184 0
159 183 0
165 189 0
164 188 0
164 188 0
164 187 0
165 188 0
166 189 0
163 186 0
158 181 0
163 186 0
162 186 0
163 185 0
161 184 0
154 177 0
161 184 0
159 183 0
155 178 0
155 179 0
164 187 0
165 188 0
152 176 0
152 175 0
159 183 0
159 182 0
165 189 0
163 186 0
155 178 0
152 175 0
160 183 0
156 179 0
161 184 0
148 172 0
152 176 0
153 176 0
154 176 0
154 177 0
160 183 0
154 176 0
148 171 0
151 173 0
153 176 0
153 175 0
143 166 0
158 180 0
149 172 0
149 172 0
151 173 0
146 168 0
146 167 0
141 164 0
149 170 0
149 172 0
144 165 0
144 166 0
149 171 0
141 162 0
149 170 0
145 167 0
144 167 0
136 157 0
143 164 0
139 160 0
146 167 0
137 159 0
141 162 0
145 166 0
133 154 0
135 156 0
135 156 0
130 151 0
133 152 0
126 147 0
132 153 0
129 148 0
129 148 0
128 147 0
127 146 0
122 143 0
121 140 0
114 132 0
115 132 0
112 131 0
112 130 0
120 139 0
103 119 0
106 123 0
99 116 0
99 114 18
104 120 18
83 100 31
89 106 40
80 96 40
85 103 25
92 111 40
89 106 44
76 93 36
86 106 51
87 105 40
89 107 51
115 135 51
127 147 44
112 129 40
125 143 40
122 139 18
127 143 18
123 140 0
135 152 0
132 150 0
129 144 18
133 152 0
126 141 0
120 135 0
117 135 0
127 145 0
119 135 18
110 127 0
119 136 18
110 128 18
125 142 0
115 131 0
113 129 0
94 111 0
106 124 0
110 126 0
103 119 0
102 118 0
109 125 0
106 124 0
101 118 0
103 119 0
108 125 0
122 138 0
114 131 0
100 117 0
108 125 0
108 124 0
98 114 0
92 108 0
108 125 0
108 124 0
94 111 0
105 122 0
98 114 0
96 111 0
92 107 0
105 121 0
90 106 0
93 108 0
95 109 0
99 115 0
117 134 0
92 109 0
109 124 0
96 110 0
102 117 0
99 114 0
111 127 0
95 111 0
99 115 0
100 117 0
107 122 0
107 124 0
87 105 0
107 123 0
109 126 0
115 133 0
95 111 0
97 114 0
105 120 0
112 129 0
105 122 0
106 122 0
113 129 0
102 119 0
101 117 0
98 116 0
123 141 0
118 136 0
119 136 0
114 132 0
114 132 0
110 127 0
105 123 0
111 128 0
115 132 0
105 122 0
120 138 0
121 138 0
108 125 0
112 131 0
122 138 0
126 144 0
116 133 0
126 144 0
117 134 0
112 132 0
128 146 0
131 150 0
129 147 0
132 151 0
130 149 0
118 138 0
124 143 0
126 144 0
129 149 0
128 146 0
125 144 0
140 159 0
134 152 0
130 148 0
117 136 0
138 158 0
141 160 0
128 146 0
141 160 0
138 159 0
134 151 0
125 144 0
133 153 0
143 163 0
137 158 0
137 158 0
139 159 0
136 155 0
136 156 0
140 161 0
139 158 0
131 152 0
136 157 0
144 162 0
143 161 0
138 158 0
136 155 0
137 157 0
144 164 0
143 163 0
132 151 0
140 159 0
142 161 0
141 162 0
140 160 0
139 158 0
141 161 0
141 162 0
148 168 0
145 165 0
149 170 0
150 170 0
144 165 0
144 163 0
146 167 0
148 168 0
146 165 0
148 168 0
145 164 0
143 162 0
153 175 0
141 160 0
144 163 0
141 162 0
149 169 0
153 173 0
154 174 0
150 172 0
149 170 0
148 167 0
153 172 0
145 165 0
154 174 0
150 171 0
150 170 0
148 168 0
153 173 0
153 173 0
157 176 0
152 171 0
146 166 0
152 172 0
159 180 0
155 176 0
149 169 0
156 177 0
148 170 0
154 176 0
157 177 0
156 176 0
158 178 0
156 176 0
152 173 0
157 178 0
161 182 0
157 179 0
152 172 0
156 178 0
156 177 0
157 177 0
155 177 0
150 171 0
155 177 0
154 173 0
157 177 0
156 177 0
156 174 0
162 182 0
157 177 0
154 175 0
157 178 0
162 184 0
162 183 0
154 175 0
160 180 0
156 176 0
165 185 0
161 181 0
157 176 0
163 185 0
164 184 0
164 185 0
164 186 0
157 176 0
157 177 0
160 180 0
157 177 0
161 182 0
159 177 0
162 182 0
166 188 0
158 179 0
161 181 0
159 180 0
156 176 0
164 186 0
165 186 0
168 188 0
163 184 0
161 182 0
161 182 0
164 185 0
160 183 0
162 181 0
167 189 0
162 182 0
162 182 0
167 188 0
163 185 0
161 182 0
165 186 0
167 188 0
170 191 0
164 185 0
161 182 0
164 184 0
162 183 0
163 183 0
163 184 0
163 184 0
164 184 0
164 185 0
167 188 0
162 184 0
162 183 0
168 191 0
166 188 0
162 183 0
169 189 0
169 190 0
167 187 0
164 184 0
169 191 0
166 187 0
162 182 0
163 186 0
172 195 0
169 194 0
168 191 0
166 190 0
167 190 0
171 194 0
166 190 0
165 188 0
171 194 0
165 190 0
163 187 0
165 189 0
166 190 0
163 186 0
167 191 0
167 191 0
164 187 0
166 190 0
162 185 0
164 188 0
169 193 0
166 189 0
169 192 0
162 185 0
166 190 0
166 190 0
165 188 0
164 187 0
162 185 0
166 189 0
165 188 0
164 187 0
164 187 0
165 189 0
165 188 0
162 185 0
160 183 0
161 185 0
159 182 0
158 182 0
161 185 0
159 182 0
164 187 0
160 182 0
162 184 0
160 184 0
154 177 0
161 184 0
164 187 0
156 179 0
158 180 0
160 183 0
161 184 0
158 181 0
156 178 0
158 180 0
157 181 0
159 182 0
154 177 0
156 179 0
160 182 0
156 177 0
161 183 0
154 178 0
152 174 0
147 170 0
152 175 0
146 168 0
149 171 0
150 172 0
150 172 0
147 170 0
154 176 0
146 168 0
152 174 0
149 171 0
146 168 0
149 171 0
152 174 0
153 175 0
145 169 0
144 166 0
151 172 0
151 173 0
138 160 0
144 166 0
142 163 0
142 163 0
132 152 0
139 160 0
150 172 0
139 160 0
138 160 0
137 159 0
139 161 0
138 158 0
141 163 0
134 154 0
130 149 0
133 153 0
138 159 0
122 142 0
127 148 0
131 152 0
118 138 0
126 146 0
124 143 0
123 141 0
115 132 0
130 149 0
127 146 0
118 136 0
116 134 0
99 116 0
108 125 0
114 131 0
106 123 0
104 119 0
97 113 18
99 116 31
96 112 36
102 117 44
101 117 25
94 111 40
93 110 31
100 115 25
83 102 31
114 133 47
115 133 31
108 126 31
120 137 18
124 141 25
135 152 18
128 148 18
128 146 0
131 149 0
132 150 0
133 151 0
123 141 0
124 141 0
130 148 0
126 142 0
129 148 0
126 143 0
120 137 0
116 133 0
115 131 0
121 139 0
115 132 0
124 142 0
118 136 0
121 137 0
107 124 0
108 125 0
110 126 0
111 128 0
104 121 0
98 114 0
102 118 0
111 129 0
105 121 0
110 126 0
103 121 0
116 134 0
97 114 0
103 119 0
115 131 0
115 132 0
102 117 0
96 112 0
104 120 0
95 113 0
102 119 0
94 109 0
91 107 0
94 109 0
90 106 0
99 116 0
94 109 0
106 122 0
115 131 0
98 116 0
90 107 0
99 115 0
101 118 0
86 103 0
100 115 0
101 116 0
94 111 0
94 109 0
100 116 0
101 118 0
100 117 0
97 114 0
96 112 0
115 132 0
110 129 0
100 117 0
95 112 0
114 132 0
98 116 0
102 119 0
116 134 0
111 130 0
111 127 0
111 128 0
100 117 0
112 128 0
104 122 0
111 129 0
111 128 0
110 127 0
110 127 0
122 141 0
110 127 0
118 135 0
122 141 0
118 135 0
108 124 0
116 135 0
126 145 0
115 132 0
123 139 0
119 138 0
122 139 0
124 144 0
130 148 0
122 141 0
134 154 0
112 131 0
115 133 0
131 149 0
129 149 0
126 146 0
125 143 0
129 148 0
130 150 0
122 141 0
130 148 0
135 154 0
130 149 0
146 165 0
135 155 0
130 150 0
132 150 0
131 150 0
139 158 0
128 145 0
144 164 0
139 159 0
144 164 0
136 155 0
135 154 0
140 159 0
147 168 0
136 156 0
143 163 0
140 161 0
131 151 0
142 162 0
149 170 0
144 164 0
140 159 0
141 161 0
145 165 0
142 161 0
147 166 0
142 161 0
145 165 0
139 157 0
144 164 0
148 169 0
151 170 0
148 170 0
140 159 0
147 168 0
144 164 0
141 161 0
135 156 0
153 173 0
150 171 0
151 171 0
147 164 0
149 168 0
145 165 0
142 162 0
144 163 0
145 166 0
156 176 0
151 172 0
159 179 0
148 168 0
158 177 0
153 173 0
151 172 0
156 176 0
155 174 0
154 173 0
155 175 0
154 176 0
148 169 0
147 167 0
158 178 0
147 166 0
149 168 0
150 169 0
156 177 0
151 172 0
158 179 0
146 166 0
157 179 0
159 179 0
152 174 0
160 182 0
156 175 0
147 167 0
160 181 0
155 177 0
162 182 0
152 173 0
161 182 0
158 179 0
155 175 0
156 176 0
156 177 0
157 176 0
159 179 0
157 177 0
151 170 0
164 185 0
157 179 0
158 180 0
166 188 0
164 185 0
159 178 0
161 180 0
158 178 0
163 185 0
158 181 0
158 178 0
162 182 0
155 176 0
158 179 0
161 183 0
161 182 0
164 186 0
158 178 0
156 177 0
159 181 0
162 183 0
158 180 0
155 176 0
160 182 0
159 180 0
160 181 0
160 180 0
164 185 0
161 181 0
159 179 0
161 184 0
165 187 0
161 182 0
164 185 0
158 180 0
162 182 0
159 179 0
165 186 0
163 183 0
163 183 0
165 188 0
167 189 0
167 188 0
163 186 0
165 186 0
163 184 0
165 186 0
165 186 0
163 184 0
160 181 0
169 191 0
160 182 0
164 185 0
162 183 0
163 183 0
160 180 0
163 184 0
169 191 0
163 185 0
161 181 0
167 188 0
168 190 0
167 190 0
161 181 0
165 187 0
168 190 0
167 189 0
163 184 0
167 189 0
162 183 0
166 190 0
166 189 0
165 188 0
167 191 0
170 193 0
167 190 0
166 189 0
167 191 0
166 190 0
169 191 0
168 191 0
169 192 0
165 189 0
160 183 0
169 191 0
165 188 0
166 189 0
165 189 0
164 187 0
163 186 0
162 185 0
161 184 0
164 187 0
165 189 0
167 191 0
162 185 0
161 184 0
162 185 0
161 184 0
166 189 0
167 191 0
165 189 0
160 182 0
160 183 0
159 182 0
160 182 0
166 189 0
159 183 0
161 184 0
159 182 0
158 180 0
164 188 0
157 180 0
159 182 0
163 186 0
166 189 0
161 184 0
164 188 0
158 181 0
155 177 0
164 186 0
159 183 0
155 178 0
156 179 0
154 176 0
164 188 0
155 178 0
150 173 0
161 183 0
154 176 0
156 178 0
150 173 0
160 183 0
149 172 0
154 176 0
153 175 0
155 177 0
155 177 0
153 176 0
154 176 0
154 177 0
158 181 0
152 175 0
158 181 0
152 175 0
144 166 0
155 178 0
150 171 0
152 174 0
145 168 0
143 165 0
147 168 0
146 168 0
143 164 0
138 160 0
150 172 0
153 174 0
137 158 0
146 167 0
136 157 0
144 165 0
142 164 0
138 159 0
141 162 0
136 157 0
133 154 0
137 158 0
133 154 0
137 158 0
137 158 0
134 155 0
131 151 0
134 155 0
129 149 0
126 146 0
120 140 0
125 144 0
134 153 0
120 139 0
132 151 0
112 131 0
124 143 0
120 138 0
117 136 0
115 132 0
108 125 0
108 126 0
114 131 0
106 122 0
114 130 0
96 113 0
102 118 18
82 101 25
99 116 18
105 121 25
99 115 0
102 119 25
116 134 18
121 137 0
126 144 18
118 133 18
125 143 0
122 139 25
135 152 0
139 156 0
136 154 0
134 151 0
134 152 0
128 144 0
120 136 0
127 144 0
129 148 0
130 149 0
124 141 0
121 138 0
120 138 0
121 140 0
118 136 0
118 135 0
112 130 0
113 131 0
122 140 0
117 135 0
114 132 0
117 135 0
111 129 0
99 116 0
102 119 0
108 125 0
96 112 0
111 129 0
106 124 0
104 123 0
99 116 0
106 123 0
102 118 0
105 121 0
115 131 0
103 119 0
84 99 0
113 130 0
100 118 0
86 101 0
106 122 0
106 121 0
92 108 0
110 128 0
108 124 0
94 110 0
111 128 0
116 132 0
104 122 0
106 124 0
98 115 0
102 119 0
106 123 0
97 113 0
108 124 0
110 127 0
91 108 0
102 118 0
108 122 0
114 130 0
98 116 0
105 120 0
103 119 0
102 119 0
111 128 0
113 130 0
106 125 0
116 134 0
122 139 0
112 128 0
115 133 0
119 137 0
119 138 0
108 126 0
101 117 0
114 132 0
120 139 0
106 125 0
122 140 0
119 136 0
112 129 0
125 144 0
106 124 0
132 152 0
118 135 0
121 140 0
113 132 0
126 145 0
125 143 0
127 146 0
121 140 0
128 147 0
124 143 0
130 149 0
115 133 0
130 150 0
125 143 0
140 158 0
133 153 0
126 145 0
128 147 0
129 148 0
129 148 0
131 148 0
145 163 0
128 148 0
137 158 0
129 146 0
135 155 0
131 150 0
136 156 0
133 153 0
132 152 0
133 152 0
136 155 0
143 163 0
129 148 0
134 154 0
131 149 0
134 154 0
132 151 0
146 166 0
139 160 0
135 154 0
138 159 0
140 161 0
143 163 0
139 158 0
137 157 0
136 156 0
139 158 0
141 161 0
141 161 0
148 167 0
138 159 0
149 170 0
152 172 0
146 168 0
144 164 0
149 170 0
140 159 0
147 166 0
145 166 0
150 169 0
147 167 0
149 170 0
139 159 0
145 166 0
144 163 0
144 164 0
147 167 0
143 161 0
145 164 0
150 172 0
148 169 0
144 165 0
152 172 0
153 174 0
152 173 0
155 176 0
147 169 0
152 171 0
152 171 0
153 173 0
151 171 0
150 169 0
150 172 0
153 174 0
150 169 0
159 180 0
156 175 0
147 166 0
155 175 0
159 181 0
159 179 0
157 178 0
153 172 0
156 177 0
158 178 0
151 172 0
161 181 0
159 178 0
160 181 0
156 176 0
156 176 0
156 177 0
149 168 0
155 176 0
162 183 0
151 171 0
163 183 0
150 170 0
160 181 0
157 176 0
163 184 0
154 174 0
154 173 0
164 185 0
157 179 0
159 181 0
158 180 0
158 176 0
160 180 0
155 174 0
162 182 0
158 178 0
165 187 0
158 181 0
160 181 0
161 182 0
161 182 0
160 180 0
159 181 0
164 183 0
161 181 0
162 183 0
159 180 0
164 185 0
154 175 0
162 183 0
162 183 0
165 186 0
163 184 0
162 183 0
164 183 0
161 182 0
166 186 0
163 184 0
160 180 0
163 184 0
161 183 0
164 184 0
157 179 0
160 182 0
162 184 0
166 187 0
163 184 0
163 183 0
161 181 0
161 181 0
162 183 0
162 183 0
161 183 0
165 188 0
161 180 0
164 185 0
165 184 0
162 182 0
166 187 0
169 191 0
166 188 0
166 188 0
162 184 0
172 194 0
167 188 0
165 184 0
166 187 0
165 187 0
169 191 0
165 186 0
168 189 0
167 189 0
166 186 0
167 188 0
165 187 0
166 187 0
165 185 0
166 189 0
171 194 0
169 191 0
167 191 0
168 191 0
165 188 0
164 187 0
165 189 0
162 185 0
166 190 0
167 191 0
168 192 0
169 192 0
165 188 0
168 191 0
166 189 0
166 190 0
168 192 0
163 187 0
160 183 0
167 190 0
168 191 0
165 187 0
171 195 0
165 189 0
166 189 0
166 189 0
166 188 0
165 189 0
170 193 0
165 188 0
163 186 0
164 187 0
166 190 0
169 192 0
169 192 0
160 182 0
160 184 0
161 184 0
158 181 0
161 185 0
161 183 0
161 184 0
160 184 0
167 190 0
158 181 0
163 185 0
156 179 0
158 181 0
157 180 0
157 180 0
162 185 0
163 186 0
152 174 0
156 180 0
160 182 0
158 182 0
158 180 0
157 180 0
156 179 0
162 185 0
156 179 0
159 182 0
148 170 0
158 180 0
157 180 0
150 174 0
160 181 0
156 178 0
158 181 0
160 182 0
152 174 0
152 174 0
149 172 0
148 170 0
153 175 0
154 176 0
154 176 0
150 173 0
151 174 0
150 171 0
147 170 0
145 166 0
138 160 0
142 163 0
148 169 0
149 170 0
144 165 0
143 164 0
148 170 0
147 168 0
143 164 0
146 167 0
139 160 0
134 154 0
146 166 0
139 160 0
136 156 0
137 157 0
136 156 0
130 151 0
129 148 0
126 146 0
129 149 0
119 139 0
124 144 0
127 147 0
119 137 0
124 143 0
116 135 0
131 150 0
118 136 0
118 136 0
124 143 0
114 131 0
103 120 0
124 143 0
96 113 0
98 113 0
95 111 0
100 116 0
108 124 0
124 141 0
98 115 25
109 127 18
102 119 18
124 140 18
106 122 18
116 134 18
109 126 0
133 151 0
129 145 0
119 136 0
133 150 0
127 146 0
134 152 0
136 154 0
136 154 0
137 155 0
130 149 0
131 149 0
133 150 0
121 138 0
128 146 0
123 141 0
110 128 0
126 145 0
122 140 0
111 129 0
113 131 0
126 144 0
118 136 0
125 144 0
120 138 0
108 125 0
118 137 0
107 124 0
109 127 0
108 125 0
118 136 0
111 129 0
109 127 0
96 113 0
118 137 0
105 122 0
116 134 0
110 126 0
103 119 0
99 116 0
110 127 0
99 117 0
100 117 0
116 133 0
105 122 0
109 126 0
107 124 0
109 127 0
97 114 0
104 120 0
106 123 0
101 118 0
112 128 0
115 132 0
108 125 0
118 135 0
111 128 0
100 117 0
108 124 0
114 131 0
112 129 0
101 118 0
101 118 0
113 130 0
108 125 0
104 120 0
102 120 0
111 129 0
121 139 0
111 129 0
129 148 0
121 139 0
115 132 0
114 131 0
106 123 0
123 141 0
118 136 0
116 135 0
116 135 0
112 130 0
124 143 0
118 134 0
104 121 0
125 143 0
111 130 0
116 133 0
122 141 0
123 142 0
119 137 0
121 140 0
118 135 0
119 137 0
109 126 0
128 146 0
124 144 0
128 146 0
130 150 0
127 145 0
139 158 0
126 144 0
117 134 0
134 153 0
127 147 0
129 146 0
136 156 0
130 148 0
128 145 0
126 144 0
136 154 0
132 151 0
139 158 0
133 153 0
131 150 0
124 143 0
130 149 0
139 159 0
140 160 0
139 159 0
139 159 0
139 159 0
143 162 0
131 151 0
142 163 0
139 158 0
139 160 0
142 163 0
144 164 0
130 150 0
138 158 0
134 152 0
142 162 0
150 171 0
147 167 0
135 156 0
145 164 0
148 169 0
140 160 0
152 173 0
145 164 0
143 163 0
141 161 0
133 152 0
147 170 0
151 170 0
147 167 0
138 157 0
140 158 0
142 162 0
142 163 0
142 162 0
142 161 0
153 174 0
146 167 0
151 171 0
146 166 0
147 166 0
147 166 0
149 167 0
152 171 0
152 173 0
150 169 0
148 168 0
153 175 0
149 171 0
149 171 0
151 170 0
153 174 0
155 175 0
155 175 0
154 174 0
150 170 0
153 173 0
154 175 0
156 175 0
154 175 0
152 172 0
155 174 0
159 180 0
163 186 0
160 180 0
153 174 0
159 179 0
161 182 0
153 172 0
157 177 0
155 176 0
151 173 0
156 175 0
152 173 0
161 182 0
160 182 0
160 181 0
151 171 0
159 180 0
151 171 0
156 179 0
157 175 0
157 179 0
158 178 0
157 179 0
160 180 0
156 175 0
157 177 0
155 175 0
153 174 0
160 180 0
164 184 0
156 174 0
159 179 0
157 178 0
163 185 0
162 183 0
158 178 0
159 180 0
156 176 0
157 178 0
166 187 0
158 179 0
160 181 0
164 186 0
164 186 0
163 184 0
161 181 0
159 179 0
165 187 0
164 186 0
163 184 0
162 184 0
162 183 0
162 182 0
167 189 0
167 187 0
165 184 0
163 185 0
162 183 0
159 181 0
162 183 0
165 186 0
159 180 0
163 184 0
163 185 0
165 187 0
160 183 0
159 180 0
165 186 0
162 182 0
168 189 0
165 186 0
165 186 0
167 190 0
166 186 0
157 177 0
165 186 0
164 186 0
163 185 0
162 184 0
163 186 0
162 183 0
165 185 0
167 189 0
165 186 0
162 183 0
164 186 0
169 190 0
165 185 0
164 186 0
161 181 0
168 189 0
165 186 0
165 186 0
168 190 0
168 192 0
167 190 0
164 187 0
168 191 0
167 190 0
164 186 0
167 190 0
166 191 0
170 194 0
167 190 0
168 191 0
169 192 0
166 189 0
166 189 0
167 190 0
166 190 0
160 184 0
166 190 0
168 192 0
167 190 0
166 190 0
164 188 0
163 186 0
164 188 0
168 191 0
161 184 0
165 188 0
165 188 0
158 182 0
163 186 0
164 187 0
164 187 0
169 192 0
158 181 0
168 191 0
160 184 0
162 185 0
160 184 0
162 185 0
162 185 0
161 184 0
164 187 0
161 185 0
162 185 0
152 175 0
160 184 0
164 186 0
160 184 0
162 185 0
160 183 0
163 186 0
161 184 0
163 187 0
157 180 0
160 182 0
164 187 0
157 180 0
159 181 0
155 177 0
155 177 0
152 175 0
160 184 0
156 179 0
159 182 0
160 182 0
151 175 0
155 177 0
153 176 0
150 173 0
154 178 0
160 181 0
156 178 0
157 179 0
156 178 0
148 170 0
154 176 0
152 175 0
151 173 0
157 180 0
150 172 0
144 165 0
149 172 0
144 166 0
150 171 0
141 163 0
147 168 0
144 166 0
136 158 0
148 169 0
138 159 0
148 169 0
136 157 0
146 167 0
144 166 0
135 157 0
138 159 0
141 162 0
140 160 0
144 165 0
137 157 0
136 156 0
134 156 0
142 162 0
123 143 0
135 154 0
135 156 0
128 147 0
129 149 0
117 137 0
118 137 0
115 134 0
126 145 0
116 135 0
118 136 0
120 138 0
114 133 0
107 124 0
118 135 0
112 130 0
105 122 0
103 119 0
105 121 0
104 120 0
112 128 0
109 125 0
116 133 0
111 129 0
131 150 0
123 141 0
126 143 0
114 131 0
134 153 0
128 146 0
125 142 0
144 163 0
135 152 0
128 145 0
141 161 0
137 155 0
125 144 0
130 148 0
126 143 0
125 142 0
128 147 0
125 143 0
127 146 0
126 144 0
112 129 0
124 143 0
116 134 0
126 143 0
116 135 0
132 150 0
114 132 0
123 141 0
115 134 0
104 122 0
110 128 0
113 132 0
109 126 0
109 126 0
114 131 0
120 136 0
95 112 0
96 113 0
107 125 0
105 123 0
113 130 0
98 114 0
104 122 0
98 116 0
110 126 0
109 126 0
99 116 0
111 129 0
104 121 0
114 130 0
111 128 0
117 134 0
108 125 0
113 131 0
98 115 0
92 108 0
114 131 0
102 119 0
115 133 0
111 129 0
110 128 0
101 118 0
102 120 0
114 131 0
116 133 0
115 133 0
96 114 0
110 126 0
104 121 0
117 135 0
95 112 0
107 124 0
110 127 0
121 139 0
113 131 0
119 135 0
119 138 0
114 132 0
111 130 0
112 130 0
106 125 0
118 136 0
123 141 0
109 128 0
113 132 0
113 132 0
110 128 0
122 141 0
128 148 0
131 149 0
125 143 0
131 152 0
121 139 0
125 143 0
115 133 0
119 138 0
131 149 0
133 153 0
128 147 0
128 148 0
127 147 0
136 155 0
138 157 0
135 156 0
124 142 0
130 150 0
133 152 0
130 150 0
128 147 0
136 156 0
130 149 0
136 156 0
133 152 0
130 149 0
135 156 0
125 144 0
125 143 0
126 146 0
133 153 0
132 153 0
140 160 0
136 155 0
124 144 0
137 158 0
140 159 0
147 167 0
143 162 0
151 171 0
135 155 0
142 161 0
142 162 0
145 167 0
141 161 0
140 162 0
146 166 0
143 162 0
141 161 0
148 169 0
145 165 0
147 167 0
145 163 0
138 156 0
140 160 0
140 160 0
151 170 0
143 163 0
150 170 0
148 168 0
149 170 0
137 158 0
150 170 0
151 171 0
153 173 0
155 176 0
148 167 0
146 165 0
142 162 0
152 172 0
143 164 0
149 168 0
143 163 0
151 171 0
153 172 0
149 170 0
150 170 0
147 167 0
153 174 0
157 178 0
158 179 0
151 172 0
155 177 0
155 173 0
150 170 0
151 171 0
157 178 0
162 182 0
146 165 0
152 172 0
151 172 0
154 173 0
152 173 0
153 173 0
153 173 0
154 175 0
150 171 0
156 177 0
149 168 0
155 174 0
160 180 0
158 181 0
152 173 0
160 179 0
161 182 0
157 178 0
157 178 0
156 176 0
155 176 0
157 178 0
158 179 0
157 179 0
157 179 0
164 185 0
157 176 0
158 178 0
147 167 0
158 178 0
163 184 0
158 178 0
166 188 0
158 178 0
154 175 0
157 177 0
161 183 0
155 176 0
161 182 0
161 182 0
163 185 0
156 178 0
162 182 0
165 186 0
162 184 0
163 183 0
161 181 0
160 181 0
160 182 0
160 181 0
168 190 0
163 184 0
164 185 0
161 182 0
162 184 0
158 176 0
169 192 0
163 185 0
165 187 0
162 182 0
164 186 0
165 187 0
162 182 0
163 184 0
166 189 0
162 185 0
161 181 0
167 186 0
167 187 0
164 184 0
169 190 0
166 189 0
163 183 0
166 189 0
165 186 0
166 188 0
164 184 0
162 181 0
161 182 0
164 185 0
159 180 0
165 186 0
165 188 0
169 189 0
161 181 0
167 186 0
164 183 0
163 184 0
163 184 0
165 188 0
161 183 0
168 189 0
162 184 0
168 191 0
168 190 0
163 185 0
166 187 0
170 194 0
170 193 0
171 193 0
164 188 0
165 188 0
162 186 0
165 188 0
170 193 0
169 192 0
162 186 0
166 190 0
165 189 0
162 185 0
165 189 0
162 185 0
168 191 0
163 186 0
164 188 0
167 191 0
168 191 0
165 188 0
165 188 0
158 182 0
159 184 0
167 190 0
164 187 0
162 185 0
166 189 0
159 183 0
160 183 0
164 187 0
163 186 0
161 183 0
159 181 0
163 186 0
160 183 0
162 185 0
161 184 0
162 185 0
161 184 0
161 184 0
163 185 0
151 173 0
166 189 0
167 191 0
161 184 0
157 180 0
159 181 0
164 188 0
162 184 0
156 179 0
163 185 0
159 182 0
158 181 0
162 184 0
160 182 0
161 183 0
160 183 0
157 179 0
155 177 0
157 180 0
157 180 0
154 176 0
164 186 0
159 182 0
156 178 0
155 177 0
162 185 0
162 185 0
147 171 0
158 180 0
151 174 0
147 169 0
151 174 0
149 172 0
157 180 0
151 173 0
154 176 0
153 176 0
146 167 0
147 169 0
153 175 0
151 174 0
149 171 0
145 167 0
143 165 0
143 165 0
138 160 0
139 160 0
145 166 0
140 161 0
137 158 0
140 161 0
146 168 0
138 159 0
140 161 0
146 168 0
145 166 0
127 148 0
139 160 0
129 150 0
130 150 0
123 142 0
136 156 0
137 157 0
120 140 0
129 149 0
140 160 0
132 152 0
130 149 0
131 149 0
117 137 0
118 137 0
120 140 0
102 120 0
117 135 0
116 134 0
109 128 0
106 125 0
109 126 0
114 131 0
103 120 0
118 135 0
102 120 0
110 128 0
114 132 0
122 140 0
124 142 0
124 142 0
127 145 0
121 139 0
130 150 0
129 147 0
134 153 0
139 159 0
130 149 0
146 163 0
135 154 0
134 153 0
143 161 0
138 157 0
131 150 0
137 155 0
127 144 0
129 149 0
128 147 0
117 136 0
127 146 0
120 139 0
115 135 0
117 136 0
102 120 0
113 131 0
122 140 0
117 135 0
120 137 0
115 134 0
115 133 0
117 134 0
109 127 0
115 133 0
101 120 0
113 131 0
115 133 0
107 124 0
116 134 0
105 123 0
111 127 0
107 124 0
109 126 0
113 131 0
103 121 0
100 118 0
110 126 0
110 127 0
120 137 0
113 131 0
116 134 0
121 138 0
103 120 0
98 116 0
107 125 0
112 129 0
107 123 0
101 119 0
110 128 0
107 124 0
117 134 0
113 130 0
114 132 0
114 131 0
111 128 0
120 138 0
118 135 0
112 131 0
103 121 0
118 135 0
115 133 0
119 136 0
109 128 0
108 127 0
110 128 0
112 131 0
118 136 0
113 132 0
129 148 0
114 132 0
106 124 0
119 138 0
111 128 0
116 134 0
125 142 0
112 129 0
118 137 0
121 140 0
116 134 0
128 146 0
130 147 0
130 150 0
128 147 0
129 148 0
120 139 0
118 138 0
127 145 0
137 155 0
129 148 0
126 143 0
126 145 0
134 153 0
113 133 0
135 155 0
127 145 0
125 144 0
130 151 0
128 148 0
121 138 0
132 150 0
132 153 0
147 168 0
131 151 0
134 153 0
139 158 0
135 155 0
127 146 0
141 161 0
131 152 0
138 158 0
140 160 0
135 156 0
151 170 0
141 162 0
132 151 0
135 155 0
138 158 0
127 148 0
135 154 0
145 166 0
147 168 0
146 165 0
138 158 0
145 167 0
145 166 0
141 162 0
142 162 0
147 168 0
147 167 0
142 162 0
142 162 0
145 165 0
150 170 0
144 164 0
146 165 0
147 168 0
152 174 0
147 167 0
143 163 0
149 170 0
151 172 0
147 167 0
152 172 0
147 168 0
142 161 0
153 174 0
152 173 0
147 168 0
152 173 0
141 161 0
145 163 0
155 174 0
149 170 0
158 180 0
153 175 0
153 172 0
156 178 0
153 173 0
156 177 0
152 173 0
156 176 0
151 172 0
159 180 0
160 181 0
150 171 0
154 173 0
153 173 0
157 177 0
155 176 0
154 173 0
159 180 0
146 166 0
149 169 0
152 173 0
157 178 0
152 171 0
152 173 0
157 177 0
148 168 0
157 178 0
154 176 0
160 182 0
161 182 0
155 178 0
151 172 0
156 177 0
151 171 0
154 176 0
158 178 0
155 177 0
157 180 0
157 178 0
166 185 0
157 177 0
156 176 0
157 179 0
158 179 0
156 177 0
158 178 0
157 177 0
161 181 0
158 178 0
157 178 0
162 182 0
162 184 0
158 178 0
160 180 0
162 183 0
161 183 0
161 182 0
164 185 0
161 182 0
165 185 0
161 182 0
159 181 0
164 185 0
164 185 0
158 179 0
165 186 0
162 183 0
161 182 0
163 183 0
156 176 0
164 185 0
167 188 0
167 188 0
164 187 0
165 187 0
166 187 0
163 186 0
168 189 0
167 189 0
166 186 0
159 180 0
161 183 0
165 185 0
169 189 0
162 183 0
163 185 0
165 187 0
166 188 0
166 188 0
159 180 0
167 188 0
164 185 0
166 188 0
163 182 0
165 185 0
170 192 0
161 182 0
168 188 0
168 189 0
166 187 0
166 187 0
164 185 0
167 188 0
163 185 0
166 188 0
165 187 0
165 186 0
166 186 0
162 182 0
167 189 0
169 193 0
171 195 0
169 192 0
167 191 0
164 188 0
163 187 0
164 188 0
169 191 0
167 190 0
168 192 0
163 187 0
159 182 0
172 194 0
166 189 0
167 190 0
169 191 0
164 188 0
166 189 0
169 192 0
165 188 0
170 193 0
161 184 0
168 192 0
165 189 0
166 189 0
164 187 0
170 194 0
162 186 0
167 189 0
166 189 0
162 186 0
157 180 0
157 181 0
164 187 0
158 181 0
165 188 0
161 184 0
156 180 0
161 184 0
162 184 0
163 185 0
161 185 0
160 183 0
159 181 0
162 185 0
164 188 0
160 184 0
163 186 0
162 185 0
161 183 0
155 179 0
160 183 0
155 178 0
161 184 0
155 177 0
163 185 0
156 179 0
156 179 0
157 180 0
156 179 0
158 181 0
158 181 0
154 177 0
160 181 0
152 175 0
152 175 0
156 178 0
146 169 0
156 179 0
149 171 0
157 179 0
157 179 0
147 169 0
153 174 0
150 172 0
159 181 0
145 167 0
147 169 0
149 171 0
144 167 0
149 171 0
140 162 0
152 173 0
151 173 0
145 167 0
147 169 0
155 176 0
150 171 0
148 170 0
132 154 0
152 173 0
146 167 0
134 156 0
139 160 0
138 160 0
136 158 0
130 151 0
140 161 0
137 158 0
137 157 0
139 160 0
143 163 0
142 163 0
128 149 0
135 155 0
125 145 0
132 150 0
133 153 0
139 159 0
125 145 0
122 140 0
119 139 0
113 132 0
112 132 0
103 121 0
116 134 0
120 138 0
111 129 0
112 131 0
103 120 0
120 137 0
103 121 0
115 133 0
114 132 0
109 127 0
113 131 0
125 143 0
126 144 0
122 139 0
124 143 0
131 150 0
132 150 0
125 143 0
135 154 0
141 160 0
132 151 0
132 151 0
136 157 0
132 152 0
133 153 0
129 148 0
129 147 0
128 145 0
138 159 0
132 150 0
115 134 0
126 146 0
131 150 0
128 147 0
109 128 0
111 130 0
123 143 0
113 132 0
112 129 0
121 139 0
129 148 0
132 150 0
108 126 0
112 129 0
119 137 0
120 139 0
107 124 0
116 134 0
108 125 0
118 135 0
104 122 0
108 125 0
119 137 0
122 140 0
110 129 0
91 108 0
103 120 0
117 134 0
115 133 0
107 125 0
108 126 0
115 133 0
110 127 0
114 132 0
114 133 0
105 123 0
112 129 0
103 120 0
97 114 0
111 128 0
107 125 0
118 136 0
99 115 0
108 125 0
107 124 0
102 121 0
113 130 0
115 133 0
118 137 0
121 140 0
117 135 0
119 137 0
106 124 0
122 140 0
118 136 0
115 133 0
115 134 0
120 138 0
122 141 0
109 127 0
124 143 0
114 132 0
118 137 0
117 135 0
113 132 0
124 143 0
129 149 0
119 139 0
114 132 0
125 142 0
121 139 0
126 145 0
130 148 0
127 146 0
120 139 0
123 144 0
119 137 0
126 145 0
127 146 0
117 136 0
128 146 0
136 155 0
128 148 0
132 150 0
126 146 0
130 150 0
129 147 0
123 143 0
126 145 0
122 140 0
124 144 0
130 150 0
137 159 0
128 149 0
138 158 0
133 154 0
139 158 0
135 154 0
138 158 0
141 160 0
137 157 0
133 153 0
144 164 0
138 158 0
144 165 0
129 149 0
137 157 0
137 157 0
136 157 0
133 152 0
140 160 0
136 157 0
135 155 0
144 164 0
133 153 0
143 163 0
142 161 0
141 162 0
148 168 0
132 153 0
139 157 0
148 170 0
141 162 0
148 169 0
138 158 0
141 161 0
146 167 0
145 165 0
145 165 0
142 160 0
145 165 0
147 167 0
151 172 0
150 171 0
148 168 0
147 167 0
148 169 0
145 166 0
151 171 0
158 178 0
158 181 0
158 179 0
154 175 0
148 168 0
150 171 0
146 168 0
151 171 0
151 172 0
150 170 0
155 176 0
155 176 0
149 169 0
156 177 0
154 176 0
155 175 0
151 171 0
150 170 0
159 181 0
155 174 0
154 174 0
155 176 0
161 181 0
160 182 0
157 178 0
153 174 0
162 184 0
153 173 0
154 176 0
156 177 0
155 174 0
152 172 0
159 181 0
156 178 0
154 172 0
160 181 0
153 174 0
163 185 0
157 176 0
160 182 0
157 177 0
159 180 0
159 179 0
155 175 0
160 181 0
161 183 0
159 178 0
156 174 0
155 176 0
162 182 0
158 179 0
160 182 0
159 178 0
156 175 0
155 174 0
167 189 0
159 179 0
156 175 0
161 182 0
160 181 0
159 180 0
162 182 0
161 181 0
161 181 0
166 189 0
164 185 0
163 182 0
159 180 0
161 183 0
157 178 0
159 182 0
159 180 0
161 183 0
163 183 0
161 181 0
168 188 0
159 181 0
167 187 0
159 179 0
166 187 0
162 185 0
162 181 0
166 189 0
155 176 0
164 186 0
160 182 0
161 181 0
158 178 0
164 185 0
165 185 0
160 182 0
164 185 0
168 189 0
164 185 0
167 189 0
162 184 0
164 185 0
157 178 0
165 185 0
165 187 0
163 184 0
165 186 0
167 189 0
165 187 0
163 184 0
164 185 0
165 187 0
167 191 0
166 188 0
167 189 0
167 188 0
169 191 0
164 185 0
164 185 0
164 186 0
165 186 0
171 194 0
165 189 0
167 191 0
167 190 0
163 186 0
164 188 0
165 189 0
167 190 0
166 190 0
168 191 0
167 190 0
165 188 0
165 189 0
163 187 0
163 186 0
160 184 0
167 190 0
167 189 0
167 190 0
160 184 0
168 192 0
171 193 0
161 184 0
162 185 0
164 187 0
164 188 0
161 185 0
163 186 0
165 188 0
157 180 0
167 191 0
157 180 0
164 188 0
158 181 0
161 184 0
162 185 0
161 183 0
163 186 0
161 184 0
159 183 0
159 183 0
159 183 0
158 181 0
165 188 0
163 186 0
163 186 0
162 185 0
155 178 0
160 182 0
158 181 0
155 179 0
156 179 0
152 174 0
151 173 0
161 184 0
160 182 0
160 183 0
156 178 0
153 176 0
160 182 0
159 182 0
148 172 0
155 178 0
154 177 0
156 178 0
162 185 0
152 174 0
156 178 0
145 167 0
148 170 0
150 173 0
146 168 0
153 175 0
150 172 0
154 176 0
155 178 0
148 171 0
152 173 0
148 171 0
151 173 0
153 175 0
151 173 0
147 169 0
149 170 0
139 160 0
146 168 0
139 161 0
148 170 0
148 170 0
138 160 0
143 164 0
141 164 0
151 173 0
146 167 0
142 163 0
143 164 0
137 157 0
136 158 0
135 156 0
152 173 0
137 157 0
138 159 0
125 146 0
138 158 0
120 140 0
135 156 0
120 140 0
126 146 0
122 141 0
124 144 0
132 152 0
114 134 0
128 147 0
119 137 0
121 140 0
117 136 0
117 135 0
112 131 0
124 142 0
112 130 0
113 130 0
112 130 0
122 139 0
105 122 0
122 139 0
119 139 0
119 137 0
125 143 0
124 142 0
131 150 0
135 154 0
131 150 0
127 146 0
132 150 0
137 156 0
142 162 0
143 162 0
135 155 0
126 146 0
137 157 0
141 162 0
138 157 0
131 151 0
138 157 0
130 150 0
130 149 0
134 152 0
123 142 0
112 131 0
122 141 0
129 147 0
118 136 0
113 131 0
118 137 0
114 132 0
117 136 0
120 139 0
111 129 0
114 132 0
120 139 0
121 139 0
114 132 0
121 139 0
117 135 0
109 127 0
97 114 0
114 131 0
121 139 0
111 129 0
106 123 0
117 134 0
117 136 0
122 140 0
112 130 0
111 128 0
106 122 0
109 126 0
108 124 0
106 124 0
112 130 0
122 141 0
112 130 0
103 120 0
123 140 0
112 130 0
112 129 0
108 127 0
119 136 0
121 138 0
121 138 0
121 139 0
118 136 0
115 133 0
121 140 0
115 133 0
104 122 0
111 131 0
118 135 0
120 137 0
120 137 0
125 143 0
116 133 0
109 125 0
118 136 0
124 143 0
118 137 0
115 132 0
119 138 0
131 149 0
128 149 0
128 146 0
129 149 0
128 147 0
119 138 0
131 150 0
132 152 0
123 142 0
123 142 0
124 143 0
124 143 0
124 142 0
126 146 0
125 145 0
129 148 0
119 138 0
131 151 0
129 148 0
129 150 0
131 151 0
128 146 0
131 151 0
125 144 0
141 159 0
130 150 0
129 147 0
124 143 0
132 152 0
134 153 0
138 159 0
142 164 0
132 151 0
143 164 0
140 160 0
147 168 0
134 155 0
127 147 0
139 160 0
133 154 0
143 163 0
142 163 0
151 170 0
145 165 0
145 166 0
147 167 0
131 151 0
138 159 0
131 148 0
145 165 0
137 158 0
146 167 0
144 166 0
137 157 0
133 153 0
137 157 0
148 169 0
150 171 0
143 163 0
147 167 0
142 160 0
147 166 0
143 163 0
146 165 0
149 169 0
150 171 0
151 172 0
145 166 0
138 159 0
143 163 0
148 167 0
152 173 0
146 167 0
150 171 0
150 171 0
148 169 0
152 172 0
144 164 0
154 177 0
148 170 0
152 173 0
153 174 0
159 180 0
153 174 0
153 173 0
156 177 0
150 170 0
154 175 0
154 175 0
153 174 0
156 177 0
146 165 0
155 174 0
155 175 0
159 181 0
154 175 0
158 178 0
154 176 0
154 174 0
149 169 0
155 177 0
158 179 0
156 178 0
153 172 0
154 176 0
157 177 0
155 175 0
151 172 0
157 178 0
159 182 0
156 177 0
156 178 0
161 181 0
152 174 0
156 177 0
159 179 0
163 185 0
153 172 0
152 172 0
163 184 0
157 178 0
161 181 0
153 173 0
161 182 0
157 179 0
156 177 0
165 185 0
159 180 0
160 179 0
155 176 0
156 175 0
162 182 0
165 185 0
162 183 0
164 185 0
163 185 0
163 186 0
165 184 0
162 183 0
160 179 0
158 179 0
156 177 0
163 183 0
163 183 0
159 181 0
160 179 0
162 184 0
164 186 0
158 180 0
162 181 0
166 188 0
162 184 0
163 184 0
160 181 0
162 182 0
167 187 0
163 184 0
165 184 0
164 184 0
168 190 0
165 188 0
157 178 0
164 184 0
166 186 0
164 185 0
160 180 0
164 186 0
166 187 0
162 183 0
161 183 0
167 189 0
161 181 0
166 188 0
167 191 0
162 183 0
164 183 0
167 187 0
163 185 0
167 188 0
165 187 0
166 188 0
172 192 0
165 187 0
163 184 0
166 187 0
164 184 0
168 190 0
162 182 0
165 188 0
168 190 0
162 183 0
169 190 0
164 188 0
169 193 0
165 188 0
166 188 0
162 187 0
167 190 0
164 187 0
167 190 0
167 191 0
168 191 0
160 183 0
164 187 0
164 187 0
168 192 0
167 190 0
166 189 0
165 188 0
162 185 0
167 190 0
167 191 0
166 190 0
167 191 0
162 186 0
159 183 0
162 186 0
162 186 0
164 188 0
165 188 0
160 184 0
162 185 0
166 189 0
165 188 0
165 188 0
163 186 0
167 189 0
168 190 0
162 185 0
157 181 0
156 179 0
164 186 0
162 184 0
166 189 0
162 186 0
162 186 0
154 176 0
155 178 0
161 184 0
155 179 0
164 187 0
161 184 0
159 182 0
156 179 0
158 181 0
154 177 0
159 182 0
157 179 0
155 178 0
156 178 0
161 183 0
162 185 0
157 180 0
153 176 0
154 177 0
150 173 0
152 175 0
156 178 0
156 178 0
158 179 0
155 177 0
153 175 0
157 179 0
153 175 0
149 171 0
156 178 0
155 177 0
155 177 0
143 166 0
152 175 0
149 172 0
160 182 0
149 171 0
150 172 0
152 174 0
152 174 0
154 177 0
152 173 0
149 172 0
149 171 0
147 168 0
138 159 0
145 166 0
149 171 0
130 151 0
141 162 0
142 164 0
124 145 0
143 164 0
141 162 0
142 162 0
135 156 0
140 161 0
139 161 0
137 157 0
136 157 0
137 157 0
144 164 0
128 148 0
129 149 0
128 148 0
129 148 0
131 151 0
121 141 0
124 144 0
110 129 0
131 149 0
122 140 0
129 147 0
118 136 0
120 140 0
117 135 0
116 134 0
123 141 0
124 143 0
128 147 0
115 135 0
120 138 0
122 140 0
133 153 0
121 140 0
131 150 0
136 156 0
136 155 0
136 156 0
144 164 0
133 156 0
136 155 0
142 162 0
132 152 0
139 159 0
129 148 0
136 155 0
131 150 0
139 158 0
127 147 0
127 146 0
128 148 0
136 156 0
121 139 0
125 144 0
123 143 0
121 141 0
121 140 0
117 136 0
117 136 0
134 153 0
127 147 0
116 136 0
125 143 0
112 130 0
130 150 0
106 125 0
117 134 0
116 134 0
124 143 0
125 143 0
118 136 0
119 137 0
123 141 0
119 137 0
125 143 0
103 122 0
106 125 0
115 133 0
116 135 0
113 131 0
116 134 0
116 135 0
109 127 0
108 125 0
116 134 0
102 120 0
108 125 0
110 129 0
103 122 0
125 145 0
121 139 0
111 130 0
110 127 0
115 133 0
120 139 0
111 128 0
109 128 0
114 132 0
114 131 0
103 121 0
119 138 0
125 143 0
118 137 0
131 149 0
112 131 0
110 128 0
124 141 0
133 153 0
113 131 0
123 142 0
132 151 0
128 147 0
125 144 0
117 135 0
120 141 0
113 131 0
128 149 0
122 142 0
132 151 0
133 153 0
124 142 0
115 135 0
124 143 0
133 151 0
126 145 0
124 142 0
116 135 0
137 157 0
140 159 0
126 146 0
127 144 0
132 151 0
136 156 0
142 161 0
143 163 0
138 158 0
131 152 0
137 157 0
139 158 0
140 160 0
125 146 0
119 139 0
141 161 0
140 161 0
126 146 0
138 157 0
138 158 0
139 159 0
142 162 0
141 163 0
129 150 0
140 159 0
141 162 0
140 161 0
150 169 0
137 156 0
142 163 0
147 167 0
142 162 0
136 156 0
149 170 0
135 155 0
144 164 0
136 157 0
144 163 0
142 163 0
143 163 0
137 158 0
142 164 0
141 159 0
141 162 0
144 165 0
138 156 0
142 162 0
144 164 0
147 168 0
148 169 0
145 167 0
144 166 0
152 173 0
147 167 0
149 170 0
145 165 0
147 168 0
157 180 0
150 172 0
149 170 0
150 172 0
160 181 0
139 160 0
159 178 0
146 167 0
153 174 0
151 171 0
153 173 0
146 168 0
152 174 0
154 173 0
158 178 0
154 175 0
152 172 0
160 182 0
150 170 0
157 179 0
150 170 0
154 173 0
161 183 0
154 175 0
161 183 0
153 173 0
151 171 0
154 174 0
160 182 0
157 176 0
155 176 0
155 177 0
157 180 0
165 185 0
155 176 0
162 183 0
158 180 0
162 182 0
164 185 0
152 173 0
161 182 0
157 179 0
158 179 0
155 176 0
159 180 0
157 179 0
154 175 0
152 172 0
157 177 0
156 177 0
159 180 0
161 181 0
160 183 0
158 179 0
163 185 0
152 173 0
162 183 0
159 180 0
169 190 0
157 178 0
164 185 0
163 183 0
155 176 0
157 180 0
165 187 0
161 182 0
160 181 0
158 178 0
163 183 0
160 181 0
161 184 0
165 187 0
164 186 0
167 188 0
160 181 0
159 179 0
161 183 0
166 186 0
165 186 0
160 180 0
164 184 0
160 179 0
161 183 0
162 183 0
161 183 0
157 178 0
163 185 0
165 187 0
160 181 0
161 181 0
165 186 0
166 187 0
165 186 0
160 180 0
162 183 0
164 186 0
168 190 0
167 188 0
167 187 0
169 191 0
163 186 0
161 181 0
167 188 0
167 189 0
163 184 0
165 187 0
165 186 0
165 186 0
164 185 0
163 185 0
166 187 0
164 186 0
162 184 0
164 185 0
168 190 0
165 186 0
166 187 0
169 191 0
164 185 0
165 187 0
164 188 0
167 191 0
173 196 0
171 194 0
162 186 0
170 193 0
169 193 0
167 191 0
166 189 0
167 191 0
163 186 0
166 191 0
167 190 0
168 191 0
171 194 0
166 189 0
167 191 0
166 190 0
162 185 0
161 185 0
166 190 0
163 187 0
165 189 0
165 187 0
162 185 0
169 192 0
166 189 0
163 187 0
160 183 0
161 184 0
169 191 0
163 187 0
157 181 0
165 188 0
163 187 0
163 186 0
164 187 0
160 184 0
165 188 0
155 178 0
155 179 0
160 182 0
161 183 0
158 181 0
154 177 0
156 179 0
156 179 0
159 182 0
166 189 0
159 181 0
158 181 0
159 182 0
155 178 0
154 177 0
160 183 0
165 188 0
157 180 0
155 178 0
161 183 0
165 188 0
149 171 0
160 183 0
155 178 0
161 184 0
155 177 0
156 178 0
155 177 0
154 176 0
163 185 0
149 171 0
153 175 0
151 173 0
161 183 0
152 174 0
152 175 0
152 174 0
152 173 0
151 174 0
149 171 0
150 172 0
152 174 0
145 167 0
156 177 0
151 172 0
154 176 0
150 172 0
150 172 0
152 173 0
149 171 0
148 170 0
140 162 0
151 173 0
143 165 0
137 159 0
148 171 0
146 168 0
135 156 0
133 154 0
129 150 0
140 162 0
145 166 0
134 155 0
135 155 0
133 154 0
136 157 0
127 147 0
140 161 0
133 154 0
132 153 0
131 151 0
118 138 0
124 144 0
128 148 0
132 151 0
128 148 0
117 137 0
122 142 0
124 143 0
113 132 0
124 142 0
107 126 0
113 132 0
110 128 0
108 127 0
125 143 0
121 140 0
129 149 0
134 153 0
133 152 0
121 142 0
129 149 0
134 155 0
135 155 0
142 161 0
138 159 0
138 157 0
141 160 0
139 159 0
143 163 0
140 161 0
140 159 0
147 166 0
142 161 0
130 151 0
141 160 0
128 146 0
132 152 0
127 145 0
126 146 0
122 142 0
111 131 0
122 140 0
122 142 0
126 145 0
114 133 0
130 149 0
125 143 0
132 151 0
116 135 0
118 138 0
109 129 0
123 142 0
120 139 0
123 142 0
118 137 0
114 133 0
113 132 0
112 130 0
121 140 0
118 137 0
120 138 0
111 129 0
120 138 0
108 127 0
119 137 0
117 135 0
117 134 0
124 141 0
112 131 0
115 135 0
111 129 0
122 140 0
112 130 0
117 136 0
113 130 0
111 130 0
123 141 0
112 129 0
133 151 0
108 125 0
110 128 0
122 141 0
113 132 0
111 129 0
126 145 0
122 139 0
121 139 0
113 131 0
125 144 0
108 126 0
118 136 0
120 138 0
119 138 0
117 137 0
124 143 0
124 143 0
114 134 0
128 146 0
110 129 0
129 147 0
115 132 0
120 139 0
129 150 0
126 144 0
114 133 0
131 151 0
119 138 0
125 145 0
132 150 0
133 153 0
125 144 0
138 158 0
127 144 0
124 143 0
125 147 0
135 155 0
114 133 0
132 152 0
135 156 0
136 156 0
120 140 0
133 154 0
134 155 0
125 146 0
134 153 0
137 159 0
132 151 0
137 157 0
129 149 0
131 151 0
141 161 0
141 163 0
138 159 0
136 156 0
142 162 0
143 164 0
141 161 0
137 156 0
143 163 0
135 156 0
134 155 0
136 157 0
146 166 0
152 172 0
146 165 0
134 156 0
140 159 0
151 172 0
141 161 0
142 162 0
147 167 0
146 166 0
147 166 0
140 161 0
142 165 0
136 156 0
137 156 0
143 164 0
146 166 0
152 172 0
142 161 0
152 174 0
154 175 0
140 161 0
146 167 0
151 173 0
153 174 0
150 171 0
149 171 0
149 170 0
145 166 0
154 174 0
152 173 0
159 180 0
148 169 0
151 174 0
151 173 0
153 171 0
154 175 0
152 173 0
151 169 0
150 170 0
154 174 0
144 165 0
150 170 0
152 173 0
156 175 0
154 175 0
147 168 0
149 170 0
151 171 0
158 177 0
147 169 0
148 167 0
154 175 0
165 186 0
156 178 0
152 173 0
153 174 0
154 175 0
158 179 0
159 181 0
152 172 0
152 172 0
158 178 0
151 172 0
154 175 0
158 178 0
162 183 0
154 174 0
159 182 0
159 179 0
162 184 0
160 183 0
159 180 0
153 174 0
157 177 0
159 179 0
156 176 0
150 173 0
162 184 0
165 185 0
158 178 0
164 185 0
158 178 0
149 170 0
158 178 0
159 179 0
160 181 0
160 180 0
163 183 0
162 183 0
162 183 0
165 187 0
164 186 0
165 187 0
158 179 0
160 180 0
160 182 0
159 181 0
161 180 0
160 180 0
160 181 0
164 187 0
156 176 0
164 183 0
161 182 0
165 185 0
159 180 0
161 182 0
165 186 0
167 188 0
166 189 0
166 187 0
167 189 0
168 189 0
159 180 0
167 187 0
166 186 0
165 187 0
164 186 0
162 185 0
163 185 0
167 189 0
166 188 0
166 189 0
169 191 0
166 187 0
162 184 0
163 185 0
164 186 0
167 189 0
164 186 0
168 191 0
169 191 0
163 185 0
163 186 0
162 183 0
164 186 0
165 187 0
167 190 0
165 186 0
167 189 0
164 185 0
164 187 0
165 186 0
166 188 0
169 191 0
166 186 0
167 188 0
171 192 0
163 187 0
166 190 0
166 190 0
168 192 0
168 192 0
167 191 0
164 187 0
167 190 0
170 194 0
164 188 0
168 192 0
167 190 0
171 194 0
165 188 0
164 187 0
166 190 0
163 186 0
165 188 0
167 190 0
168 191 0
162 185 0
161 183 0
162 185 0
162 185 0
168 191 0
164 187 0
161 185 0
162 185 0
161 184 0
162 186 0
165 189 0
168 190 0
158 182 0
159 182 0
169 191 0
159 182 0
155 178 0
166 188 0
154 177 0
158 181 0
156 179 0
155 178 0
167 190 0
163 185 0
163 186 0
158 181 0
158 181 0
161 185 0
155 178 0
167 190 0
163 185 0
160 183 0
158 181 0
157 180 0
160 182 0
162 186 0
150 172 0
162 184 0
158 179 0
156 178 0
156 179 0
153 175 0
159 182 0
158 181 0
158 180 0
153 175 0
159 181 0
155 177 0
149 171 0
155 177 0
151 173 0
148 171 0
148 171 0
155 177 0
158 180 0
160 182 0
151 174 0
151 172 0
150 172 0
148 170 0
150 172 0
149 170 0
148 169 0
148 169 0
146 167 0
149 171 0
147 169 0
147 168 0
144 165 0
153 175 0
142 163 0
134 155 0
147 169 0
145 166 0
145 167 0
133 154 0
152 172 0
146 167 0
148 170 0
136 157 0
141 162 0
142 162 0
141 161 0
146 167 0
141 162 0
146 167 0
133 154 0
135 156 0
124 144 0
124 144 0
133 153 0
136 156 0
139 159 0
129 149 0
124 144 0
124 144 0
127 146 0
119 139 0
133 152 0
118 137 0
123 140 0
120 139 0
115 134 0
116 136 0
121 139 0
129 150 0
129 150 0
116 136 0
128 148 0
128 147 0
128 147 0
129 149 0
136 157 0
137 156 0
138 157 0
142 162 0
134 154 0
138 157 0
150 171 0
141 161 0
138 156 0
140 160 0
128 148 0
129 149 0
137 157 0
137 158 0
135 154 0
140 160 0
125 145 0
127 146 0
127 146 0
123 141 0
133 153 0
119 138 0
132 153 0
128 147 0
121 139 0
128 147 0
118 138 0
114 133 0
115 134 0
123 142 0
111 130 0
117 135 0
119 138 0
112 130 0
115 132 0
115 133 0
121 140 0
111 130 0
108 127 0
113 132 0
122 141 0
112 131 0
124 143 0
132 151 0
123 142 0
123 141 0
119 138 0
115 135 0
112 131 0
131 148 0
119 138 0
125 145 0
118 137 0
114 132 0
101 120 0
126 144 0
122 139 0
117 135 0
123 143 0
122 139 0
110 129 0
120 139 0
124 142 0
129 149 0
127 146 0
124 142 0
121 140 0
126 144 0
120 139 0
118 138 0
124 143 0
113 131 0
125 143 0
126 145 0
136 155 0
124 144 0
121 141 0
121 141 0
117 136 0
127 145 0
120 137 0
129 149 0
121 140 0
124 144 0
133 151 0
133 152 0
134 154 0
127 146 0
133 152 0
130 149 0
133 153 0
129 150 0
130 148 0
134 154 0
132 151 0
133 152 0
135 156 0
126 146 0
134 153 0
133 153 0
131 149 0
130 152 0
131 151 0
140 160 0
134 153 0
134 154 0
138 158 0
131 151 0
139 161 0
140 161 0
139 158 0
131 151 0
140 161 0
139 160 0
146 167 0
143 164 0
143 163 0
144 161 0
138 159 0
140 160 0
144 165 0
142 163 0
142 163 0
150 171 0
140 162 0
139 160 0
147 167 0
135 155 0
150 170 0
138 159 0
146 168 0
150 170 0
146 166 0
148 170 0
148 170 0
145 165 0
155 174 0
149 168 0
145 164 0
142 163 0
145 165 0
147 168 0
151 171 0
150 170 0
150 171 0
143 164 0
156 178 0
154 174 0
151 171 0
149 170 0
150 171 0
151 172 0
158 179 0
152 174 0
153 175 0
142 161 0
154 175 0
155 175 0
153 173 0
153 173 0
148 168 0
156 178 0
149 170 0
158 178 0
161 183 0
156 178 0
158 180 0
157 178 0
157 177 0
158 179 0
159 180 0
153 173 0
155 174 0
157 178 0
150 171 0
154 175 0
154 175 0
155 174 0
153 174 0
159 180 0
157 179 0
157 178 0
153 174 0
154 175 0
157 178 0
160 181 0
160 180 0
158 179 0
155 176 0
157 180 0
159 180 0
154 177 0
160 181 0
153 174 0
162 182 0
158 180 0
163 185 0
163 185 0
165 186 0
161 183 0
155 176 0
156 177 0
155 176 0
166 187 0
163 185 0
161 182 0
160 183 0
156 177 0
162 182 0
160 180 0
160 182 0
159 180 0
164 186 0
162 185 0
165 185 0
160 181 0
161 182 0
156 177 0
161 182 0
166 187 0
161 182 0
167 189 0
155 175 0
160 181 0
159 180 0
167 187 0
164 186 0
158 177 0
164 185 0
165 187 0
161 182 0
157 179 0
164 186 0
165 187 0
160 181 0
161 182 0
165 187 0
168 188 0
164 186 0
163 185 0
162 182 0
165 187 0
164 185 0
163 185 0
160 182 0
164 186 0
164 183 0
165 187 0
161 183 0
165 187 0
163 185 0
167 189 0
167 188 0
167 188 0
164 186 0
163 185 0
162 184 0
166 186 0
161 184 0
164 186 0
166 188 0
167 189 0
163 186 0
167 189 0
164 186 0
165 187 0
167 188 0
164 184 0
167 190 0
166 189 0
162 185 0
171 194 0
165 189 0
164 188 0
169 193 0
168 192 0
168 190 0
170 193 0
163 186 0
166 189 0
166 190 0
162 185 0
164 188 0
168 191 0
166 190 0
162 187 0
172 195 0
168 191 0
167 190 0
167 190 0
167 190 0
163 186 0
170 193 0
163 187 0
168 192 0
165 188 0
162 186 0
160 183 0
164 186 0
168 191 0
162 185 0
167 190 0
162 185 0
166 188 0
163 187 0
162 185 0
166 190 0
160 183 0
170 193 0
156 179 0
158 181 0
160 183 0
163 185 0
161 184 0
162 184 0
155 178 0
157 180 0
158 181 0
162 185 0
164 186 0
158 181 0
156 178 0
161 184 0
154 177 0
154 176 0
162 184 0
161 183 0
162 185 0
157 180 0
158 181 0
152 176 0
159 181 0
155 178 0
157 179 0
155 178 0
155 178 0
158 180 0
153 174 0
158 181 0
153 175 0
150 172 0
150 172 0
148 170 0
147 169 0
154 176 0
152 173 0
147 169 0
146 169 0
153 173 0
147 168 0
148 170 0
149 172 0
144 166 0
148 170 0
149 171 0
141 163 0
148 169 0
143 165 0
149 170 0
144 166 0
142 164 0
142 164 0
137 159 0
136 157 0
143 164 0
136 157 0
153 174 0
146 167 0
145 167 0
134 155 0
146 167 0
137 157 0
134 154 0
134 155 0
138 160 0
134 155 0
135 155 0
141 160 0
124 144 0
132 151 0
134 154 0
125 145 0
135 156 0
122 142 0
124 144 0
125 146 0
121 140 0
125 144 0
122 141 0
128 147 0
121 141 0
122 141 0
120 139 0
132 151 0
138 157 0
128 148 0
127 147 0
135 154 0
141 162 0
125 145 0
134 154 0
144 165 0
132 152 0
149 170 0
141 160 0
137 158 0
147 169 0
133 152 0
142 162 0
137 157 0
133 151 0
136 156 0
127 146 0
133 153 0
145 166 0
133 152 0
134 153 0
124 143 0
123 143 0
124 143 0
138 158 0
124 143 0
127 147 0
128 148 0
129 148 0
120 140 0
128 147 0
120 139 0
132 151 0
123 142 0
113 132 0
114 134 0
119 137 0
111 130 0
119 136 0
137 156 0
128 147 0
113 132 0
134 153 0
122 141 0
123 141 0
121 139 0
122 142 0
120 138 0
121 139 0
122 140 0
125 145 0
120 139 0
123 141 0
112 132 0
123 142 0
122 141 0
112 132 0
128 147 0
114 133 0
118 137 0
113 132 0
118 136 0
126 144 0
116 135 0
127 147 0
121 141 0
115 134 0
114 133 0
119 139 0
115 134 0
123 142 0
131 150 0
129 147 0
127 146 0
125 145 0
131 151 0
129 148 0
135 153 0
118 136 0
127 147 0
130 148 0
132 152 0
123 141 0
123 142 0
131 150 0
132 152 0
126 147 0
129 147 0
132 152 0
134 153 0
120 139 0
135 154 0
129 148 0
127 146 0
132 152 0
127 147 0
132 152 0
141 160 0
128 147 0
135 155 0
140 161 0
128 148 0
137 157 0
129 149 0
126 146 0
131 152 0
139 160 0
138 158 0
137 157 0
140 160 0
138 157 0
142 164 0
139 158 0
139 159 0
138 159 0
138 158 0
142 163 0
136 157 0
142 163 0
138 158 0
141 162 0
143 164 0
145 165 0
134 156 0
144 162 0
140 161 0
154 175 0
141 162 0
142 163 0
137 157 0
145 165 0
145 166 0
153 175 0
144 165 0
146 167 0
145 165 0
150 172 0
142 163 0
139 157 0
146 168 0
141 161 0
147 167 0
142 162 0
154 175 0
149 170 0
155 177 0
145 165 0
145 164 0
162 183 0
149 170 0
149 170 0
142 163 0
143 164 0
157 177 0
152 174 0
151 171 0
157 178 0
147 166 0
154 176 0
149 170 0
157 177 0
157 178 0
159 180 0
151 172 0
157 178 0
156 177 0
150 171 0
159 180 0
153 174 0
151 174 0
154 174 0
148 168 0
148 168 0
159 181 0
155 178 0
156 177 0
148 169 0
166 187 0
159 180 0
156 177 0
156 177 0
153 175 0
157 177 0
159 179 0
158 180 0
160 181 0
156 175 0
153 173 0
159 180 0
161 183 0
157 177 0
158 180 0
158 179 0
157 179 0
157 177 0
159 180 0
165 187 0
158 179 0
161 182 0
164 185 0
155 176 0
162 182 0
161 182 0
159 181 0
162 183 0
165 187 0
160 182 0
162 184 0
162 184 0
157 178 0
162 183 0
162 184 0
155 176 0
159 181 0
159 180 0
164 186 0
165 188 0
160 181 0
164 184 0
156 177 0
165 186 0
157 179 0
163 183 0
158 180 0
159 182 0
161 183 0
163 184 0
155 177 0
157 179 0
160 180 0
164 187 0
168 189 0
161 181 0
162 181 0
163 185 0
160 180 0
165 185 0
159 180 0
166 186 0
160 183 0
162 182 0
164 186 0
164 185 0
166 188 0
160 179 0
164 187 0
166 187 0
164 185 0
168 190 0
163 185 0
162 184 0
161 182 0
165 187 0
161 183 0
158 179 0
161 184 0
162 184 0
163 185 0
163 186 0
162 182 0
163 182 0
168 189 0
165 187 0
162 183 0
165 188 0
169 191 0
166 186 0
164 185 0
166 188 0
165 187 0
166 187 0
164 186 0
166 189 0
168 192 0
162 185 0
169 193 0
167 190 0
167 191 0
167 190 0
169 193 0
161 184 0
160 184 0
169 192 0
168 191 0
167 190 0
165 188 0
161 185 0
165 188 0
163 186 0
165 188 0
161 184 0
168 191 0
164 188 0
164 187 0
164 187 0
163 186 0
161 185 0
167 190 0
161 184 0
167 190 0
156 179 0
164 187 0
163 186 0
169 193 0
155 178 0
166 189 0
162 185 0
158 182 0
162 185 0
165 188 0
162 185 0
166 189 0
167 189 0
165 189 0
160 183 0
155 179 0
163 186 0
155 177 0
160 183 0
161 182 0
155 177 0
157 179 0
158 181 0
159 182 0
164 187 0
163 185 0
156 178 0
165 188 0
165 187 0
160 182 0
152 175 0
154 177 0
159 182 0
160 183 0
159 182 0
158 181 0
156 179 0
153 175 0
159 181 0
152 175 0
150 172 0
151 173 0
155 177 0
163 185 0
154 176 0
147 169 0
154 177 0
148 169 0
151 173 0
157 179 0
153 176 0
153 174 0
147 168 0
157 179 0
155 178 0
145 166 0
147 169 0
149 172 0
149 172 0
141 162 0
135 158 0
145 167 0
146 168 0
153 175 0
148 169 0
145 166 0
143 164 0
134 156 0
146 168 0
140 161 0
142 163 0
147 167 0
142 163 0
142 163 0
127 148 0
146 167 0
139 160 0
138 160 0
126 147 0
135 156 0
142 162 0
122 143 0
133 153 0
133 153 0
125 145 0
125 144 0
123 141 0
132 152 0
139 159 0
139 160 0
109 129 0
131 151 0
140 159 0
113 133 0
131 151 0
114 133 0
137 156 0
130 151 0
132 152 0
121 141 0
123 143 0
135 155 0
136 157 0
137 158 0
146 166 0
134 155 0
144 165 0
148 168 0
147 168 0
142 163 0
146 167 0
141 162 0
141 161 0
138 159 0
135 155 0
133 154 0
132 151 0
129 148 0
133 152 0
133 153 0
124 142 0
127 147 0
135 155 0
131 150 0
131 150 0
119 138 0
139 160 0
127 147 0
126 146 0
125 144 0
120 139 0
122 142 0
128 146 0
122 142 0
120 139 0
120 139 0
134 153 0
134 153 0
117 137 0
128 148 0
120 139 0
115 134 0
120 138 0
125 143 0
132 152 0
116 136 0
112 131 0
121 141 0
117 136 0
113 133 0
126 146 0
128 147 0
111 129 0
121 140 0
137 157 0
113 132 0
129 148 0
111 130 0
119 137 0
125 143 0
113 131 0
121 141 0
113 131 0
114 133 0
126 145 0
126 145 0
125 145 0
118 135 0
121 141 0
125 144 0
126 145 0
124 142 0
125 144 0
118 136 0
122 141 0
124 142 0
126 147 0
133 153 0
127 146 0
123 142 0
128 146 0
123 142 0
118 137 0
128 146 0
129 149 0
133 151 0
132 153 0
135 154 0
127 147 0
125 146 0
127 146 0
130 150 0
131 151 0
139 159 0
126 145 0
131 151 0
137 156 0
135 156 0
137 156 0
138 157 0
133 152 0
139 159 0
132 151 0
134 155 0
130 149 0
140 160 0
138 157 0
138 159 0
134 154 0
136 156 0
148 168 0
142 163 0
138 158 0
132 150 0
137 158 0
145 165 0
142 163 0
136 157 0
143 163 0
138 158 0
149 169 0
150 171 0
137 156 0
140 161 0
149 170 0
142 164 0
149 170 0
145 166 0
142 163 0
146 165 0
144 164 0
136 155 0
148 168 0
147 166 0
146 169 0
146 166 0
144 164 0
136 158 0
146 167 0
144 166 0
151 173 0
150 171 0
152 173 0
147 169 0
148 170 0
147 166 0
150 171 0
154 176 0
150 173 0
158 179 0
147 168 0
151 172 0
146 167 0
150 170 0
156 178 0
153 174 0
152 174 0
151 172 0
150 172 0
151 172 0
154 175 0
154 175 0
156 177 0
153 172 0
155 176 0
146 167 0
159 180 0
156 177 0
151 173 0
153 174 0
149 171 0
149 170 0
160 181 0
151 173 0
150 170 0
151 173 0
158 180 0
154 177 0
157 178 0
156 177 0
158 178 0
162 184 0
156 177 0
157 179 0
156 175 0
153 173 0
162 185 0
153 174 0
150 169 0
160 183 0
158 180 0
159 178 0
160 183 0
159 182 0
155 176 0
156 177 0
161 181 0
162 183 0
160 181 0
156 176 0
159 180 0
153 175 0
160 181 0
159 180 0
152 171 0
156 177 0
157 178 0
160 180 0
164 186 0
157 177 0
161 183 0
163 184 0
168 191 0
165 186 0
155 176 0
162 183 0
164 187 0
166 189 0
161 183 0
165 185 0
163 185 0
165 186 0
164 185 0
163 184 0
168 191 0
165 187 0
160 181 0
159 180 0
165 185 0
162 183 0
163 184 0
160 180 0
163 183 0
164 185 0
162 181 0
165 185 0
169 191 0
165 186 0
160 182 0
166 187 0
156 178 0
166 188 0
164 183 0
162 184 0
166 187 0
166 188 0
164 186 0
164 186 0
164 185 0
164 185 0
168 189 0
163 185 0
167 190 0
162 184 0
168 189 0
164 184 0
166 186 0
170 193 0
166 187 0
170 192 0
165 187 0
168 190 0
164 185 0
168 190 0
164 187 0
162 183 0
168 191 0
167 188 0
163 183 0
164 186 0
167 189 0
168 191 0
170 193 0
169 191 0
164 188 0
169 192 0
164 188 0
169 192 0
170 194 0
169 193 0
162 186 0
167 190 0
168 191 0
167 190 0
166 189 0
161 184 0
170 193 0
166 189 0
161 184 0
162 185 0
166 190 0
166 189 0
166 189 0
167 191 0
165 189 0
164 187 0
165 188 0
166 189 0
164 187 0
163 188 0
165 189 0
165 188 0
163 185 0
163 186 0
163 187 0
163 187 0
165 188 0
164 186 0
161 183 0
161 184 0
164 187 0
165 189 0
161 184 0
156 178 0
159 182 0
157 180 0
151 174 0
156 179 0
160 183 0
161 183 0
165 187 0
160 183 0
157 179 0
159 181 0
161 184 0
151 173 0
160 183 0
161 184 0
158 181 0
165 187 0
160 182 0
159 181 0
159 182 0
158 181 0
154 176 0
153 176 0
152 174 0
160 182 0
158 180 0
152 174 0
156 179 0
149 173 0
158 180 0
149 171 0
155 178 0
146 168 0
150 173 0
156 178 0
148 169 0
154 176 0
147 169 0
156 178 0
149 172 0
150 172 0
153 175 0
157 179 0
153 175 0
150 173 0
152 174 0
147 170 0
145 167 0
148 170 0
144 166 0
147 168 0
145 166 0
150 171 0
148 170 0
144 166 0
144 166 0
140 160 0
142 164 0
146 166 0
139 159 0
135 156 0
134 156 0
142 163 0
131 152 0
144 164 0
140 160 0
131 152 0
148 169 0
138 158 0
139 159 0
135 156 0
139 160 0
142 163 0
122 142 0
127 146 0
137 157 0
131 151 0
130 150 0
124 143 0
127 148 0
130 149 0
135 155 0
122 142 0
122 142 0
131 151 0
123 142 0
141 161 0
123 142 0
140 160 0
137 157 0
126 147 0
152 172 0
149 169 0
136 156 0
140 160 0
141 162 0
143 165 0
145 166 0
141 162 0
147 167 0
138 160 0
139 158 0
139 160 0
135 155 0
133 154 0
137 155 0
136 156 0
122 141 0
132 153 0
130 149 0
130 149 0
127 146 0
129 149 0
121 140 0
133 152 0
123 143 0
123 144 0
136 155 0
121 141 0
119 138 0
131 149 0
118 137 0
126 145 0
118 138 0
127 147 0
129 148 0
113 132 0
107 126 0
125 144 0
121 140 0
126 145 0
118 137 0
133 153 0
121 140 0
120 139 0
121 140 0
114 133 0
122 142 0
125 145 0
117 136 0
116 134 0
115 135 0
114 133 0
124 143 0
124 142 0
135 155 0
120 138 0
122 141 0
116 134 0
122 141 0
119 138 0
125 145 0
132 152 0
135 155 0
111 130 0
123 144 0
123 142 0
113 133 0
131 150 0
126 146 0
127 147 0
125 145 0
125 144 0
121 140 0
130 150 0
129 150 0
124 144 0
137 157 0
128 148 0
129 148 0
137 158 0
124 143 0
133 154 0
125 145 0
138 159 0
134 154 0
134 154 0
128 149 0
127 146 0
135 155 0
129 149 0
132 151 0
135 156 0
134 154 0
137 156 0
132 152 0
130 150 0
135 154 0
136 156 0
139 160 0
136 157 0
133 154 0
128 148 0
129 149 0
141 162 0
143 163 0
138 160 0
142 162 0
143 163 0
146 166 0
136 157 0
141 161 0
130 150 0
131 150 0
142 163 0
142 163 0
148 169 0
143 163 0
142 164 0
134 153 0
144 166 0
143 163 0
144 165 0
135 154 0
142 162 0
139 159 0
152 174 0
144 165 0
140 160 0
136 156 0
151 171 0
144 166 0
149 170 0
146 167 0
140 162 0
148 169 0
153 175 0
151 172 0
147 167 0
148 169 0
147 167 0
152 173 0
150 172 0
156 176 0
153 174 0
148 169 0
145 165 0
156 179 0
150 170 0
153 174 0
152 173 0
152 174 0
146 169 0
151 173 0
159 179 0
156 179 0
144 166 0
150 172 0
154 176 0
159 181 0
155 177 0
150 173 0
154 176 0
146 168 0
151 172 0
152 173 0
154 174 0
154 176 0
159 180 0
156 177 0
157 178 0
162 182 0
153 174 0
160 181 0
155 178 0
152 173 0
156 176 0
155 175 0
151 171 0
160 183 0
155 176 0
152 173 0
155 176 0
153 175 0
157 176 0
157 177 0
153 174 0
151 173 0
162 184 0
151 172 0
158 178 0
157 177 0
158 180 0
157 179 0
162 183 0
161 182 0
156 175 0
161 184 0
160 182 0
161 183 0
161 184 0
165 187 0
161 183 0
159 180 0
157 178 0
161 184 0
162 184 0
167 187 0
159 181 0
158 179 0
162 184 0
165 186 0
158 179 0
159 181 0
163 186 0
159 180 0
157 179 0
161 183 0
162 184 0
165 186 0
160 181 0
164 185 0
154 176 0
165 187 0
161 183 0
164 185 0
166 189 0
159 181 0
165 188 0
163 185 0
160 181 0
164 185 0
160 181 0
165 186 0
159 180 0
169 191 0
160 181 0
161 183 0
165 186 0
165 186 0
166 188 0
167 190 0
159 181 0
166 188 0
164 186 0
163 184 0
165 187 0
163 185 0
162 185 0
157 176 0
169 191 0
160 182 0
167 189 0
168 190 0
167 189 0
166 189 0
166 187 0
169 191 0
165 187 0
170 190 0
169 192 0
167 189 0
168 191 0
167 188 0
166 187 0
169 191 0
167 188 0
165 186 0
166 188 0
167 190 0
168 191 0
166 188 0
167 191 0
163 187 0
171 195 0
169 193 0
162 185 0
164 187 0
168 191 0
165 189 0
170 194 0
168 191 0
167 191 0
165 187 0
159 183 0
161 185 0
165 188 0
162 185 0
170 193 0
162 185 0
162 186 0
161 185 0
163 186 0
166 190 0
166 190 0
165 188 0
160 183 0
164 187 0
162 186 0
156 179 0
162 184 0
166 190 0
160 183 0
161 184 0
161 185 0
160 184 0
162 186 0
163 184 0
160 183 0
158 181 0
163 186 0
166 189 0
162 184 0
156 180 0
162 186 0
155 178 0
160 183 0
157 180 0
156 179 0
154 178 0
159 181 0
156 178 0
161 184 0
157 179 0
162 184 0
154 177 0
165 187 0
152 175 0
158 181 0
154 176 0
157 180 0
156 179 0
154 176 0
154 176 0
156 178 0
155 177 0
161 184 0
161 183 0
152 174 0
155 178 0
161 184 0
152 174 0
149 170 0
155 177 0
151 173 0
144 166 0
154 176 0
144 166 0
150 172 0
154 176 0
155 177 0
153 174 0
141 163 0
147 167 0
150 171 0
153 175 0
152 174 0
144 166 0
148 170 0
153 175 0
151 173 0
144 165 0
154 175 0
143 164 0
154 174 0
140 161 0
152 174 0
144 165 0
136 157 0
146 166 0
150 172 0
142 162 0
138 158 0
148 170 0
142 164 0
142 162 0
142 162 0
129 149 0
143 165 0
137 157 0
137 157 0
136 156 0
135 155 0
140 160 0
136 157 0
131 151 0
136 157 0
131 151 0
138 159 0
123 142 0
139 160 0
136 157 0
136 156 0
129 150 0
128 149 0
128 148 0
143 163 0
136 155 0
132 154 0
135 155 0
146 167 0
148 169 0
139 159 0
140 161 0
146 167 0
150 172 0
137 159 0
142 164 0
153 174 0
143 163 0
145 167 0
133 153 0
133 153 0
140 160 0
122 142 0
130 150 0
136 156 0
141 160 0
135 155 0
128 149 0
138 158 0
137 157 0
139 160 0
130 150 0
127 146 0
131 150 0
134 155 0
121 140 0
111 131 0
123 143 0
131 152 0
124 144 0
129 149 0
119 138 0
116 135 0
125 145 0
123 142 0
117 136 0
123 142 0
127 146 0
116 135 0
121 140 0
122 141 0
131 151 0
128 147 0
112 132 0
129 148 0
118 137 0
125 144 0
127 146 0
130 148 0
125 145 0
128 147 0
124 143 0
114 133 0
124 143 0
134 153 0
126 143 0
125 144 0
139 158 0
117 137 0
132 152 0
117 136 0
128 147 0
134 153 0
121 141 0
136 155 0
135 155 0
131 150 0
126 144 0
126 146 0
139 157 0
112 130 0
125 145 0
130 150 0
140 159 0
128 148 0
128 148 0
125 146 0
133 153 0
125 147 0
129 148 0
133 152 0
130 150 0
134 155 0
135 155 0
125 144 0
140 160 0
131 151 0
133 152 0
135 155 0
131 151 0
141 162 0
148 169 0
135 155 0
135 154 0
133 152 0
141 161 0
135 156 0
133 152 0
126 146 0
140 160 0
140 162 0
138 157 0
132 152 0
135 155 0
140 160 0
141 161 0
133 154 0
151 171 0
149 171 0
141 162 0
148 168 0
151 171 0
143 163 0
141 162 0
144 165 0
144 165 0
154 175 0
140 160 0
142 164 0
140 159 0
147 168 0
145 166 0
149 170 0
148 170 0
146 166 0
152 172 0
150 171 0
150 173 0
150 172 0
145 166 0
135 156 0
147 169 0
149 170 0
148 170 0
147 169 0
142 164 0
146 166 0
145 165 0
139 159 0
145 165 0
146 167 0
152 173 0
140 159 0
151 172 0
151 170 0
139 159 0
152 173 0
144 165 0
149 170 0
145 164 0
149 170 0
151 173 0
155 176 0
155 178 0
162 184 0
149 170 0
153 173 0
156 176 0
150 171 0
149 169 0
157 177 0
157 177 0
154 176 0
156 177 0
153 174 0
152 172 0
149 171 0
154 174 0
160 182 0
155 175 0
156 178 0
160 181 0
157 178 0
156 175 0
156 178 0
157 177 0
154 174 0
153 176 0
161 181 0
155 174 0
153 176 0
158 179 0
157 178 0
160 183 0
160 181 0
156 177 0
159 180 0
159 181 0
155 176 0
162 183 0
159 181 0
157 179 0
163 185 0
165 187 0
158 178 0
160 182 0
162 184 0
164 185 0
152 172 0
160 181 0
161 182 0
159 181 0
157 177 0
159 180 0
159 180 0
165 187 0
164 184 0
160 182 0
162 183 0
160 182 0
162 183 0
162 184 0
164 185 0
160 182 0
163 184 0
167 188 0
160 182 0
162 183 0
160 182 0
160 181 0
162 184 0
165 187 0
163 185 0
161 183 0
164 186 0
164 185 0
161 182 0
154 175 0
164 186 0
165 187 0
165 186 0
159 179 0
162 185 0
161 182 0
159 181 0
165 185 0
163 186 0
167 187 0
163 184 0
163 185 0
165 186 0
166 189 0
167 187 0
163 183 0
167 189 0
164 186 0
155 177 0
164 185 0
165 186 0
167 188 0
162 185 0
164 186 0
165 187 0
167 189 0
161 183 0
160 180 0
165 186 0
164 184 0
163 186 0
164 185 0
167 189 0
171 193 0
166 188 0
168 189 0
169 191 0
167 190 0
163 185 0
166 190 0
169 192 0
164 186 0
166 189 0
165 188 0
166 190 0
168 191 0
167 190 0
165 188 0
162 186 0
166 189 0
160 183 0
169 192 0
166 189 0
167 189 0
164 188 0
167 190 0
166 189 0
165 189 0
166 190 0
168 191 0
161 184 0
167 190 0
157 180 0
159 182 0
163 186 0
164 188 0
166 188 0
161 184 0
167 190 0
168 192 0
155 178 0
160 183 0
161 184 0
158 182 0
160 183 0
166 188 0
162 184 0
168 190 0
159 183 0
160 183 0
155 177 0
162 185 0
155 178 0
160 183 0
166 188 0
158 182 0
164 187 0
154 177 0
152 175 0
159 181 0
162 185 0
159 181 0
156 179 0
155 178 0
159 181 0
154 177 0
155 176 0
156 179 0
158 181 0
160 182 0
153 175 0
160 182 0
160 181 0
160 182 0
162 184 0
158 180 0
155 177 0
157 180 0
157 179 0
161 183 0
156 178 0
150 173 0
149 171 0
157 179 0
152 173 0
153 175 0
150 172 0
155 178 0
156 177 0
151 172 0
144 166 0
147 170 0
153 175 0
155 177 0
147 169 0
150 173 0
155 177 0
153 174 0
150 172 0
153 175 0
157 178 0
144 166 0
140 163 0
146 167 0
147 169 0
147 168 0
139 160 0
149 169 0
144 166 0
137 158 0
147 168 0
143 164 0
139 160 0
141 161 0
139 161 0
141 163 0
148 170 0
141 161 0
138 159 0
151 171 0
140 161 0
134 155 0
133 154 0
126 147 0
125 145 0
135 155 0
127 147 0
137 158 0
141 162 0
138 158 0
136 157 0
135 155 0
128 148 0
129 149 0
137 158 0
127 146 0
140 160 0
127 147 0
136 158 0
133 154 0
150 171 0
141 161 0
138 159 0
146 167 0
147 167 0
148 169 0
144 165 0
145 164 0
141 161 0
145 165 0
148 169 0
141 161 0
144 165 0
131 152 0
141 161 0
136 156 0
127 147 0
136 156 0
129 149 0
140 161 0
132 153 0
136 156 0
122 142 0
132 153 0
125 144 0
129 149 0
127 146 0
127 147 0
130 149 0
124 144 0
139 159 0
120 139 0
124 144 0
126 146 0
138 157 0
133 152 0
118 138 0
119 137 0
126 145 0
122 141 0
130 149 0
125 144 0
123 142 0
126 145 0
136 155 0
129 150 0
106 127 0
120 138 0
139 159 0
126 145 0
123 142 0
128 148 0
134 153 0
112 131 0
124 144 0
123 143 0
136 156 0
127 148 0
126 145 0
127 146 0
124 144 0
131 151 0
116 135 0
128 147 0
115 133 0
123 142 0
135 154 0
127 146 0
134 154 0
122 143 0
119 139 0
127 145 0
128 148 0
129 149 0
116 136 0
132 151 0
131 152 0
132 152 0
128 149 0
138 158 0
126 146 0
136 156 0
137 157 0
125 145 0
136 156 0
140 160 0
144 164 0
140 162 0
135 154 0
134 154 0
135 154 0
136 158 0
130 150 0
136 156 0
141 160 0
127 147 0
131 150 0
134 156 0
139 160 0
146 165 0
138 158 0
136 155 0
136 156 0
138 160 0
134 153 0
138 159 0
133 154 0
136 157 0
138 157 0
131 152 0
146 167 0
138 158 0
143 163 0
145 166 0
134 154 0
148 169 0
145 166 0
142 164 0
148 170 0
147 168 0
135 155 0
140 161 0
136 157 0
142 163 0
145 167 0
150 170 0
146 168 0
148 170 0
150 169 0
154 176 0
143 164 0
150 171 0
145 166 0
151 171 0
153 175 0
156 176 0
153 173 0
151 171 0
139 159 0
154 176 0
148 168 0
151 172 0
146 167 0
147 169 0
149 171 0
146 167 0
149 171 0
153 175 0
154 175 0
153 173 0
147 168 0
154 173 0
156 177 0
158 178 0
145 165 0
153 175 0
149 171 0
146 168 0
148 171 0
157 177 0
147 169 0
150 170 0
158 179 0
160 183 0
155 176 0
156 177 0
152 173 0
155 178 0
156 178 0
151 172 0
153 174 0
157 178 0
149 169 0
160 182 0
156 177 0
155 178 0
158 181 0
160 182 0
153 174 0
154 174 0
160 182 0
153 175 0
156 177 0
158 179 0
159 180 0
162 183 0
157 177 0
160 182 0
157 179 0
155 177 0
160 182 0
160 182 0
158 180 0
158 180 0
158 180 0
159 179 0
158 179 0
159 181 0
156 178 0
160 181 0
158 179 0
163 186 0
158 180 0
160 181 0
162 182 0
155 176 0
154 176 0
159 180 0
164 185 0
165 185 0
154 173 0
164 186 0
157 178 0
163 186 0
163 183 0
164 186 0
161 182 0
165 186 0
163 183 0
164 186 0
161 182 0
164 185 0
162 183 0
157 178 0
164 184 0
158 178 0
165 187 0
163 185 0
159 180 0
165 186 0
161 184 0
160 181 0
165 186 0
167 187 0
163 184 0
163 183 0
159 181 0
162 182 0
163 184 0
165 185 0
166 188 0
162 184 0
161 183 0
166 187 0
162 183 0
165 187 0
164 187 0
164 186 0
163 184 0
168 188 0
164 187 0
165 187 0
163 186 0
168 189 0
165 188 0
167 189 0
166 188 0
169 191 0
164 185 0
170 191 0
168 189 0
163 185 0
164 184 0
169 191 0
164 186 0
162 185 0
167 187 0
166 189 0
168 191 0
169 192 0
166 189 0
167 191 0
166 190 0
166 188 0
166 189 0
169 193 0
165 188 0
167 191 0
167 190 0
169 192 0
168 192 0
166 189 0
162 186 0
166 189 0
167 190 0
169 193 0
163 187 0
162 185 0
164 187 0
164 188 0
161 185 0
161 184 0
160 183 0
164 188 0
168 191 0
164 188 0
160 183 0
162 185 0
163 187 0
168 192 0
163 185 0
160 183 0
163 186 0
163 186 0
160 183 0
160 183 0
166 190 0
163 185 0
161 184 0
168 191 0
161 185 0
161 183 0
159 183 0
156 179 0
167 189 0
163 186 0
165 188 0
163 186 0
162 185 0
155 178 0
156 179 0
156 178 0
161 183 0
164 187 0
159 182 0
156 179 0
160 183 0
155 177 0
164 187 0
151 174 0
156 177 0
158 180 0
153 175 0
158 180 0
156 178 0
160 181 0
155 176 0
156 179 0
156 177 0
157 179 0
154 177 0
156 179 0
160 183 0
156 178 0
150 172 0
155 178 0
156 178 0
152 174 0
156 177 0
153 175 0
155 176 0
150 172 0
151 173 0
144 167 0
156 178 0
149 171 0
154 176 0
148 170 0
141 162 0
147 169 0
146 169 0
152 173 0
152 173 0
149 171 0
147 169 0
147 169 0
141 162 0
138 159 0
142 162 0
139 159 0
148 169 0
141 162 0
142 163 0
135 156 0
145 165 0
145 166 0
142 163 0
136 157 0
149 170 0
133 153 0
129 150 0
123 143 0
125 146 0
131 150 0
129 149 0
133 153 0
131 150 0
136 157 0
139 161 0
134 154 0
136 156 0
125 145 0
145 166 0
143 163 0
139 160 0
135 156 0
138 158 0
145 167 0
139 160 0
140 161 0
138 158 0
139 158 0
146 168 0
148 169 0
146 167 0
145 167 0
145 167 0
149 170 0
148 170 0
149 170 0
141 161 0
140 161 0
146 167 0
137 157 0
147 168 0
134 155 0
137 158 0
132 152 0
135 156 0
128 148 0
133 153 0
137 157 0
125 145 0
137 157 0
129 148 0
123 144 0
128 147 0
124 144 0
121 141 0
142 163 0
139 158 0
133 152 0
130 149 0
129 148 0
120 140 0
127 146 0
130 150 0
114 133 0
132 153 0
123 142 0
124 144 0
122 141 0
125 144 0
127 146 0
126 147 0
123 143 0
124 143 0
127 148 0
136 156 0
125 145 0
112 132 0
133 152 0
133 153 0
130 150 0
124 143 0
111 131 0
119 138 0
139 158 0
131 150 0
133 153 0
132 152 0
134 154 0
115 135 0
127 146 0
126 145 0
133 152 0
120 139 0
133 153 0
133 152 0
139 159 0
132 152 0
132 153 0
131 151 0
133 153 0
141 161 0
134 154 0
135 156 0
131 151 0
139 157 0
126 145 0
142 163 0
135 156 0
133 154 0
142 161 0
135 155 0
131 151 0
126 147 0
137 158 0
140 159 0
138 156 0
130 151 0
126 148 0
132 152 0
135 155 0
132 152 0
144 165 0
145 166 0
142 162 0
133 152 0
139 160 0
120 140 0
143 164 0
131 152 0
136 157 0
139 160 0
142 163 0
135 155 0
138 159 0
133 155 0
139 160 0
144 166 0
139 159 0
135 156 0
135 156 0
146 167 0
148 169 0
144 166 0
140 159 0
149 168 0
141 162 0
142 163 0
149 171 0
144 165 0
147 166 0
146 167 0
137 159 0
149 170 0
142 162 0
148 170 0
143 164 0
144 164 0
144 165 0
146 167 0
149 169 0
144 165 0
153 175 0
146 167 0
151 173 0
153 175 0
156 178 0
147 167 0
151 173 0
147 168 0
155 176 0
154 176 0
150 170 0
150 172 0
147 168 0
152 173 0
145 167 0
154 175 0
152 174 0
154 175 0
157 180 0
147 170 0
152 173 0
157 179 0
153 175 0
151 172 0
159 179 0
151 171 0
147 168 0
156 178 0
156 177 0
157 178 0
158 180 0
156 178 0
154 175 0
153 175 0
152 173 0
158 179 0
157 176 0
152 173 0
153 172 0
160 181 0
155 177 0
157 178 0
164 187 0
160 182 0
151 172 0
157 177 0
157 178 0
157 178 0
156 176 0
159 180 0
157 180 0
160 181 0
158 180 0
157 180 0
160 181 0
159 180 0
153 175 0
153 173 0
155 176 0
160 181 0
158 177 0
162 183 0
163 185 0
159 181 0
164 185 0
158 178 0
163 185 0
160 180 0
153 175 0
155 176 0
158 179 0
162 183 0
162 184 0
167 189 0
161 183 0
158 179 0
161 183 0
164 186 0
161 183 0
163 185 0
158 178 0
162 182 0
163 186 0
164 186 0
161 184 0
163 185 0
163 184 0
164 186 0
166 187 0
162 183 0
161 183 0
164 187 0
164 186 0
162 181 0
160 181 0
162 185 0
165 186 0
169 190 0
165 187 0
163 186 0
163 186 0
163 184 0
166 187 0
168 189 0
165 187 0
167 189 0
161 182 0
160 182 0
162 184 0
159 181 0
161 182 0
169 192 0
165 185 0
163 185 0
168 190 0
161 181 0
169 191 0
169 191 0
170 191 0
162 183 0
163 186 0
165 186 0
166 189 0
163 186 0
165 186 0
163 185 0
163 185 0
160 181 0
170 191 0
169 192 0
168 189 0
168 191 0
166 188 0
166 189 0
165 189 0
167 190 0
167 190 0
169 193 0
169 191 0
166 190 0
168 191 0
166 188 0
168 192 0
166 190 0
167 190 0
169 192 0
168 191 0
162 185 0
161 183 0
168 191 0
165 189 0
172 194 0
168 190 0
163 187 0
162 185 0
164 187 0
165 188 0
164 187 0
166 189 0
164 187 0
165 188 0
162 186 0
162 186 0
167 189 0
160 183 0
161 184 0
165 189 0
162 185 0
160 184 0
162 185 0
163 186 0
162 185 0
168 191 0
164 187 0
162 185 0
154 177 0
164 186 0
162 185 0
162 185 0
159 182 0
161 184 0
160 183 0
161 184 0
156 179 0
163 185 0
158 180 0
152 175 0
162 184 0
166 187 0
160 183 0
157 179 0
158 181 0
158 180 0
160 183 0
159 181 0
156 179 0
147 169 0
161 182 0
161 182 0
155 178 0
153 175 0
159 182 0
159 182 0
147 169 0
156 179 0
158 180 0
156 178 0
155 178 0
151 173 0
160 182 0
148 171 0
153 175 0
149 171 0
154 175 0
155 176 0
157 179 0
143 165 0
154 176 0
153 175 0
153 175 0
151 173 0
146 168 0
150 171 0
158 179 0
142 163 0
151 172 0
151 173 0
152 174 0
151 173 0
149 171 0
150 172 0
145 166 0
145 166 0
141 161 0
145 167 0
144 165 0
143 165 0
143 164 0
137 159 0
141 162 0
146 167 0
138 159 0
132 153 0
144 165 0
135 155 0
137 158 0
142 163 0
141 161 0
134 154 0
134 155 0
140 161 0
132 151 0
137 158 0
143 163 0
132 153 0
134 155 0
137 157 0
135 155 0
129 150 0
133 153 0
134 155 0
144 164 0
135 156 0
145 166 0
144 167 0
144 165 0
137 158 0
139 161 0
139 160 0
148 170 0
153 174 0
150 172 0
153 175 0
150 171 0
151 172 0
147 168 0
143 164 0
148 168 0
139 161 0
134 155 0
131 151 0
141 163 0
140 160 0
136 157 0
131 150 0
139 159 0
133 154 0
128 147 0
119 140 0
138 159 0
129 149 0
135 155 0
129 149 0
134 154 0
141 161 0
137 156 0
128 148 0
137 157 0
138 158 0
134 154 0
122 141 0
118 138 0
124 143 0
125 143 0
117 136 0
126 146 0
134 152 0
128 147 0
127 147 0
120 141 0
118 138 0
132 151 0
123 142 0
131 151 0
119 138 0
128 147 0
128 148 0
131 151 0
116 136 0
128 148 0
125 145 0
134 154 0
130 149 0
125 145 0
134 155 0
122 141 0
138 158 0
130 148 0
128 148 0
119 138 0
131 151 0
124 145 0
131 151 0
130 150 0
132 152 0
143 163 0
125 145 0
137 157 0
130 151 0
130 151 0
123 142 0
128 148 0
129 149 0
126 147 0
125 145 0
133 153 0
135 155 0
140 161 0
129 149 0
134 154 0
133 153 0
133 154 0
142 161 0
143 163 0
138 157 0
126 146 0
143 164 0
146 168 0
136 156 0
135 155 0
138 159 0
126 147 0
135 155 0
137 157 0
145 166 0
136 155 0
138 159 0
135 155 0
132 153 0
135 156 0
133 154 0
133 152 0
144 165 0
140 161 0
145 165 0
134 155 0
143 165 0
148 170 0
146 168 0
136 157 0
140 162 0
150 171 0
139 159 0
139 159 0
152 173 0
143 163 0
143 163 0
152 174 0
150 169 0
151 172 0
152 172 0
153 173 0
151 171 0
144 165 0
143 163 0
154 176 0
157 177 0
136 157 0
149 171 0
152 173 0
150 172 0
141 162 0
147 169 0
146 167 0
151 174 0
152 173 0
159 180 0
146 167 0
155 177 0
155 175 0
148 168 0
151 172 0
152 172 0
149 170 0
151 173 0
154 175 0
149 170 0
151 172 0
153 175 0
146 167 0
148 169 0
158 180 0
159 180 0
154 176 0
159 181 0
154 173 0
153 173 0
161 182 0
147 168 0
154 177 0
154 175 0
145 167 0
159 181 0
157 178 0
151 171 0
162 184 0
153 176 0
152 174 0
160 181 0
161 182 0
158 179 0
161 183 0
154 175 0
163 186 0
155 176 0
161 182 0
156 178 0
158 178 0
153 175 0
156 178 0
155 177 0
152 174 0
160 182 0
164 186 0
159 181 0
156 178 0
160 182 0
161 183 0
163 183 0
161 181 0
160 182 0
165 186 0
166 188 0
159 180 0
156 178 0
163 186 0
162 181 0
166 188 0
158 179 0
157 179 0
164 186 0
164 186 0
166 188 0
167 190 0
163 184 0
157 178 0
161 182 0
157 178 0
158 179 0
162 183 0
161 182 0
163 185 0
165 187 0
164 187 0
163 185 0
167 189 0
163 185 0
169 189 0
164 187 0
162 184 0
164 187 0
163 183 0
164 184 0
161 183 0
167 189 0
164 185 0
167 190 0
164 185 0
165 187 0
162 184 0
163 183 0
161 183 0
167 188 0
166 188 0
167 188 0
162 185 0
163 185 0
166 188 0
167 188 0
165 189 0
165 187 0
165 187 0
165 187 0
170 191 0
165 187 0
165 186 0
162 184 0
164 185 0
168 191 0
166 187 0
168 190 0
161 183 0
162 184 0
165 187 0
166 187 0
165 186 0
169 192 0
165 185 0
167 189 0
165 187 0
168 190 0
167 188 0
165 187 0
167 190 0
169 193 0
168 191 0
170 194 0
165 188 0
167 190 0
166 189 0
162 186 0
166 190 0
165 189 0
166 189 0
162 185 0
167 190 0
166 189 0
169 192 0
165 189 0
168 192 0
161 184 0
170 193 0
166 190 0
163 187 0
165 189 0
163 186 0
166 190 0
156 179 0
165 187 0
160 183 0
164 187 0
161 184 0
166 189 0
164 187 0
159 182 0
158 181 0
162 185 0
166 189 0
163 186 0
162 185 0
160 183 0
161 184 0
162 184 0
166 189 0
158 181 0
161 184 0
160 184 0
159 181 0
161 185 0
157 180 0
159 182 0
156 179 0
161 183 0
160 183 0
164 187 0
151 174 0
156 179 0
161 184 0
163 186 0
157 179 0
156 178 0
149 172 0
162 185 0
156 178 0
162 185 0
163 186 0
152 175 0
161 183 0
151 173 0
155 178 0
157 179 0
160 183 0
160 182 0
147 169 0
156 178 0
153 174 0
158 181 0
158 179 0
153 176 0
152 174 0
160 182 0
148 170 0
149 171 0
155 177 0
154 176 0
154 176 0
152 174 0
154 176 0
144 166 0
149 170 0
151 173 0
152 174 0
152 174 0
139 160 0
149 171 0
147 169 0
149 171 0
144 166 0
155 177 0
152 174 0
144 165 0
149 170 0
148 169 0
147 168 0
150 171 0
145 165 0
144 165 0
154 176 0
140 161 0
152 174 0
144 165 0
138 158 0
129 150 0
138 158 0
142 163 0
133 155 0
143 164 0
135 155 0
142 162 0
144 164 0
137 157 0
136 156 0
143 164 0
134 155 0
123 143 0
137 159 0
137 157 0
137 158 0
135 156 0
132 153 0
147 170 0
144 164 0
151 173 0
143 164 0
149 171 0
142 162 0
144 164 0
142 163 0
140 161 0
147 168 0
149 171 0
142 163 0
139 160 0
148 170 0
151 173 0
143 165 0
137 158 0
133 155 0
137 158 0
138 159 0
146 166 0
142 162 0
129 150 0
135 156 0
136 156 0
131 152 0
137 158 0
133 153 0
136 157 0
132 152 0
131 151 0
129 150 0
132 152 0
144 165 0
131 151 0
129 149 0
125 145 0
116 136 0
138 159 0
130 150 0
122 142 0
129 148 0
132 152 0
138 157 0
133 153 0
128 148 0
132 152 0
122 142 0
126 145 0
134 155 0
129 149 0
120 140 0
135 155 0
127 146 0
125 145 0
134 154 0
127 146 0
129 149 0
129 149 0
138 159 0
114 134 0
131 151 0
139 160 0
127 146 0
126 145 0
134 154 0
136 156 0
134 154 0
129 148 0
129 148 0
134 154 0
137 157 0
121 140 0
123 144 0
125 144 0
139 158 0
143 164 0
130 150 0
134 154 0
127 147 0
128 147 0
130 150 0
136 156 0
137 157 0
134 155 0
133 153 0
134 154 0
131 153 0
134 154 0
143 163 0
134 154 0
132 153 0
139 161 0
136 157 0
138 160 0
132 152 0
142 163 0
141 162 0
148 169 0
137 159 0
144 163 0
138 159 0
137 158 0
142 163 0
137 158 0
142 164 0
140 160 0
140 160 0
142 162 0
144 164 0
133 155 0
139 160 0
144 165 0
143 164 0
147 169 0
152 173 0
137 158 0
138 159 0
141 163 0
145 165 0
142 163 0
146 168 0
150 172 0
153 175 0
136 157 0
146 167 0
148 167 0
147 168 0
143 165 0
131 155 0
143 165 0
149 172 0
145 166 0
145 167 0
141 161 0
148 169 0
139 158 0
151 173 0
147 168 0
145 167 0
146 168 0
151 173 0
152 172 0
146 168 0
152 173 0
151 171 0
147 168 0
150 172 0
148 167 0
147 169 0
153 175 0
149 170 0
147 169 0
145 166 0
152 174 0
149 171 0
149 171 0
151 171 0
162 184 0
155 177 0
150 171 0
157 178 0
149 169 0
160 181 0
153 174 0
154 176 0
159 181 0
156 175 0
150 172 0
157 178 0
154 177 0
156 175 0
161 183 0
159 182 0
160 181 0
154 175 0
159 182 0
154 174 0
161 184 0
156 178 0
156 177 0
160 181 0
149 171 0
156 178 0
156 178 0
153 175 0
161 182 0
156 176 0
155 177 0
161 181 0
156 177 0
153 173 0
155 178 0
161 183 0
159 181 0
163 184 0
160 181 0
158 179 0
159 179 0
158 179 0
157 178 0
158 180 0
161 183 0
165 185 0
161 183 0
158 179 0
160 181 0
164 186 0
164 186 0
161 184 0
166 187 0
160 181 0
165 186 0
163 184 0
160 181 0
159 180 0
158 180 0
157 178 0
165 187 0
158 180 0
159 178 0
163 183 0
163 184 0
161 181 0
157 177 0
163 186 0
160 181 0
162 185 0
164 187 0
160 180 0
153 174 0
164 187 0
159 178 0
163 185 0
167 189 0
163 185 0
160 182 0
167 190 0
166 189 0
166 187 0
165 186 0
165 187 0
165 187 0
165 187 0
164 185 0
166 187 0
165 185 0
166 187 0
164 186 0
163 185 0
164 185 0
163 183 0
166 188 0
167 188 0
164 186 0
163 185 0
162 183 0
162 183 0
167 190 0
163 185 0
167 189 0
164 187 0
164 186 0
163 184 0
161 182 0
167 190 0
168 189 0
162 183 0
167 190 0
167 190 0
168 190 0
165 187 0
165 186 0
159 181 0
165 189 0
165 189 0
166 190 0
162 186 0
169 193 0
169 192 0
166 190 0
166 189 0
171 193 0
167 190 0
164 186 0
167 190 0
168 191 0
166 189 0
163 186 0
163 187 0
167 190 0
164 188 0
165 188 0
159 182 0
163 187 0
161 185 0
166 188 0
165 188 0
162 185 0
164 187 0
167 189 0
165 188 0
164 188 0
165 189 0
167 191 0
165 187 0
169 192 0
166 190 0
164 186 0
162 185 0
167 189 0
161 184 0
162 184 0
169 190 0
161 184 0
167 190 0
164 187 0
160 183 0
161 183 0
158 181 0
162 186 0
154 176 0
160 182 0
158 180 0
161 184 0
165 187 0
158 180 0
159 181 0
159 181 0
154 177 0
159 181 0
157 179 0
156 179 0
155 178 0
159 181 0
160 182 0
157 180 0
159 182 0
159 182 0
154 176 0
160 183 0
155 176 0
150 172 0
152 174 0
151 173 0
154 175 0
160 181 0
156 178 0
162 184 0
155 176 0
153 174 0
153 174 0
151 173 0
152 175 0
150 172 0
158 180 0
159 181 0
152 173 0
148 170 0
145 166 0
154 177 0
153 174 0
158 179 0
151 172 0
151 172 0
150 172 0
141 162 0
146 167 0
151 172 0
149 169 0
141 161 0
154 176 0
145 166 0
142 164 0
146 168 0
144 165 0
154 175 0
138 160 0
152 173 0
137 157 0
146 167 0
143 164 0
142 162 0
148 169 0
145 165 0
141 161 0
141 161 0
138 159 0
138 159 0
130 151 0
135 156 0
144 165 0
142 162 0
140 161 0
142 162 0
135 156 0
142 162 0
142 162 0
143 164 0
140 161 0
141 162 0
144 165 0
147 168 0
142 164 0
144 165 0
143 165 0
145 168 0
143 165 0
152 172 0
150 171 0
146 167 0
145 166 0
139 159 0
142 165 0
137 158 0
150 171 0
147 168 0
139 159 0
149 171 0
140 160 0
131 151 0
138 159 0
139 160 0
143 164 0
134 154 0
133 154 0
142 163 0
128 148 0
132 153 0
131 152 0
130 150 0
129 149 0
127 147 0
128 148 0
129 150 0
133 152 0
125 145 0
120 139 0
137 157 0
126 146 0
131 150 0
129 150 0
131 151 0
136 157 0
136 157 0
125 145 0
131 151 0
135 156 0
126 147 0
128 148 0
118 138 0
132 152 0
139 160 0
122 142 0
129 149 0
126 147 0
132 153 0
134 153 0
127 147 0
134 155 0
132 151 0
128 149 0
137 158 0
120 140 0
130 150 0
121 141 0
136 157 0
133 153 0
134 155 0
136 155 0
125 145 0
132 152 0
126 147 0
135 156 0
139 159 0
138 159 0
128 148 0
136 157 0
133 155 0
143 164 0
135 156 0
122 142 0
144 164 0
142 162 0
133 153 0
134 154 0
142 161 0
132 151 0
140 160 0
141 163 0
130 151 0
143 163 0
134 154 0
126 146 0
138 158 0
141 161 0
138 158 0
138 158 0
137 157 0
131 152 0
145 166 0
145 166 0
134 155 0
143 163 0
137 157 0
143 162 0
139 158 0
140 161 0
133 154 0
135 156 0
135 156 0
138 158 0
146 166 0
141 162 0
153 174 0
144 163 0
140 160 0
140 160 0
144 165 0
141 161 0
149 170 0
153 174 0
142 161 0
143 164 0
136 157 0
152 171 0
147 168 0
145 165 0
144 166 0
154 176 0
147 167 0
142 163 0
150 172 0
143 163 0
146 169 0
144 165 0
149 170 0
140 163 0
149 170 0
152 173 0
145 168 0
147 168 0
148 169 0
143 164 0
149 170 0
156 178 0
152 174 0
148 169 0
148 169 0
154 176 0
153 174 0
151 172 0
148 170 0
157 178 0
152 173 0
154 175 0
150 172 0
158 180 0
158 179 0
152 174 0
159 181 0
151 172 0
157 179 0
151 173 0
155 175 0
148 169 0
150 171 0
154 175 0
160 183 0
143 164 0
157 178 0
152 174 0
160 180 0
155 176 0
153 175 0
162 183 0
158 178 0
152 175 0
159 181 0
164 187 0
160 181 0
159 181 0
159 181 0
158 180 0
156 178 0
159 181 0
156 179 0
158 179 0
162 185 0
159 179 0
164 185 0
158 179 0
155 176 0
157 177 0
159 181 0
159 182 0
160 180 0
162 182 0
158 180 0
161 183 0
159 180 0
160 181 0
158 180 0
159 181 0
162 186 0
165 185 0
163 183 0
162 184 0
159 181 0
155 176 0
162 183 0
165 187 0
162 183 0
159 181 0
160 180 0
161 184 0
166 189 0
163 182 0
167 188 0
165 186 0
163 187 0
166 188 0
162 184 0
162 185 0
164 187 0
168 190 0
162 185 0
161 183 0
164 184 0
164 187 0
164 186 0
160 182 0
161 181 0
166 187 0
165 187 0
165 185 0
165 186 0
164 186 0
166 188 0
164 184 0
163 183 0
167 189 0
163 184 0
163 186 0
159 179 0
162 184 0
166 189 0
166 190 0
163 184 0
166 187 0
163 185 0
162 183 0
165 187 0
166 187 0
165 186 0
165 186 0
166 188 0
162 184 0
167 189 0
163 186 0
170 193 0
166 190 0
167 188 0
167 188 0
164 184 0
168 191 0
163 186 0
167 189 0
169 191 0
170 192 0
167 189 0
164 187 0
168 189 0
166 188 0
168 191 0
167 191 0
163 186 0
169 191 0
167 190 0
163 187 0
168 191 0
165 189 0
165 187 0
161 185 0
162 186 0
165 188 0
162 185 0
165 189 0
162 186 0
167 191 0
168 190 0
165 188 0
166 189 0
165 189 0
164 187 0
165 188 0
168 191 0
164 187 0
169 192 0
162 185 0
165 188 0
167 189 0
161 184 0
165 187 0
167 190 0
160 183 0
164 187 0
158 181 0
164 187 0
161 183 0
156 178 0
162 185 0
158 181 0
160 183 0
161 184 0
165 188 0
159 182 0
160 183 0
159 181 0
160 182 0
160 182 0
160 182 0
156 178 0
159 181 0
153 175 0
169 192 0
160 182 0
158 181 0
162 184 0
144 167 0
159 181 0
157 179 0
162 184 0
154 176 0
161 184 0
153 176 0
164 186 0
155 178 0
153 175 0
151 174 0
149 171 0
157 179 0
158 180 0
149 171 0
158 180 0
153 175 0
158 180 0
161 183 0
154 176 0
149 171 0
153 175 0
159 181 0
151 173 0
143 164 0
157 178 0
150 171 0
152 173 0
154 175 0
140 163 0
144 166 0
151 172 0
143 165 0
151 173 0
149 171 0
148 169 0
155 176 0
154 175 0
150 172 0
151 172 0
147 169 0
151 172 0
147 168 0
136 158 0
142 164 0
149 171 0
139 160 0
158 180 0
144 165 0
147 168 0
144 166 0
149 170 0
141 162 0
143 165 0
147 167 0
135 156 0
144 164 0
135 156 0
138 159 0
140 162 0
135 157 0
129 151 0
135 156 0
127 148 0
141 162 0
138 159 0
136 157 0
135 156 0
146 167 0
144 165 0
141 163 0
138 160 0
151 172 0
147 168 0
151 172 0
144 166 0
140 161 0
150 173 0
150 172 0
146 167 0
148 169 0
150 172 0
143 165 0
150 171 0
147 168 0
146 169 0
143 165 0
143 163 0
142 162 0
143 164 0
142 161 0
141 162 0
136 158 0
142 163 0
138 159 0
142 162 0
128 148 0
128 151 0
133 153 0
128 149 0
138 159 0
143 163 0
135 155 0
133 153 0
132 152 0
134 155 0
129 149 0
128 148 0
132 152 0
140 160 0
137 157 0
136 156 0
135 155 0
141 161 0
123 143 0
140 160 0
128 148 0
136 156 0
136 156 0
133 152 0
129 149 0
136 157 0
139 159 0
146 165 0
129 149 0
134 154 0
120 140 0
129 149 0
134 154 0
124 143 0
114 135 0
132 152 0
132 152 0
136 156 0
136 156 0
126 146 0
141 162 0
141 162 0
117 138 0
135 155 0
133 153 0
130 149 0
118 138 0
130 150 0
130 152 0
133 154 0
129 149 0
141 162 0
142 162 0
133 154 0
129 150 0
138 159 0
133 152 0
127 147 0
136 157 0
120 139 0
137 157 0
145 167 0
139 160 0
138 159 0
132 152 0
128 150 0
129 148 0
138 159 0
136 157 0
137 158 0
143 163 0
132 153 0
144 164 0
134 155 0
143 164 0
124 144 0
137 159 0
147 169 0
143 163 0
130 151 0
142 163 0
142 162 0
148 170 0
149 171 0
142 164 0
136 156 0
147 168 0
143 162 0
141 161 0
143 164 0
147 168 0
143 164 0
143 164 0
140 161 0
144 165 0
146 166 0
149 170 0
143 165 0
142 162 0
154 176 0
140 162 0
157 178 0
148 169 0
142 162 0
151 171 0
150 172 0
147 168 0
146 169 0
150 171 0
151 172 0
156 178 0
157 179 0
155 175 0
138 158 0
152 172 0
145 165 0
147 167 0
151 171 0
152 172 0
150 172 0
155 178 0
143 165 0
153 175 0
151 173 0
149 169 0
146 169 0
155 175 0
152 172 0
155 177 0
156 177 0
147 169 0
154 176 0
156 177 0
158 181 0
149 170 0
156 178 0
158 179 0
141 162 0
153 173 0
157 178 0
153 175 0
156 177 0
157 179 0
156 177 0
157 180 0
152 175 0
153 175 0
144 166 0
155 178 0
161 183 0
152 172 0
164 184 0
156 176 0
154 174 0
154 175 0
160 180 0
161 182 0
157 179 0
156 178 0
165 186 0
158 179 0
163 184 0
164 185 0
159 181 0
159 181 0
156 178 0
157 178 0
153 175 0
161 180 0
157 178 0
159 181 0
157 179 0
153 175 0
158 179 0
160 181 0
165 187 0
159 181 0
159 179 0
165 187 0
164 188 0
159 180 0
164 185 0
159 180 0
158 179 0
160 183 0
161 182 0
158 179 0
164 186 0
162 183 0
167 190 0
154 175 0
162 183 0
161 183 0
165 188 0
157 178 0
163 186 0
163 185 0
162 184 0
165 186 0
162 185 0
163 185 0
164 186 0
164 186 0
163 183 0
167 188 0
164 185 0
167 190 0
160 182 0
165 188 0
166 188 0
158 178 0
166 187 0
164 186 0
166 187 0
165 188 0
163 184 0
160 183 0
159 180 0
161 184 0
165 186 0
165 188 0
169 192 0
161 182 0
160 182 0
164 187 0
165 187 0
166 189 0
163 185 0
164 184 0
171 193 0
164 187 0
171 192 0
167 190 0
165 186 0
169 192 0
168 190 0
161 184 0
171 192 0
168 190 0
164 187 0
163 185 0
166 188 0
165 188 0
162 182 0
166 187 0
167 188 0
166 188 0
169 191 0
166 189 0
168 191 0
170 194 0
162 186 0
170 192 0
168 192 0
168 192 0
164 188 0
171 194 0
169 192 0
163 186 0
159 183 0
164 187 0
170 192 0
170 193 0
166 189 0
165 188 0
168 191 0
165 188 0
168 190 0
166 189 0
163 186 0
169 191 0
166 189 0
167 190 0
165 188 0
165 188 0
167 189 0
163 185 0
160 184 0
163 186 0
164 186 0
161 184 0
168 191 0
162 185 0
161 184 0
164 186 0
158 181 0
166 190 0
160 183 0
163 186 0
164 186 0
159 182 0
168 191 0
155 178 0
163 185 0
160 183 0
157 179 0
160 182 0
162 185 0
160 183 0
157 179 0
161 184 0
159 182 0
162 185 0
159 181 0
164 186 0
160 182 0
164 187 0
154 175 0
150 173 0
156 178 0
161 183 0
160 182 0
159 181 0
151 173 0
162 183 0
159 182 0
155 176 0
155 177 0
155 178 0
148 169 0
160 182 0
149 172 0
163 186 0
160 181 0
161 184 0
148 171 0
147 169 0
153 174 0
155 177 0
151 172 0
151 174 0
151 174 0
154 176 0
154 176 0
144 165 0
155 177 0
143 165 0
148 170 0
148 170 0
157 178 0
145 167 0
150 172 0
152 173 0
145 166 0
144 166 0
145 167 0
152 173 0
148 169 0
150 171 0
146 167 0
141 162 0
149 170 0
141 163 0
144 165 0
151 173 0
146 167 0
136 158 0
144 166 0
143 164 0
145 167 0
145 166 0
142 162 0
143 165 0
148 169 0
138 159 0
141 162 0
142 163 0
153 173 0
140 162 0
135 156 0
137 157 0
137 158 0
152 173 0
143 164 0
142 164 0
137 157 0
143 165 0
146 168 0
148 169 0
140 162 0
143 165 0
146 166 0
143 165 0
150 171 0
148 169 0
151 173 0
149 170 0
153 174 0
141 162 0
145 167 0
141 163 0
147 169 0
141 162 0
140 161 0
144 166 0
128 149 0
132 152 0
144 164 0
140 162 0
136 157 0
138 159 0
132 153 0
140 161 0
137 158 0
134 155 0
133 153 0
131 151 0
133 155 0
131 152 0
120 141 0
132 152 0
135 156 0
136 156 0
124 143 0
133 154 0
141 162 0
135 155 0
129 150 0
138 158 0
134 154 0
133 153 0
129 149 0
131 152 0
133 152 0
124 144 0
125 146 0
122 142 0
138 157 0
132 153 0
145 165 0
132 152 0
124 146 0
127 147 0
131 151 0
130 150 0
141 162 0
124 143 0
132 151 0
138 160 0
128 148 0
125 147 0
128 149 0
133 154 0
135 155 0
133 153 0
140 162 0
135 155 0
136 156 0
141 163 0
132 153 0
135 157 0
132 153 0
130 150 0
132 153 0
135 156 0
138 159 0
128 147 0
141 162 0
137 158 0
142 162 0
134 155 0
135 156 0
134 154 0
133 153 0
129 148 0
134 156 0
134 156 0
144 166 0
143 165 0
135 154 0
140 161 0
140 159 0
145 166 0
137 156 0
141 163 0
140 162 0
133 153 0
142 161 0
145 165 0
147 169 0
143 164 0
134 155 0
140 161 0
141 163 0
147 169 0
144 165 0
151 171 0
141 161 0
148 168 0
144 166 0
139 160 0
142 163 0
142 163 0
150 171 0
143 164 0
153 173 0
149 169 0
143 165 0
143 164 0
150 170 0
156 178 0
149 172 0
145 165 0
156 177 0
144 166 0
143 163 0
154 175 0
147 168 0
147 167 0
146 167 0
158 181 0
147 169 0
150 171 0
155 176 0
150 172 0
158 180 0
153 174 0
148 169 0
153 174 0
144 166 0
157 178 0
149 170 0
143 164 0
149 169 0
151 172 0
160 181 0
150 172 0
149 169 0
155 177 0
152 174 0
156 178 0
153 175 0
159 182 0
157 179 0
149 170 0
153 176 0
154 176 0
155 178 0
158 180 0
157 178 0
157 178 0
149 171 0
155 176 0
158 179 0
158 180 0
157 178 0
155 177 0
154 175 0
161 182 0
157 179 0
157 178 0
153 175 0
159 180 0
152 172 0
155 177 0
161 183 0
158 180 0
152 174 0
155 175 0
161 183 0
159 182 0
158 180 0
160 181 0
162 184 0
166 187 0
159 181 0
164 185 0
158 181 0
158 179 0
159 180 0
162 181 0
158 180 0
158 179 0
156 177 0
160 181 0
165 187 0
159 179 0
160 182 0
164 186 0
165 187 0
162 184 0
160 183 0
163 183 0
161 183 0
165 187 0
161 182 0
160 183 0
164 186 0
163 184 0
157 178 0
167 190 0
161 182 0
162 182 0
168 189 0
160 181 0
165 186 0
160 181 0
155 176 0
165 187 0
158 179 0
165 186 0
164 186 0
159 181 0
165 184 0
161 183 0
164 187 0
166 187 0
159 181 0
165 187 0
162 183 0
165 186 0
160 182 0
163 184 0
162 184 0
160 181 0
165 189 0
162 184 0
163 185 0
160 183 0
167 189 0
162 184 0
170 192 0
162 186 0
167 189 0
166 188 0
170 193 0
163 184 0
168 190 0
164 186 0
167 190 0
168 190 0
168 191 0
168 189 0
166 189 0
168 191 0
166 188 0
166 187 0
168 189 0
171 195 0
164 185 0
167 189 0
167 189 0
166 188 0
165 188 0
170 192 0
161 184 0
165 187 0
169 191 0
165 186 0
166 189 0
164 187 0
167 191 0
165 188 0
168 192 0
165 188 0
164 187 0
170 193 0
164 187 0
167 190 0
170 193 0
167 191 0
167 191 0
164 187 0
165 189 0
161 185 0
167 191 0
169 192 0
168 192 0
167 190 0
165 187 0
165 188 0
159 182 0
167 190 0
164 187 0
164 188 0
165 188 0
166 189 0
167 190 0
160 183 0
165 188 0
169 192 0
160 183 0
161 185 0
162 186 0
163 186 0
165 187 0
165 188 0
165 187 0
167 190 0
157 180 0
166 189 0
162 184 0
159 182 0
160 183 0
157 180 0
157 180 0
166 189 0
164 186 0
161 184 0
161 183 0
161 183 0
156 180 0
159 181 0
159 181 0
159 181 0
158 179 0
163 186 0
150 172 0
160 182 0
157 179 0
163 185 0
154 177 0
156 177 0
152 174 0
162 184 0
155 178 0
158 180 0
153 176 0
150 171 0
158 180 0
158 179 0
151 174 0
161 183 0
158 180 0
153 175 0
156 178 0
153 175 0
148 170 0
154 176 0
144 166 0
148 170 0
157 178 0
156 177 0
157 178 0
149 171 0
153 175 0
148 170 0
149 170 0
152 174 0
145 167 0
152 173 0
143 164 0
154 175 0
151 174 0
156 177 0
156 178 0
147 169 0
149 171 0
150 172 0
151 173 0
150 173 0
153 175 0
142 163 0
143 165 0
149 171 0
147 169 0
146 167 0
150 171 0
145 167 0
144 166 0
143 165 0
146 166 0
139 160 0
144 166 0
141 162 0
146 168 0
134 155 0
146 167 0
149 170 0
135 157 0
145 167 0
144 165 0
147 169 0
144 165 0
141 162 0
142 162 0
133 154 0
142 164 0
142 164 0
150 172 0
155 177 0
151 173 0
146 168 0
147 169 0
149 171 0
144 165 0
156 175 0
151 173 0
154 176 0
147 170 0
145 166 0
143 164 0
144 166 0
136 156 0
135 157 0
144 165 0
147 168 0
143 164 0
145 166 0
143 164 0
134 155 0
137 158 0
141 161 0
144 164 0
137 158 0
130 150 0
134 155 0
133 154 0
137 158 0
130 150 0
141 162 0
137 157 0
127 147 0
127 148 0
127 147 0
131 150 0
134 155 0
137 158 0
132 153 0
135 156 0
121 140 0
119 140 0
138 158 0
138 159 0
135 156 0
134 155 0
133 154 0
137 158 0
131 152 0
136 156 0
140 160 0
136 156 0
141 161 0
134 155 0
132 152 0
127 147 0
136 157 0
142 162 0
127 147 0
134 154 0
137 158 0
130 150 0
139 160 0
135 155 0
136 156 0
141 163 0
138 158 0
135 156 0
144 165 0
141 162 0
136 155 0
136 156 0
138 158 0
138 158 0
139 160 0
134 156 0
143 163 0
144 165 0
132 152 0
151 173 0
140 161 0
149 171 0
144 166 0
141 162 0
138 159 0
146 167 0
141 163 0
134 156 0
131 152 0
139 159 0
131 151 0
130 150 0
147 168 0
130 150 0
138 160 0
139 160 0
144 165 0
147 168 0
143 164 0
148 169 0
150 173 0
140 162 0
146 167 0
146 166 0
142 163 0
134 154 0
142 163 0
147 168 0
144 165 0
146 167 0
147 168 0
147 168 0
153 174 0
150 172 0
146 168 0
143 165 0
143 165 0
137 159 0
144 166 0
154 175 0
147 167 0
145 167 0
146 167 0
143 164 0
147 168 0
141 163 0
154 174 0
150 172 0
149 170 0
152 173 0
147 169 0
154 175 0
149 170 0
139 160 0
154 177 0
150 172 0
144 165 0
146 168 0
150 172 0
160 182 0
143 163 0
155 176 0
151 174 0
147 168 0
144 165 0
151 173 0
155 178 0
149 169 0
152 174 0
151 171 0
153 175 0
151 172 0
158 179 0
149 171 0
152 174 0
153 175 0
156 178 0
152 174 0
157 179 0
157 179 0
157 179 0
155 177 0
154 175 0
150 171 0
157 179 0
158 180 0
159 181 0
153 174 0
153 175 0
154 174 0
153 172 0
150 172 0
153 174 0
153 176 0
159 179 0
155 177 0
157 178 0
153 174 0
154 174 0
157 178 0
157 178 0
160 181 0
152 173 0
157 179 0
158 181 0
159 182 0
166 188 0
164 185 0
161 183 0
151 172 0
160 182 0
165 185 0
163 186 0
161 183 0
160 181 0
163 184 0
161 183 0
154 175 0
161 182 0
164 186 0
160 181 0
165 188 0
161 182 0
163 184 0
164 183 0
158 180 0
164 186 0
162 185 0
159 181 0
162 183 0
161 183 0
158 177 0
166 187 0
167 189 0
162 184 0
159 180 0
164 185 0
166 188 0
163 185 0
164 186 0
165 186 0
166 188 0
168 189 0
158 179 0
164 186 0
163 184 0
164 185 0
166 188 0
166 188 0
165 188 0
169 192 0
166 189 0
167 189 0
164 186 0
169 191 0
167 189 0
164 187 0
165 187 0
167 187 0
166 188 0
170 192 0
165 186 0
166 187 0
163 184 0
166 189 0
159 181 0
166 189 0
170 193 0
164 185 0
166 187 0
167 189 0
168 191 0
167 190 0
170 193 0
165 187 0
168 190 0
165 188 0
170 190 0
167 187 0
168 191 0
167 190 0
169 191 0
168 190 0
167 189 0
168 190 0
167 190 0
163 186 0
169 191 0
170 191 0
168 191 0
170 193 0
165 189 0
166 190 0
168 190 0
170 192 0
167 191 0
168 191 0
163 186 0
167 190 0
168 192 0
168 191 0
174 196 0
164 186 0
164 187 0
166 190 0
163 187 0
165 188 0
163 187 0
166 190 0
166 189 0
158 182 0
162 184 0
167 190 0
165 187 0
163 185 0
164 187 0
161 183 0
169 192 0
157 180 0
162 185 0
163 186 0
171 194 0
162 184 0
158 181 0
157 179 0
166 188 0
164 187 0
169 191 0
162 184 0
163 186 0
160 182 0
163 186 0
155 177 0
166 188 0
164 186 0
160 183 0
156 178 0
166 188 0
153 176 0
163 186 0
161 184 0
153 175 0
156 178 0
160 181 0
161 183 0
159 182 0
156 179 0
165 187 0
157 179 0
153 175 0
160 182 0
152 175 0
160 182 0
154 176 0
155 177 0
160 181 0
155 177 0
160 182 0
150 172 0
156 178 0
154 175 0
159 181 0
152 175 0
156 177 0
154 177 0
151 173 0
158 179 0
154 177 0
152 174 0
157 179 0
147 169 0
151 174 0
142 163 0
158 179 0
149 170 0
151 172 0
152 173 0
161 182 0
152 173 0
150 171 0
146 167 0
155 175 0
144 165 0
151 172 0
152 174 0
153 175 0
152 174 0
144 167 0
156 178 0
155 176 0
148 171 0
146 168 0
140 162 0
143 163 0
146 168 0
145 167 0
153 175 0
139 160 0
142 163 0
139 161 0
143 165 0
144 165 0
148 170 0
137 158 0
147 168 0
149 170 0
142 163 0
138 159 0
129 151 0
138 159 0
147 168 0
140 162 0
143 164 0
136 158 0
150 172 0
149 170 0
146 167 0
146 169 0
147 169 0
147 168 0
152 174 0
147 169 0
152 174 0
149 171 0
152 174 0
150 173 0
153 175 0
154 175 0
157 179 0
150 171 0
139 160 0
150 172 0
144 166 0
148 170 0
150 171 0
138 161 0
139 160 0
135 157 0
140 160 0
137 158 0
133 153 0
138 160 0
145 166 0
135 156 0
139 160 0
141 162 0
136 156 0
144 165 0
135 154 0
132 153 0
134 154 0
130 150 0
141 163 0
137 158 0
129 149 0
136 157 0
129 148 0
131 151 0
144 165 0
134 154 0
132 152 0
143 164 0
145 165 0
136 157 0
133 154 0
138 159 0
134 154 0
130 151 0
133 154 0
125 146 0
133 153 0
139 159 0
140 161 0
135 155 0
138 159 0
138 159 0
134 155 0
136 156 0
132 153 0
130 148 0
131 153 0
129 150 0
141 162 0
136 157 0
129 148 0
137 158 0
125 146 0
138 160 0
132 153 0
133 153 0
130 151 0
136 155 0
134 154 0
135 156 0
131 152 0
140 161 0
142 162 0
146 166 0
138 159 0
136 157 0
143 165 0
133 155 0
138 158 0
142 162 0
144 164 0
141 161 0
139 160 0
128 149 0
146 167 0
140 160 0
136 157 0
144 165 0
138 160 0
130 151 0
144 165 0
139 159 0
131 153 0
140 162 0
145 165 0
153 174 0
138 159 0
142 164 0
145 166 0
142 163 0
155 177 0
148 169 0
145 166 0
155 178 0
149 171 0
145 166 0
145 167 0
149 171 0
142 162 0
155 178 0
144 166 0
155 177 0
147 169 0
143 165 0
148 169 0
153 175 0
149 171 0
154 175 0
155 177 0
138 158 0
144 166 0
159 182 0
141 162 0
155 175 0
161 182 0
152 172 0
146 168 0
153 175 0
142 164 0
152 174 0
149 170 0
141 163 0
156 178 0
152 172 0
155 177 0
153 173 0
144 166 0
158 179 0
152 173 0
147 168 0
150 173 0
151 172 0
151 172 0
163 185 0
151 172 0
149 170 0
154 176 0
154 177 0
151 172 0
156 178 0
152 174 0
153 175 0
152 173 0
156 179 0
158 179 0
149 169 0
153 175 0
156 178 0
155 176 0
157 178 0
160 182 0
156 178 0
152 174 0
157 179 0
158 178 0
151 172 0
159 180 0
159 180 0
153 174 0
157 180 0
157 178 0
161 182 0
155 176 0
156 178 0
154 178 0
162 184 0
160 180 0
165 188 0
160 182 0
159 181 0
160 182 0
158 180 0
159 181 0
161 183 0
159 180 0
159 180 0
160 182 0
161 184 0
156 178 0
157 179 0
158 181 0
158 181 0
156 177 0
164 186 0
159 180 0
160 182 0
166 187 0
162 183 0
166 186 0
164 183 0
157 180 0
159 180 0
162 185 0
160 184 0
161 184 0
164 185 0
160 181 0
165 188 0
166 189 0
162 182 0
159 181 0
164 185 0
164 185 0
164 188 0
161 184 0
166 189 0
168 191 0
161 184 0
166 187 0
163 183 0
160 181 0
161 181 0
167 189 0
165 187 0
166 188 0
166 189 0
165 187 0
161 182 0
159 180 0
167 189 0
164 186 0
164 187 0
165 187 0
160 182 0
166 186 0
167 190 0
164 185 0
170 194 0
162 183 0
165 189 0
160 183 0
166 189 0
166 186 0
169 191 0
164 186 0
162 185 0
167 189 0
168 191 0
167 190 0
166 189 0
167 190 0
170 191 0
166 188 0
162 184 0
164 185 0
169 192 0
174 197 0
164 187 0
166 188 0
167 189 0
167 188 0
169 191 0
168 190 0
164 187 0
168 190 0
166 189 0
167 190 0
169 192 0
167 191 0
166 189 0
171 194 0
170 193 0
160 184 0
165 188 0
163 186 0
163 187 0
165 188 0
164 187 0
168 191 0
165 187 0
160 183 0
170 192 0
164 187 0
160 184 0
165 189 0
158 182 0
169 193 0
166 189 0
164 187 0
168 191 0
164 187 0
162 186 0
167 190 0
164 188 0
163 185 0
168 192 0
160 182 0
164 187 0
169 191 0
160 183 0
166 189 0
161 184 0
161 183 0
160 183 0
157 180 0
164 186 0
161 183 0
160 182 0
154 177 0
166 188 0
163 186 0
162 186 0
163 186 0
163 185 0
152 173 0
157 180 0
164 187 0
152 174 0
165 187 0
162 184 0
161 183 0
161 183 0
159 180 0
161 184 0
158 179 0
157 179 0
160 183 0
155 178 0
155 177 0
156 179 0
153 175 0
156 178 0
161 184 0
158 179 0
162 183 0
158 181 0
155 178 0
156 179 0
154 175 0
151 173 0
151 173 0
153 174 0
165 187 0
154 176 0
158 180 0
151 172 0
153 175 0
147 168 0
154 177 0
150 171 0
146 168 0
150 172 0
151 172 0
151 173 0
147 169 0
155 177 0
150 171 0
149 171 0
138 160 0
154 175 0
138 159 0
151 172 0
148 169 0
149 171 0
148 169 0
150 173 0
150 170 0
149 171 0
150 171 0
150 171 0
149 171 0
145 167 0
151 171 0
152 173 0
146 167 0
141 161 0
143 165 0
149 171 0
141 162 0
152 173 0
143 165 0
137 158 0
137 157 0
146 168 0
133 154 0
139 161 0
137 158 0
143 165 0
139 160 0
141 162 0
138 160 0
152 175 0
152 173 0
143 165 0
148 169 0
148 170 0
145 166 0
150 173 0
154 175 0
144 166 0
148 171 0
154 177 0
148 171 0
154 175 0
153 174 0
153 175 0
154 176 0
141 161 0
148 170 0
146 167 0
140 162 0
140 160 0
146 166 0
139 161 0
144 165 0
135 157 0
145 165 0
143 164 0
138 159 0
143 165 0
146 168 0
133 154 0
141 162 0
139 159 0
141 162 0
128 149 0
129 149 0
130 151 0
141 161 0
140 161 0
129 150 0
135 155 0
144 164 0
137 157 0
131 152 0
141 161 0
130 151 0
133 154 0
129 150 0
134 154 0
136 157 0
131 152 0
135 156 0
133 155 0
129 149 0
133 153 0
142 162 0
136 157 0
134 155 0
135 156 0
138 158 0
135 155 0
125 145 0
137 158 0
140 159 0
139 159 0
124 144 0
136 156 0
140 161 0
131 152 0
139 161 0
135 156 0
143 164 0
133 154 0
135 156 0
135 157 0
138 159 0
139 159 0
140 160 0
126 147 0
147 168 0
144 167 0
135 155 0
137 157 0
126 147 0
139 161 0
139 160 0
134 154 0
142 162 0
139 161 0
138 158 0
152 172 0
126 147 0
142 162 0
134 155 0
133 154 0
145 165 0
144 165 0
132 153 0
140 161 0
150 172 0
145 165 0
140 162 0
142 164 0
141 163 0
141 163 0
141 162 0
132 154 0
154 177 0
151 173 0
151 173 0
150 172 0
141 164 0
145 167 0
149 171 0
143 164 0
142 164 0
139 159 0
148 170 0
146 168 0
152 174 0
144 165 0
153 173 0
151 173 0
149 171 0
154 177 0
155 176 0
150 173 0
150 171 0
142 164 0
147 169 0
147 169 0
144 165 0
139 162 0
159 182 0
137 158 0
150 171 0
151 172 0
153 174 0
162 183 0
149 170 0
141 162 0
148 170 0
160 181 0
152 174 0
151 171 0
145 166 0
149 171 0
152 174 0
159 182 0
151 173 0
153 174 0
158 180 0
152 174 0
154 177 0
154 173 0
152 172 0
157 179 0
154 176 0
150 172 0
155 177 0
152 174 0
156 177 0
154 176 0
155 178 0
154 175 0
156 178 0
157 177 0
156 178 0
152 174 0
158 179 0
154 177 0
156 179 0
162 183 0
154 175 0
161 183 0
159 180 0
152 173 0
156 178 0
157 179 0
156 178 0
165 188 0
162 185 0
157 180 0
162 184 0
159 179 0
162 184 0
159 181 0
157 177 0
160 181 0
146 166 0
159 180 0
159 181 0
159 181 0
156 178 0
162 184 0
167 188 0
162 185 0
159 181 0
159 181 0
161 182 0
159 180 0
156 177 0
163 186 0
157 178 0
157 180 0
161 183 0
158 181 0
160 182 0
163 186 0
161 183 0
157 179 0
168 189 0
162 184 0
160 182 0
160 183 0
157 177 0
162 184 0
162 184 0
162 183 0
165 187 0
163 185 0
161 182 0
160 180 0
165 186 0
160 181 0
164 186 0
162 185 0
164 186 0
166 188 0
166 187 0
167 189 0
169 190 0
168 189 0
165 186 0
164 185 0
167 189 0
163 186 0
165 189 0
164 186 0
168 191 0
164 187 0
164 186 0
164 186 0
163 185 0
169 192 0
162 182 0
167 190 0
168 191 0
161 182 0
166 189 0
167 188 0
163 185 0
163 185 0
161 183 0
167 190 0
169 190 0
161 183 0
162 184 0
162 184 0
168 190 0
164 187 0
164 187 0
165 187 0
165 185 0
161 183 0
165 186 0
162 185 0
165 187 0
165 188 0
168 190 0
167 190 0
167 189 0
167 190 0
167 190 0
168 191 0
164 187 0
168 192 0
169 192 0
165 188 0
164 187 0
166 189 0
164 187 0
167 190 0
163 188 0
169 191 0
170 192 0
163 187 0
167 190 0
162 185 0
166 191 0
165 188 0
166 189 0
165 188 0
164 186 0
161 184 0
168 191 0
162 185 0
160 183 0
164 188 0
167 190 0
165 187 0
165 188 0
169 192 0
164 188 0
163 186 0
166 188 0
163 185 0
160 183 0
163 185 0
164 188 0
158 181 0
164 187 0
160 183 0
158 181 0
159 181 0
164 186 0
162 185 0
168 190 0
164 186 0
160 183 0
162 184 0
161 183 0
163 184 0
162 185 0
165 187 0
165 187 0
154 176 0
160 182 0
165 187 0
165 187 0
159 181 0
157 180 0
159 181 0
160 183 0
159 180 0
159 180 0
156 178 0
155 176 0
158 180 0
155 178 0
161 183 0
156 179 0
164 185 0
149 172 0
157 179 0
155 176 0
155 177 0
158 180 0
153 175 0
149 171 0
159 181 0
150 172 0
160 182 0
148 171 0
151 172 0
152 174 0
154 176 0
153 174 0
148 169 0
152 173 0
149 170 0
155 176 0
149 170 0
142 165 0
154 175 0
145 167 0
154 175 0
153 174 0
147 168 0
161 183 0
147 168 0
150 172 0
151 172 0
158 179 0
150 171 0
148 170 0
139 160 0
142 163 0
149 170 0
146 168 0
144 166 0
152 173 0
143 165 0
142 163 0
144 166 0
145 166 0
146 168 0
145 167 0
134 156 0
146 168 0
148 169 0
148 169 0
144 166 0
148 169 0
153 175 0
143 164 0
147 168 0
141 163 0
137 159 0
152 174 0
144 165 0
147 169 0
137 159 0
149 170 0
146 166 0
146 169 0
154 177 0
141 163 0
150 172 0
148 171 0
149 172 0
146 167 0
146 169 0
157 178 0
143 165 0
152 175 0
147 168 0
136 157 0
142 163 0
138 159 0
144 166 0
136 157 0
150 172 0
142 163 0
140 161 0
148 170 0
133 154 0
146 166 0
147 168 0
141 162 0
141 161 0
135 156 0
135 156 0
130 150 0
130 150 0
140 161 0
142 163 0
132 154 0
140 161 0
135 156 0
137 157 0
139 160 0
138 159 0
142 162 0
136 157 0
147 168 0
139 159 0
137 157 0
132 153 0
142 164 0
131 152 0
132 151 0
142 163 0
136 157 0
127 147 0
125 146 0
140 161 0
131 152 0
136 156 0
139 160 0
144 165 0
140 161 0
126 145 0
137 158 0
133 154 0
136 157 0
140 160 0
133 154 0
138 159 0
135 156 0
143 164 0
128 149 0
134 154 0
131 151 0
136 157 0
145 167 0
128 148 0
137 158 0
149 168 0
136 157 0
134 154 0
141 162 0
138 160 0
143 163 0
137 158 0
139 160 0
138 159 0
148 168 0
147 168 0
141 162 0
134 154 0
143 164 0
143 164 0
136 157 0
137 158 0
156 177 0
143 164 0
152 173 0
136 157 0
142 164 0
141 162 0
145 167 0
141 162 0
140 161 0
149 171 0
152 174 0
145 165 0
140 161 0
149 170 0
139 160 0
147 168 0
148 170 0
144 165 0
145 167 0
142 164 0
152 172 0
146 168 0
142 163 0
147 168 0
149 172 0
143 165 0
145 167 0
155 176 0
152 173 0
148 169 0
151 173 0
155 176 0
149 171 0
149 170 0
149 170 0
153 174 0
145 167 0
154 177 0
152 175 0
143 165 0
141 163 0
153 175 0
145 167 0
148 170 0
155 176 0
153 174 0
147 170 0
157 178 0
157 178 0
146 168 0
150 171 0
149 171 0
147 167 0
152 174 0
152 172 0
154 175 0
161 183 0
152 175 0
155 177 0
154 177 0
158 180 0
159 180 0
156 179 0
149 170 0
148 170 0
154 176 0
154 176 0
164 186 0
160 182 0
160 181 0
162 183 0
159 180 0
149 171 0
157 177 0
157 180 0
159 181 0
158 179 0
161 183 0
159 180 0
164 187 0
158 180 0
157 179 0
160 183 0
155 177 0
161 182 0
156 177 0
161 184 0
159 180 0
160 183 0
161 183 0
154 175 0
158 180 0
159 181 0
158 178 0
153 174 0
160 181 0
162 183 0
161 183 0
159 180 0
155 176 0
160 181 0
161 182 0
161 184 0
162 185 0
162 183 0
158 179 0
157 178 0
165 188 0
162 184 0
158 178 0
157 178 0
154 176 0
161 182 0
161 184 0
162 184 0
163 184 0
160 182 0
160 181 0
161 183 0
163 185 0
167 189 0
165 186 0
160 181 0
155 177 0
170 191 0
163 184 0
161 182 0
163 184 0
164 186 0
163 185 0
161 184 0
164 185 0
156 179 0
166 187 0
167 189 0
172 193 0
159 182 0
158 180 0
168 190 0
162 184 0
165 188 0
165 186 0
160 182 0
166 187 0
165 188 0
170 192 0
160 181 0
162 185 0
164 186 0
163 183 0
165 188 0
161 183 0
167 189 0
166 188 0
166 190 0
168 191 0
166 188 0
168 190 0
164 186 0
167 186 0
169 191 0
167 189 0
168 190 0
168 190 0
166 186 0
161 183 0
168 190 0
170 192 0
166 186 0
168 190 0
170 192 0
168 191 0
164 186 0
162 184 0
167 189 0
168 189 0
171 193 0
162 182 0
166 187 0
167 190 0
165 188 0
166 191 0
165 189 0
172 195 0
166 188 0
167 191 0
169 192 0
166 189 0
160 184 0
167 190 0
164 187 0
165 189 0
167 190 0
161 184 0
164 187 0
168 190 0
168 192 0
161 183 0
167 191 0
168 190 0
167 189 0
163 185 0
167 190 0
163 186 0
161 184 0
164 189 0
163 186 0
161 184 0
163 185 0
162 185 0
167 190 0
165 187 0
163 186 0
162 185 0
167 189 0
159 181 0
160 182 0
163 186 0
160 182 0
159 181 0
161 184 0
164 186 0
162 185 0
160 182 0
153 175 0
160 183 0
161 183 0
163 185 0
163 185 0
162 185 0
155 177 0
159 181 0
163 185 0
162 184 0
163 185 0
159 181 0
160 183 0
162 183 0
159 181 0
162 183 0
164 187 0
158 180 0
156 178 0
155 177 0
158 180 0
159 182 0
154 176 0
160 182 0
159 180 0
157 178 0
158 180 0
157 179 0
160 182 0
152 173 0
155 177 0
156 178 0
155 177 0
152 174 0
152 174 0
162 184 0
155 178 0
152 173 0
152 174 0
152 174 0
149 171 0
151 173 0
147 168 0
153 174 0
147 168 0
156 177 0
147 169 0
153 174 0
143 164 0
147 168 0
156 177 0
156 177 0
146 168 0
144 166 0
154 175 0
149 171 0
146 169 0
150 172 0
141 163 0
145 167 0
143 164 0
157 177 0
139 160 0
137 158 0
133 155 0
151 172 0
147 168 0
150 170 0
146 168 0
142 163 0
141 163 0
149 169 0
154 175 0
147 168 0
147 167 0
152 175 0
147 168 0
143 165 0
146 168 0
148 168 0
140 161 0
145 167 0
149 171 0
157 178 0
149 172 0
155 177 0
155 178 0
154 177 0
146 168 0
146 168 0
148 171 0
151 173 0
156 178 0
142 163 0
154 176 0
148 169 0
146 168 0
152 173 0
154 176 0
153 174 0
152 174 0
150 172 0
150 172 0
139 161 0
145 166 0
151 172 0
143 166 0
138 159 0
132 152 0
143 164 0
136 156 0
139 160 0
144 165 0
139 159 0
148 169 0
140 162 0
137 158 0
143 164 0
137 159 0
142 164 0
139 160 0
139 160 0
139 159 0
134 155 0
134 155 0
133 153 0
142 162 0
140 161 0
141 162 0
143 165 0
133 154 0
132 154 0
138 160 0
139 160 0
137 159 0
139 160 0
138 158 0
131 151 0
130 151 0
136 157 0
142 163 0
139 160 0
132 152 0
143 164 0
132 152 0
130 151 0
134 155 0
140 162 0
127 148 0
142 164 0
132 153 0
130 150 0
140 162 0
139 161 0
146 166 0
141 162 0
130 150 0
144 164 0
138 159 0
138 160 0
140 160 0
145 167 0
133 154 0
143 164 0
140 160 0
139 161 0
140 160 0
137 159 0
138 160 0
140 162 0
151 172 0
141 161 0
133 154 0
147 168 0
152 173 0
139 161 0
141 162 0
150 172 0
145 165 0
131 152 0
146 167 0
149 170 0
142 165 0
140 162 0
144 166 0
141 162 0
145 166 0
146 167 0
142 164 0
143 163 0
149 170 0
145 166 0
149 170 0
143 163 0
154 176 0
146 168 0
146 168 0
148 171 0
145 166 0
146 168 0
146 167 0
152 174 0
153 174 0
144 165 0
144 166 0
145 167 0
148 170 0
153 176 0
147 169 0
155 178 0
146 168 0
154 174 0
147 169 0
148 170 0
146 168 0
143 165 0
152 174 0
141 161 0
156 178 0
153 174 0
153 174 0
151 172 0
149 172 0
155 177 0
156 179 0
151 173 0
143 164 0
148 169 0
148 170 0
153 175 0
155 176 0
155 178 0
156 177 0
159 182 0
154 175 0
153 176 0
161 182 0
152 174 0
159 180 0
148 171 0
163 184 0
154 175 0
154 177 0
157 179 0
147 166 0
155 177 0
151 172 0
164 186 0
153 174 0
155 177 0
162 184 0
159 180 0
157 180 0
157 179 0
157 179 0
158 181 0
144 166 0
153 175 0
156 178 0
162 184 0
156 178 0
162 184 0
161 183 0
156 177 0
162 182 0
160 182 0
160 182 0
156 178 0
159 181 0
157 180 0
159 180 0
157 179 0
164 187 0
164 185 0
161 183 0
158 180 0
156 177 0
162 184 0
160 181 0
161 184 0
164 186 0
165 187 0
169 192 0
163 184 0
161 183 0
166 188 0
159 182 0
168 192 0
160 182 0
158 179 0
165 187 0
163 186 0
161 182 0
158 180 0
154 177 0
160 182 0
158 181 0
164 185 0
161 183 0
161 182 0
159 181 0
159 181 0
168 190 0
163 185 0
163 184 0
161 182 0
164 187 0
168 191 0
163 186 0
165 187 0
162 183 0
164 186 0
163 186 0
161 182 0
163 185 0
165 186 0
162 185 0
167 189 0
161 183 0
163 184 0
165 187 0
169 191 0
161 184 0
165 188 0
166 189 0
163 185 0
168 190 0
168 189 0
160 183 0
168 190 0
167 189 0
165 188 0
167 188 0
166 188 0
166 189 0
166 187 0
168 190 0
165 189 0
164 185 0
166 188 0
165 187 0
166 189 0
164 187 0
163 186 0
170 193 0
168 191 0
166 189 0
169 189 0
169 191 0
168 192 0
161 184 0
168 190 0
166 187 0
168 191 0
167 189 0
168 191 0
169 192 0
166 190 0
163 186 0
167 190 0
162 185 0
168 192 0
164 188 0
169 192 0
167 190 0
170 193 0
170 194 0
168 191 0
164 187 0
169 192 0
166 190 0
162 186 0
168 191 0
168 190 0
162 185 0
163 186 0
165 188 0
169 191 0
167 190 0
168 190 0
165 189 0
164 187 0
165 187 0
161 183 0
158 181 0
160 183 0
164 188 0
154 177 0
161 184 0
161 184 0
165 188 0
168 191 0
167 188 0
161 184 0
165 187 0
166 188 0
166 188 0
164 186 0
160 182 0
165 188 0
161 183 0
166 188 0
163 185 0
161 182 0
162 184 0
160 182 0
159 181 0
160 183 0
160 182 0
166 188 0
153 176 0
155 177 0
162 184 0
154 176 0
158 181 0
153 175 0
155 177 0
156 178 0
155 177 0
152 174 0
159 180 0
159 181 0
155 176 0
160 182 0
156 178 0
160 182 0
162 184 0
156 177 0
159 180 0
155 177 0
158 180 0
152 174 0
152 173 0
157 180 0
152 173 0
148 171 0
155 177 0
157 179 0
145 167 0
154 175 0
153 174 0
151 173 0
152 174 0
158 180 0
152 173 0
146 166 0
162 183 0
154 176 0
145 166 0
149 170 0
148 170 0
152 173 0
152 173 0
154 175 0
152 174 0
140 161 0
143 164 0
151 173 0
143 165 0
145 167 0
151 172 0
147 170 0
145 166 0
148 169 0
139 161 0
147 168 0
157 179 0
147 169 0
151 173 0
139 161 0
145 166 0
155 176 0
142 164 0
144 166 0
148 168 0
146 168 0
151 173 0
141 162 0
144 166 0
147 169 0
142 164 0
150 172 0
153 175 0
152 174 0
150 172 0
150 172 0
162 184 0
145 167 0
151 174 0
152 173 0
147 168 0
158 181 0
150 173 0
152 175 0
151 172 0
147 169 0
151 173 0
156 178 0
150 172 0
152 173 0
140 161 0
144 165 0
148 170 0
143 165 0
141 162 0
142 164 0
142 164 0
144 165 0
140 162 0
135 156 0
143 165 0
133 152 0
136 158 0
138 160 0
137 158 0
148 170 0
148 169 0
136 157 0
130 150 0
135 156 0
140 162 0
137 157 0
141 162 0
144 165 0
135 157 0
141 162 0
137 158 0
138 159 0
144 165 0
136 156 0
132 152 0
128 148 0
136 157 0
136 157 0
134 154 0
141 163 0
137 159 0
136 157 0
146 167 0
136 157 0
135 157 0
141 163 0
137 157 0
141 163 0
150 171 0
141 162 0
136 156 0
144 165 0
133 153 0
142 163 0
133 154 0
146 168 0
151 172 0
147 168 0
141 163 0
141 162 0
129 151 0
141 163 0
146 168 0
138 159 0
138 159 0
143 164 0
146 167 0
131 152 0
144 165 0
139 159 0
147 167 0
138 158 0
146 167 0
140 162 0
143 164 0
132 153 0
144 165 0
144 166 0
144 164 0
149 170 0
138 160 0
142 163 0
137 158 0
150 172 0
134 155 0
141 163 0
145 166 0
140 162 0
145 166 0
148 170 0
148 170 0
149 171 0
147 167 0
141 162 0
145 166 0
149 169 0
156 178 0
143 165 0
138 158 0
146 165 0
140 161 0
143 164 0
141 162 0
145 167 0
153 174 0
147 169 0
156 177 0
144 166 0
149 169 0
150 172 0
154 176 0
148 169 0
150 172 0
145 167 0
154 176 0
153 176 0
156 178 0
150 172 0
158 179 0
152 174 0
155 175 0
154 177 0
159 182 0
152 174 0
160 181 0
155 176 0
150 173 0
154 178 0
153 175 0
159 182 0
149 173 0
157 179 0
149 170 0
155 178 0
161 184 0
153 175 0
159 181 0
158 180 0
162 184 0
157 179 0
151 172 0
156 176 0
155 175 0
150 172 0
150 170 0
156 177 0
159 182 0
154 176 0
153 174 0
155 176 0
150 171 0
155 177 0
159 180 0
158 180 0
151 171 0
156 178 0
156 177 0
155 177 0
161 183 0
159 179 0
161 182 0
158 181 0
154 175 0
160 181 0
158 180 0
156 178 0
151 173 0
152 173 0
157 179 0
160 183 0
163 185 0
159 180 0
153 174 0
167 188 0
157 179 0
160 182 0
165 186 0
164 187 0
165 187 0
166 187 0
154 176 0
164 185 0
167 189 0
158 180 0
162 184 0
164 187 0
162 184 0
165 188 0
156 175 0
169 190 0
163 184 0
162 184 0
159 182 0
160 181 0
161 183 0
164 186 0
164 186 0
162 182 0
160 180 0
161 183 0
167 189 0
162 183 0
165 186 0
160 182 0
167 190 0
164 185 0
165 187 0
161 183 0
164 186 0
167 189 0
164 185 0
168 191 0
161 182 0
168 191 0
163 184 0
159 181 0
166 188 0
165 188 0
164 185 0
163 185 0
162 184 0
163 186 0
166 187 0
161 182 0
162 182 0
163 184 0
165 187 0
162 184 0
160 180 0
159 181 0
164 187 0
165 188 0
165 187 0
161 183 0
168 190 0
169 190 0
167 189 0
165 186 0
169 191 0
166 188 0
166 188 0
169 191 0
166 188 0
169 190 0
166 188 0
171 194 0
164 186 0
167 189 0
163 185 0
166 189 0
172 194 0
168 191 0
167 190 0
169 191 0
166 189 0
164 187 0
165 188 0
168 190 0
169 192 0
164 187 0
165 189 0
163 187 0
169 192 0
165 188 0
168 190 0
168 191 0
168 191 0
157 179 0
166 189 0
168 191 0
166 189 0
166 188 0
162 185 0
164 188 0
165 188 0
169 193 0
168 190 0
163 186 0
165 189 0
163 186 0
163 186 0
162 185 0
167 190 0
165 188 0
168 191 0
164 187 0
164 188 0
166 189 0
163 186 0
158 181 0
161 183 0
164 186 0
161 184 0
166 189 0
162 185 0
157 180 0
161 183 0
164 186 0
164 186 0
167 190 0
158 181 0
163 185 0
167 189 0
165 188 0
164 187 0
156 179 0
158 181 0
162 184 0
159 181 0
161 184 0
162 184 0
157 180 0
160 182 0
157 179 0
165 186 0
160 181 0
162 183 0
154 176 0
156 179 0
164 186 0
156 178 0
154 176 0
166 188 0
154 175 0
157 179 0
155 176 0
155 176 0
155 177 0
149 170 0
154 177 0
152 174 0
154 175 0
158 180 0
160 181 0
148 170 0
156 178 0
152 173 0
155 176 0
160 182 0
151 173 0
149 171 0
157 179 0
160 182 0
144 165 0
155 177 0
157 180 0
146 167 0
151 173 0
154 176 0
151 173 0
151 172 0
162 183 0
148 168 0
150 172 0
151 173 0
150 172 0
136 156 0
157 177 0
158 180 0
147 168 0
152 173 0
142 162 0
150 170 0
151 173 0
157 178 0
146 168 0
154 175 0
139 161 0
150 170 0
150 171 0
143 164 0
147 168 0
148 169 0
151 173 0
142 164 0
142 164 0
144 166 0
148 170 0
152 173 0
151 172 0
154 175 0
145 166 0
146 167 0
149 170 0
148 170 0
149 172 0
155 177 0
152 174 0
155 176 0
150 173 0
160 181 0
152 173 0
155 177 0
154 176 0
159 180 0
146 167 0
152 174 0
148 170 0
154 175 0
148 170 0
152 174 0
146 166 0
145 167 0
151 172 0
155 178 0
147 168 0
143 164 0
149 171 0
146 168 0
152 174 0
143 164 0
140 161 0
141 163 0
142 163 0
148 169 0
134 156 0
142 164 0
140 161 0
139 160 0
140 160 0
133 155 0
144 165 0
140 161 0
142 162 0
143 163 0
151 172 0
150 171 0
138 159 0
135 156 0
133 154 0
139 160 0
151 172 0
134 155 0
131 152 0
139 160 0
130 150 0
137 158 0
138 159 0
144 165 0
141 162 0
150 171 0
141 163 0
133 153 0
144 165 0
134 156 0
134 155 0
139 161 0
135 156 0
141 161 0
133 155 0
134 154 0
145 167 0
146 168 0
141 162 0
141 163 0
145 168 0
142 164 0
139 160 0
137 159 0
134 157 0
137 158 0
125 146 0
132 154 0
134 152 0
140 161 0
141 162 0
142 163 0
134 155 0
143 165 0
143 165 0
141 164 0
134 155 0
146 168 0
147 168 0
135 158 0
145 165 0
146 167 0
144 164 0
141 162 0
147 168 0
139 160 0
145 167 0
142 164 0
141 163 0
139 160 0
142 164 0
139 161 0
140 161 0
149 171 0
147 169 0
139 160 0
142 164 0
144 165 0
145 166 0
150 172 0
148 169 0
143 165 0
153 174 0
147 167 0
147 168 0
151 171 0
155 178 0
152 172 0
147 168 0
151 173 0
144 166 0
145 166 0
144 165 0
154 176 0
151 172 0
147 168 0
158 180 0
146 168 0
147 170 0
144 164 0
153 176 0
152 174 0
158 179 0
154 175 0
151 173 0
156 178 0
155 177 0
152 173 0
153 175 0
153 175 0
147 168 0
150 172 0
148 169 0
159 180 0
150 172 0
155 177 0
154 175 0
152 175 0
156 178 0
153 175 0
158 181 0
152 173 0
156 177 0
152 173 0
155 176 0
150 170 0
159 181 0
161 183 0
158 180 0
160 181 0
157 179 0
152 173 0
162 185 0
152 173 0
157 180 0
152 174 0
157 179 0
150 171 0
151 173 0
158 180 0
158 180 0
160 183 0
157 179 0
153 174 0
159 181 0
154 176 0
158 179 0
163 186 0
159 180 0
157 179 0
156 178 0
159 181 0
162 184 0
161 183 0
156 180 0
159 181 0
156 179 0
161 183 0
159 181 0
157 178 0
158 179 0
165 188 0
159 181 0
160 183 0
161 183 0
161 182 0
155 177 0
161 184 0
160 183 0
157 179 0
164 186 0
163 184 0
158 178 0
163 186 0
163 187 0
162 182 0
163 185 0
165 188 0
163 184 0
165 186 0
163 185 0
162 184 0
162 184 0
165 187 0
165 187 0
165 187 0
162 183 0
164 187 0
168 191 0
163 186 0
164 186 0
153 175 0
162 184 0
164 186 0
165 187 0
160 182 0
163 185 0
165 186 0
162 184 0
159 182 0
164 185 0
162 184 0
165 187 0
166 189 0
164 186 0
165 187 0
165 188 0
166 187 0
166 188 0
167 190 0
165 188 0
166 189 0
167 189 0
167 189 0
166 189 0
167 189 0
168 191 0
165 187 0
168 189 0
170 192 0
166 189 0
168 191 0
169 189 0
167 190 0
164 186 0
166 188 0
166 189 0
163 185 0
167 189 0
164 186 0
162 184 0
166 187 0
164 186 0
163 185 0
167 190 0
169 191 0
168 190 0
166 189 0
167 189 0
168 191 0
165 188 0
166 189 0
166 189 0
165 188 0
166 190 0
168 191 0
170 193 0
168 191 0
168 192 0
167 190 0
168 192 0
166 189 0
160 183 0
167 190 0
165 189 0
163 186 0
167 190 0
172 194 0
161 184 0
167 190 0
162 185 0
159 182 0
167 190 0
170 193 0
161 184 0
165 188 0
165 188 0
164 187 0
169 191 0
156 179 0
164 187 0
170 192 0
164 187 0
159 182 0
165 188 0
168 190 0
165 187 0
165 189 0
164 187 0
165 188 0
156 179 0
162 185 0
158 181 0
160 182 0
161 184 0
164 187 0
160 182 0
160 182 0
156 178 0
163 185 0
157 180 0
155 177 0
160 184 0
169 190 0
161 184 0
162 184 0
163 185 0
158 179 0
160 182 0
157 180 0
160 182 0
157 179 0
155 178 0
146 168 0
161 182 0
160 181 0
159 181 0
157 179 0
163 184 0
161 182 0
158 180 0
156 178 0
155 176 0
158 180 0
150 172 0
155 177 0
160 182 0
151 173 0
157 179 0
157 179 0
153 175 0
148 169 0
155 178 0
157 179 0
156 178 0
144 166 0
157 178 0
160 181 0
156 178 0
154 176 0
154 176 0
150 172 0
150 172 0
157 178 0
152 173 0
158 179 0
149 171 0
150 172 0
151 174 0
159 181 0
150 171 0
153 174 0
146 167 0
153 175 0
152 173 0
156 177 0
147 168 0
150 171 0
140 161 0
149 170 0
148 171 0
147 168 0
150 172 0
149 171 0
147 169 0
150 171 0
147 169 0
157 179 0
142 164 0
150 173 0
146 168 0
139 161 0
146 168 0
145 167 0
146 169 0
155 178 0
139 161 0
151 173 0
152 174 0
157 179 0
147 168 0
148 170 0
149 171 0
145 167 0
157 180 0
156 179 0
156 178 0
160 182 0
148 170 0
155 178 0
160 182 0
155 177 0
152 174 0
152 174 0
152 175 0
154 176 0
149 171 0
146 168 0
156 178 0
157 179 0
139 160 0
147 169 0
154 175 0
144 165 0
144 164 0
143 164 0
143 164 0
147 168 0
142 164 0
135 155 0
137 158 0
149 170 0
143 165 0
143 164 0
139 159 0
137 157 0
139 159 0
137 157 0
142 164 0
137 159 0
148 169 0
143 164 0
147 168 0
137 159 0
133 154 0
137 158 0
140 163 0
138 159 0
142 164 0
132 153 0
139 161 0
137 158 0
135 156 0
150 172 0
144 165 0
132 154 0
136 158 0
143 165 0
143 163 0
145 166 0
138 160 0
141 162 0
144 165 0
148 169 0
135 156 0
147 168 0
137 159 0
142 164 0
130 152 0
136 158 0
146 168 0
144 165 0
151 172 0
140 161 0
129 150 0
137 160 0
144 166 0
141 163 0
142 164 0
137 158 0
140 160 0
133 155 0
145 166 0
137 159 0
142 163 0
145 166 0
144 165 0
143 164 0
135 157 0
147 167 0
144 165 0
135 157 0
135 157 0
149 172 0
150 171 0
143 165 0
146 168 0
138 159 0
145 166 0
152 175 0
150 171 0
148 170 0
144 167 0
146 167 0
152 173 0
149 172 0
141 163 0
151 173 0
147 168 0
143 164 0
141 164 0
140 161 0
146 168 0
141 161 0
145 166 0
144 166 0
144 166 0
153 174 0
143 165 0
155 176 0
139 160 0
144 164 0
154 175 0
158 180 0
157 178 0
146 169 0
150 171 0
152 175 0
147 169 0
147 170 0
144 166 0
149 169 0
157 181 0
148 171 0
143 164 0
152 173 0
139 161 0
153 175 0
152 174 0
147 168 0
157 180 0
153 175 0
150 173 0
155 177 0
155 177 0
148 170 0
153 174 0
147 168 0
156 177 0
156 178 0
157 178 0
155 177 0
153 175 0
160 183 0
155 178 0
149 171 0
154 177 0
155 177 0
160 182 0
156 178 0
154 176 0
155 176 0
156 178 0
155 177 0
157 179 0
161 183 0
159 181 0
161 183 0
151 174 0
154 176 0
158 180 0
159 182 0
158 179 0
154 175 0
157 180 0
158 179 0
160 182 0
159 180 0
157 179 0
162 184 0
161 182 0
160 181 0
161 182 0
161 182 0
156 177 0
158 181 0
161 184 0
165 186 0
164 186 0
160 182 0
157 179 0
161 185 0
165 186 0
163 186 0
168 190 0
153 176 0
161 183 0
158 180 0
163 185 0
163 185 0
157 178 0
157 178 0
162 183 0
163 184 0
152 173 0
160 183 0
166 188 0
162 184 0
162 185 0
164 185 0
162 185 0
162 183 0
165 188 0
165 188 0
165 187 0
162 184 0
166 188 0
164 185 0
166 189 0
164 187 0
165 188 0
169 190 0
163 185 0
163 185 0
167 188 0
165 187 0
168 191 0
156 178 0
161 183 0
163 186 0
160 181 0
168 190 0
166 188 0
164 185 0
166 190 0
169 192 0
166 187 0
165 188 0
164 186 0
161 183 0
169 190 0
168 190 0
166 188 0
162 184 0
163 185 0
162 183 0
162 184 0
167 190 0
163 185 0
159 180 0
164 185 0
165 186 0
166 187 0
161 185 0
169 191 0
164 186 0
160 182 0
164 186 0
160 182 0
166 187 0
164 188 0
167 190 0
169 191 0
166 188 0
166 188 0
169 191 0
168 189 0
164 187 0
164 185 0
170 192 0
166 187 0
164 186 0
166 188 0
166 189 0
166 189 0
165 189 0
166 189 0
174 197 0
167 190 0
164 188 0
167 190 0
166 189 0
167 191 0
165 189 0
172 195 0
163 186 0
165 188 0
167 190 0
167 190 0
164 187 0
167 189 0
164 186 0
168 191 0
169 192 0
163 185 0
168 191 0
166 189 0
168 190 0
165 187 0
160 183 0
164 187 0
163 185 0
162 185 0
163 186 0
165 188 0
165 188 0
173 195 0
167 189 0
163 185 0
168 191 0
163 185 0
158 181 0
165 188 0
166 188 0
166 188 0
162 184 0
162 183 0
161 184 0
162 185 0
162 185 0
159 181 0
161 183 0
166 189 0
158 181 0
162 184 0
164 186 0
163 184 0
160 182 0
157 180 0
161 183 0
157 179 0
161 184 0
158 180 0
153 175 0
160 182 0
162 183 0
160 183 0
158 180 0
160 182 0
160 183 0
156 178 0
155 178 0
152 174 0
157 180 0
158 179 0
154 176 0
162 184 0
154 175 0
152 173 0
158 179 0
150 173 0
158 180 0
156 177 0
156 179 0
153 174 0
150 172 0
152 174 0
154 175 0
150 173 0
154 176 0
151 172 0
155 176 0
159 180 0
150 172 0
147 169 0
153 174 0
151 171 0
147 168 0
148 170 0
150 172 0
152 173 0
160 181 0
153 174 0
148 170 0
156 178 0
150 171 0
160 181 0
145 167 0
152 174 0
154 176 0
155 176 0
151 173 0
148 169 0
145 167 0
142 162 0
153 174 0
151 173 0
153 176 0
153 175 0
147 169 0
141 163 0
148 171 0
155 177 0
148 171 0
152 174 0
144 165 0
151 172 0
151 173 0
151 173 0
149 171 0
158 181 0
156 178 0
151 173 0
147 170 0
142 163 0
151 174 0
152 173 0
160 182 0
158 180 0
157 179 0
149 172 0
154 175 0
153 176 0
161 184 0
150 172 0
141 163 0
153 175 0
143 166 0
148 171 0
150 172 0
154 176 0
141 164 0
144 166 0
144 165 0
144 165 0
152 174 0
148 169 0
134 155 0
142 161 0
140 160 0
146 167 0
145 167 0
150 172 0
144 166 0
137 158 0
144 165 0
139 161 0
141 162 0
139 160 0
139 159 0
149 170 0
134 156 0
139 159 0
146 168 0
137 158 0
138 160 0
140 161 0
144 165 0
138 160 0
137 158 0
141 162 0
130 150 0
144 166 0
140 160 0
141 162 0
142 163 0
134 156 0
144 165 0
138 159 0
141 163 0
135 155 0
148 169 0
140 161 0
145 166 0
134 157 0
148 169 0
142 163 0
135 157 0
138 159 0
141 162 0
141 163 0
142 165 0
148 170 0
132 152 0
144 165 0
145 167 0
140 161 0
145 166 0
146 168 0
148 169 0
139 160 0
145 166 0
143 165 0
144 165 0
134 154 0
146 167 0
141 161 0
152 174 0
143 164 0
142 165 0
140 160 0
149 171 0
143 165 0
143 164 0
144 165 0
150 171 0
140 162 0
145 167 0
149 171 0
142 163 0
146 167 0
141 162 0
147 170 0
147 170 0
143 164 0
147 168 0
144 165 0
145 167 0
148 170 0
145 168 0
147 169 0
148 168 0
153 175 0
144 165 0
153 174 0
146 167 0
143 165 0
154 175 0
151 173 0
146 168 0
149 171 0
146 167 0
152 174 0
152 174 0
151 173 0
147 168 0
154 177 0
150 171 0
153 175 0
154 176 0
150 171 0
159 181 0
153 174 0
150 172 0
152 174 0
151 174 0
151 174 0
156 177 0
152 172 0
154 177 0
154 174 0
149 171 0
155 174 0
151 173 0
161 183 0
151 174 0
153 175 0
156 179 0
150 172 0
159 182 0
156 178 0
160 182 0
150 169 0
152 173 0
158 181 0
157 180 0
159 182 0
157 178 0
158 181 0
158 180 0
153 174 0
154 178 0
161 183 0
147 169 0
149 172 0
160 182 0
158 180 0
157 179 0
156 178 0
163 186 0
154 175 0
161 184 0
159 181 0
159 182 0
158 180 0
157 180 0
160 182 0
160 181 0
154 175 0
156 177 0
160 181 0
158 180 0
158 181 0
161 181 0
158 180 0
155 176 0
160 182 0
162 184 0
163 185 0
158 182 0
166 190 0
165 188 0
164 187 0
159 180 0
159 181 0
160 181 0
160 182 0
162 185 0
166 189 0
159 181 0
165 187 0
163 185 0
163 183 0
163 185 0
161 183 0
158 179 0
165 187 0
163 186 0
159 182 0
160 183 0
165 187 0
159 182 0
168 190 0
164 186 0
159 180 0
165 187 0
163 184 0
168 190 0
163 184 0
162 184 0
161 184 0
164 185 0
163 184 0
161 183 0
165 188 0
165 188 0
159 181 0
164 185 0
164 187 0
165 187 0
167 189 0
166 188 0
169 190 0
169 190 0
166 189 0
166 187 0
166 188 0
162 184 0
167 189 0
164 187 0
165 187 0
161 184 0
158 179 0
162 185 0
166 188 0
166 189 0
163 185 0
171 192 0
170 192 0
161 182 0
168 190 0
162 183 0
168 189 0
166 189 0
163 185 0
161 184 0
164 187 0
168 191 0
167 189 0
168 190 0
169 191 0
167 190 0
171 194 0
166 188 0
165 187 0
169 190 0
166 187 0
164 187 0
166 187 0
168 190 0
166 188 0
166 188 0
167 190 0
169 192 0
166 189 0
167 190 0
166 190 0
168 191 0
166 190 0
163 186 0
171 194 0
168 192 0
167 191 0
165 188 0
167 190 0
163 185 0
169 192 0
164 188 0
171 194 0
165 188 0
164 187 0
167 190 0
163 186 0
170 193 0
165 188 0
166 189 0
171 194 0
162 185 0
163 185 0
165 188 0
163 186 0
163 185 0
162 185 0
171 193 0
160 183 0
163 186 0
162 185 0
167 189 0
168 191 0
160 183 0
161 183 0
164 186 0
170 192 0
161 183 0
161 183 0
155 177 0
165 188 0
166 188 0
163 185 0
162 184 0
165 187 0
162 184 0
158 180 0
156 178 0
157 179 0
162 184 0
159 181 0
161 183 0
157 180 0
159 182 0
165 187 0
163 185 0
154 176 0
163 185 0
159 180 0
158 181 0
154 176 0
154 176 0
154 176 0
161 184 0
161 183 0
160 182 0
156 177 0
162 184 0
156 178 0
153 174 0
156 179 0
162 184 0
158 179 0
154 174 0
162 183 0
154 175 0
158 179 0
152 174 0
156 177 0
154 175 0
152 173 0
156 177 0
158 180 0
158 179 0
158 179 0
157 178 0
159 181 0
156 178 0
155 177 0
155 177 0
155 177 0
151 172 0
159 180 0
153 175 0
152 174 0
156 178 0
149 171 0
148 170 0
157 178 0
148 170 0
153 175 0
148 169 0
159 180 0
144 166 0
148 170 0
148 169 0
152 174 0
151 172 0
149 171 0
154 176 0
152 174 0
147 169 0
148 170 0
153 175 0
150 171 0
153 175 0
147 170 0
150 173 0
145 168 0
149 171 0
156 178 0
152 173 0
151 174 0
148 170 0
153 176 0
156 178 0
159 182 0
155 179 0
151 175 0
153 176 0
157 180 0
156 179 0
147 171 0
157 179 0
158 180 0
157 179 0
153 174 0
155 177 0
147 170 0
154 176 0
150 172 0
152 174 0
147 168 0
144 165 0
152 175 0
149 170 0
139 160 0
156 177 0
142 163 0
149 170 0
125 145 0
151 173 0
144 165 0
142 163 0
150 172 0
140 161 0
141 161 0
147 169 0
150 171 0
140 161 0
145 165 0
142 164 0
145 166 0
150 171 0
142 163 0
147 169 0
145 166 0
134 154 0
154 176 0
141 163 0
137 159 0
145 165 0
143 164 0
138 159 0
137 157 0
144 164 0
144 164 0
152 174 0
147 169 0
139 160 0
138 160 0
143 165 0
148 170 0
148 169 0
152 174 0
142 163 0
131 152 0
149 170 0
137 159 0
141 161 0
137 159 0
137 158 0
147 169 0
135 157 0
141 162 0
141 164 0
151 172 0
145 165 0
151 172 0
145 166 0
142 163 0
144 164 0
142 163 0
138 159 0
147 169 0
141 161 0
143 165 0
151 171 0
150 173 0
141 162 0
134 156 0
148 169 0
152 173 0
143 165 0
146 167 0
139 161 0
145 166 0
142 164 0
150 171 0
138 159 0
143 165 0
141 163 0
144 166 0
147 169 0
145 167 0
149 170 0
146 167 0
148 170 0
145 167 0
141 162 0
140 161 0
143 165 0
148 167 0
154 176 0
146 167 0
145 166 0
154 176 0
142 164 0
149 170 0
147 168 0
155 178 0
148 170 0
144 166 0
152 172 0
149 171 0
142 165 0
150 170 0
150 172 0
149 172 0
149 171 0
153 174 0
155 177 0
150 172 0
151 174 0
152 174 0
158 181 0
153 175 0
151 173 0
156 178 0
150 172 0
155 177 0
160 182 0
154 176 0
152 172 0
158 180 0
153 174 0
155 178 0
161 183 0
157 178 0
154 177 0
153 174 0
154 176 0
156 177 0
159 181 0
155 178 0
151 173 0
159 182 0
156 178 0
151 172 0
155 177 0
149 170 0
157 180 0
150 172 0
157 177 0
154 175 0
156 178 0
153 176 0
155 176 0
154 177 0
154 176 0
157 178 0
157 179 0
155 178 0
161 183 0
158 180 0
157 178 0
162 184 0
153 175 0
162 185 0
158 180 0
158 180 0
155 176 0
158 180 0
156 179 0
163 184 0
164 186 0
157 180 0
159 181 0
155 177 0
165 189 0
167 188 0
163 184 0
159 181 0
156 178 0
164 185 0
161 184 0
163 186 0
167 188 0
155 178 0
159 180 0
156 178 0
159 181 0
160 181 0
165 188 0
163 185 0
165 188 0
159 180 0
165 187 0
161 183 0
163 185 0
160 182 0
165 186 0
165 187 0
162 184 0
159 180 0
165 187 0
166 189 0
164 185 0
160 182 0
165 188 0
162 183 0
162 183 0
160 183 0
164 185 0
166 189 0
166 187 0
166 189 0
155 178 0
161 183 0
160 182 0
166 189 0
166 188 0
166 188 0
164 187 0
169 190 0
163 185 0
163 185 0
164 187 0
163 184 0
166 189 0
170 192 0
163 184 0
163 185 0
166 187 0
161 182 0
161 183 0
164 186 0
163 186 0
166 188 0
162 184 0
166 189 0
163 184 0
165 187 0
165 188 0
167 189 0
167 188 0
166 188 0
169 190 0
168 190 0
164 186 0
165 187 0
161 184 0
166 189 0
169 191 0
165 187 0
168 192 0
164 186 0
165 187 0
169 192 0
168 191 0
167 188 0
165 188 0
160 182 0
169 193 0
165 186 0
169 191 0
164 186 0
165 187 0
